(G-code generated by FlatCAM Evo vUnstable - Version Date: 2023/6/31)

(Name: Alignment Drills_mill_cnc)
(Type: G-code from Geometry)
(Units: MM)

(Created on Tuesday, 17 February 2026 at 21:05)

(This preprocessor is used with a motion controller loaded with GRBL firmware.)
(It is configured to be compatible with almost any version of GRBL firmware.)

(TOOL DIAMETER: 3.18 mm)
(Feedrate_XY: 120.0 mm/min)
(Feedrate_Z: 60.0 mm/min)
(Feedrate rapids 1500.0 mm/min)

(Z_Cut: -5.0 mm)
(Z_Move: 2.0 mm)
(Z Start: None mm)
(Z End: 5.0 mm)
(X,Y End: None mm)
(Steps per circle: 16)
(Preprocessor Geometry: GRBL_11)

(X range:   -4.4995 ...   64.4995  mm)
(Y range:   25.0000 ...   25.0000  mm)

(Spindle Speed: 15000 RPM)
G21
G90
G17
G94


G01 F120.00
G00 Z2.0000

M03 S15000
G00 X-4.4995 Y25.0000
G01 F60.00
G01 Z-5.0000
G01 F120.00
G01 X-4.4995 Y25.0000 F120.00
G01 X-4.4995 Y25.0000 F120.00
G01 X-4.4995 Y25.0000 F120.00
G00 Z2.0000
G00 X64.4995 Y25.0000
G01 F60.00
G01 Z-5.0000
G01 F120.00
G01 X64.4995 Y25.0000 F120.00
G01 X64.4995 Y25.0000 F120.00
G01 X64.4995 Y25.0000 F120.00
G00 Z2.0000
M05
G00 Z2.0000
G00 Z5.00


