(G-code generated by FlatCAM Evo vUnstable - Version Date: 2023/6/31)

(Name: CNC_Coolant_Pump_Control-B_Cu.gbl_iso_combined_cnc)
(Type: G-code from Geometry)
(Units: MM)

(Created on Tuesday, 17 February 2026 at 21:20)

(This preprocessor is used with a motion controller loaded with GRBL firmware. )
(It is for the case when it is used together with a LASER connected on the SPINDLE connector.)
(This preprocessor makes no moves on the Z axis it will only move horizontally.)
(The horizontal move is done with G0 - highest possible speed set in the GRBL controller.)
(It assumes a manually focused laser.)
(The laser is started with M3 or M4 command and stopped with the M5 command.)

(Feedrate: 300.0 mm/min)
(Steps per circle: 16)
(Preprocessor Geometry: GRBL_laser)

(X range:    0.3105 ...   59.6895  mm)
(Y range:    0.3105 ...   49.6895  mm)

(Laser Power - Spindle Speed: 255.0)
(Laser Minimum Power: 0.0)

G21
G90
G17
G94

G1 F300.00
M5

M5
G1 F300.00
G0 X13.6146 Y20.6923
G1 F60.00
M03 S255.0
G1 F300.00
G1 X13.5960 Y20.8700 F300.00
G1 X13.6126 Y21.0388 F300.00
G1 X13.6584 Y21.1919 F300.00
G1 X13.7366 Y21.3421 F300.00
G1 X13.8491 Y21.4809 F300.00
G1 X13.9724 Y21.5830 F300.00
G1 X14.1208 Y21.6645 F300.00
G1 X14.2912 Y21.7174 F300.00
G1 X14.4600 Y21.7340 F300.00
G1 X14.6288 Y21.7174 F300.00
G1 X14.7819 Y21.6716 F300.00
G1 X14.9321 Y21.5934 F300.00
G1 X15.0709 Y21.4809 F300.00
G1 X15.1730 Y21.3576 F300.00
G1 X15.2545 Y21.2092 F300.00
G1 X15.3074 Y21.0388 F300.00
G1 X15.3240 Y20.8700 F300.00
G1 X15.3074 Y20.7012 F300.00
G1 X15.2616 Y20.5481 F300.00
G1 X15.1834 Y20.3979 F300.00
G1 X15.0709 Y20.2591 F300.00
G1 X14.9476 Y20.1570 F300.00
G1 X14.7992 Y20.0755 F300.00
G1 X14.6288 Y20.0226 F300.00
G1 X14.4600 Y20.0060 F300.00
G1 X14.2912 Y20.0226 F300.00
G1 X14.1381 Y20.0684 F300.00
G1 X13.9879 Y20.1466 F300.00
G1 X13.8491 Y20.2591 F300.00
G1 X13.7470 Y20.3824 F300.00
G1 X13.6655 Y20.5308 F300.00
G1 X13.6146 Y20.6923 F300.00
M5
G0 X13.6297 Y20.6447
G1 F60.00
M03 S255.0
G1 F300.00
G1 X13.6146 Y20.6923 F300.00
G1 X13.6146 Y20.6923 F300.00
M5
G0 X13.6825 Y20.7094
G1 F60.00
M03 S255.0
G1 F300.00
G1 X13.6660 Y20.8700 F300.00
G1 X13.6813 Y21.0250 F300.00
G1 X13.7243 Y21.1684 F300.00
G1 X13.7967 Y21.3061 F300.00
G1 X13.8986 Y21.4314 F300.00
G1 X14.0141 Y21.5268 F300.00
G1 X14.1508 Y21.6012 F300.00
G1 X14.3050 Y21.6487 F300.00
G1 X14.4600 Y21.6640 F300.00
G1 X14.6150 Y21.6487 F300.00
G1 X14.7584 Y21.6057 F300.00
G1 X14.8961 Y21.5333 F300.00
G1 X15.0214 Y21.4314 F300.00
G1 X15.1168 Y21.3159 F300.00
G1 X15.1912 Y21.1792 F300.00
G1 X15.2387 Y21.0250 F300.00
G1 X15.2540 Y20.8700 F300.00
G1 X15.2387 Y20.7150 F300.00
G1 X15.1957 Y20.5716 F300.00
G1 X15.1233 Y20.4339 F300.00
G1 X15.0214 Y20.3086 F300.00
G1 X14.9059 Y20.2132 F300.00
G1 X14.7692 Y20.1388 F300.00
G1 X14.6150 Y20.0913 F300.00
G1 X14.4600 Y20.0760 F300.00
G1 X14.3050 Y20.0913 F300.00
G1 X14.1616 Y20.1343 F300.00
G1 X14.0239 Y20.2067 F300.00
G1 X13.8986 Y20.3086 F300.00
G1 X13.8032 Y20.4241 F300.00
G1 X13.7288 Y20.5608 F300.00
G1 X13.6825 Y20.7094 F300.00
M5
G0 X13.6974 Y20.6616
G1 F60.00
M03 S255.0
G1 F300.00
G1 X13.6825 Y20.7094 F300.00
G1 X13.6825 Y20.7094 F300.00
M5
G0 X13.7504 Y20.7264
G1 F60.00
M03 S255.0
G1 F300.00
G1 X13.7360 Y20.8700 F300.00
G1 X13.7499 Y21.0113 F300.00
G1 X13.7902 Y21.1448 F300.00
G1 X13.8567 Y21.2702 F300.00
G1 X13.9481 Y21.3819 F300.00
G1 X14.0558 Y21.4706 F300.00
G1 X14.1807 Y21.5379 F300.00
G1 X14.3187 Y21.5801 F300.00
G1 X14.4600 Y21.5940 F300.00
G1 X14.6013 Y21.5801 F300.00
G1 X14.7348 Y21.5398 F300.00
G1 X14.8602 Y21.4733 F300.00
G1 X14.9719 Y21.3819 F300.00
G1 X15.0606 Y21.2742 F300.00
G1 X15.1279 Y21.1493 F300.00
G1 X15.1701 Y21.0113 F300.00
G1 X15.1840 Y20.8700 F300.00
G1 X15.1701 Y20.7287 F300.00
G1 X15.1298 Y20.5952 F300.00
G1 X15.0633 Y20.4698 F300.00
G1 X14.9719 Y20.3581 F300.00
G1 X14.8642 Y20.2694 F300.00
G1 X14.7393 Y20.2021 F300.00
G1 X14.6013 Y20.1599 F300.00
G1 X14.4600 Y20.1460 F300.00
G1 X14.3187 Y20.1599 F300.00
G1 X14.1852 Y20.2002 F300.00
G1 X14.0598 Y20.2667 F300.00
G1 X13.9481 Y20.3581 F300.00
G1 X13.8594 Y20.4658 F300.00
G1 X13.7921 Y20.5907 F300.00
G1 X13.7504 Y20.7264 F300.00
M5
G0 X13.7651 Y20.6786
G1 F60.00
M03 S255.0
G1 F300.00
G1 X13.7504 Y20.7264 F300.00
G1 X13.7504 Y20.7264 F300.00
M5
G0 X21.2507 Y20.6282
G1 F60.00
M03 S255.0
G1 F300.00
G1 X21.2204 Y20.7830 F300.00
G1 X21.2204 Y20.9570 F300.00
G1 X21.2548 Y21.1257 F300.00
G1 X21.3195 Y21.2800 F300.00
G1 X21.4147 Y21.4212 F300.00
G1 X21.5288 Y21.5353 F300.00
G1 X21.6700 Y21.6305 F300.00
G1 X21.8243 Y21.6952 F300.00
G1 X21.9930 Y21.7296 F300.00
G1 X22.1670 Y21.7296 F300.00
G1 X22.3357 Y21.6952 F300.00
G1 X22.4900 Y21.6305 F300.00
G1 X22.6312 Y21.5353 F300.00
G1 X22.7453 Y21.4212 F300.00
G1 X22.8405 Y21.2800 F300.00
G1 X22.9052 Y21.1257 F300.00
G1 X22.9396 Y20.9570 F300.00
G1 X22.9405 Y20.7946 F300.00
G1 X22.9093 Y20.6282 F300.00
G1 X22.8745 Y20.5308 F300.00
G1 X22.8034 Y20.3979 F300.00
G1 X22.6974 Y20.2658 F300.00
G1 X22.5676 Y20.1570 F300.00
G1 X22.4601 Y20.0949 F300.00
G1 X22.4601 Y12.1412 F300.00
G1 X22.6054 Y12.0594 F300.00
G1 X22.7486 Y11.9418 F300.00
G1 X22.8291 Y11.8532 F300.00
G1 X22.9326 Y11.6984 F300.00
G1 X22.9842 Y11.5893 F300.00
G1 X23.0391 Y11.4070 F300.00
G1 X23.0557 Y11.2926 F300.00
G1 X23.0557 Y11.1074 F300.00
G1 X23.0391 Y10.9930 F300.00
G1 X23.0177 Y10.9071 F300.00
G1 X22.9771 Y10.7935 F300.00
G1 X22.8879 Y10.6271 F300.00
G1 X22.8291 Y10.5468 F300.00
G1 X22.7554 Y10.4646 F300.00
G1 X22.6054 Y10.3406 F300.00
G1 X22.5019 Y10.2786 F300.00
G1 X22.3268 Y10.2064 F300.00
G1 X22.2270 Y10.1809 F300.00
G1 X22.1243 Y10.1653 F300.00
G1 X22.0200 Y10.1600 F300.00
G1 X21.9157 Y10.1653 F300.00
G1 X21.8130 Y10.1809 F300.00
G1 X21.7132 Y10.2064 F300.00
G1 X21.5343 Y10.2804 F300.00
G1 X21.3668 Y10.3909 F300.00
G1 X21.2846 Y10.4646 F300.00
G1 X21.2109 Y10.5468 F300.00
G1 X21.1004 Y10.7143 F300.00
G1 X21.0264 Y10.8932 F300.00
G1 X21.0009 Y10.9930 F300.00
G1 X20.9853 Y11.0957 F300.00
G1 X20.9843 Y11.2926 F300.00
G1 X21.0009 Y11.4070 F300.00
G1 X21.0558 Y11.5893 F300.00
G1 X21.1074 Y11.6984 F300.00
G1 X21.2109 Y11.8532 F300.00
G1 X21.2914 Y11.9418 F300.00
G1 X21.4346 Y12.0594 F300.00
G1 X21.5799 Y12.1412 F300.00
G1 X21.5799 Y20.1662 F300.00
G1 X21.4691 Y20.2591 F300.00
G1 X21.3670 Y20.3824 F300.00
G1 X21.2855 Y20.5308 F300.00
G1 X21.2507 Y20.6282 F300.00
M5
G0 X21.2676 Y20.5811
G1 F60.00
M03 S255.0
G1 F300.00
G1 X21.2507 Y20.6282 F300.00
G1 X21.2507 Y20.6282 F300.00
M5
G0 X21.3186 Y20.6452
G1 F60.00
M03 S255.0
G1 F300.00
G1 X21.2900 Y20.7907 F300.00
G1 X21.2900 Y20.9493 F300.00
G1 X21.3212 Y21.1036 F300.00
G1 X21.3807 Y21.2460 F300.00
G1 X21.4679 Y21.3757 F300.00
G1 X21.5743 Y21.4821 F300.00
G1 X21.7040 Y21.5693 F300.00
G1 X21.8464 Y21.6288 F300.00
G1 X22.0007 Y21.6600 F300.00
G1 X22.1593 Y21.6600 F300.00
G1 X22.3136 Y21.6288 F300.00
G1 X22.4560 Y21.5693 F300.00
G1 X22.5857 Y21.4821 F300.00
G1 X22.6921 Y21.3757 F300.00
G1 X22.7793 Y21.2460 F300.00
G1 X22.8388 Y21.1036 F300.00
G1 X22.8700 Y20.9493 F300.00
G1 X22.8706 Y20.7980 F300.00
G1 X22.8414 Y20.6452 F300.00
G1 X22.8112 Y20.5608 F300.00
G1 X22.7368 Y20.4241 F300.00
G1 X22.6414 Y20.3086 F300.00
G1 X22.5259 Y20.2132 F300.00
G1 X22.3901 Y20.1392 F300.00
G1 X22.3901 Y12.0965 F300.00
G1 X22.4824 Y12.0526 F300.00
G1 X22.6312 Y11.9531 F300.00
G1 X22.7660 Y11.8198 F300.00
G1 X22.8297 Y11.7339 F300.00
G1 X22.9138 Y11.5766 F300.00
G1 X22.9498 Y11.4759 F300.00
G1 X22.9852 Y11.2966 F300.00
G1 X22.9858 Y11.1108 F300.00
G1 X22.9498 Y10.9241 F300.00
G1 X22.9138 Y10.8234 F300.00
G1 X22.8285 Y10.6642 F300.00
G1 X22.7059 Y10.5141 F300.00
G1 X22.5558 Y10.3915 F300.00
G1 X22.3966 Y10.3062 F300.00
G1 X22.2959 Y10.2702 F300.00
G1 X22.1092 Y10.2342 F300.00
G1 X21.9234 Y10.2348 F300.00
G1 X21.7353 Y10.2728 F300.00
G1 X21.5656 Y10.3430 F300.00
G1 X21.4842 Y10.3915 F300.00
G1 X21.4002 Y10.4540 F300.00
G1 X21.2669 Y10.5888 F300.00
G1 X21.1630 Y10.7456 F300.00
G1 X21.0928 Y10.9153 F300.00
G1 X21.0692 Y11.0081 F300.00
G1 X21.0542 Y11.1108 F300.00
G1 X21.0548 Y11.2966 F300.00
G1 X21.0902 Y11.4759 F300.00
G1 X21.1262 Y11.5766 F300.00
G1 X21.2103 Y11.7339 F300.00
G1 X21.2740 Y11.8198 F300.00
G1 X21.4088 Y11.9531 F300.00
G1 X21.5576 Y12.0526 F300.00
G1 X21.6499 Y12.0965 F300.00
G1 X21.6499 Y20.2031 F300.00
G1 X21.5718 Y20.2601 F300.00
G1 X21.4626 Y20.3709 F300.00
G1 X21.3807 Y20.4940 F300.00
G1 X21.3186 Y20.6452 F300.00
M5
G0 X21.3376 Y20.5989
G1 F60.00
M03 S255.0
G1 F300.00
G1 X21.3186 Y20.6452 F300.00
G1 X21.3186 Y20.6452 F300.00
M5
G0 X21.3865 Y20.6622
G1 F60.00
M03 S255.0
G1 F300.00
G1 X21.3596 Y20.7984 F300.00
G1 X21.3596 Y20.9416 F300.00
G1 X21.3876 Y21.0815 F300.00
G1 X21.4419 Y21.2120 F300.00
G1 X21.5210 Y21.3301 F300.00
G1 X21.6199 Y21.4290 F300.00
G1 X21.7380 Y21.5081 F300.00
G1 X21.8685 Y21.5624 F300.00
G1 X22.0084 Y21.5904 F300.00
G1 X22.1516 Y21.5904 F300.00
G1 X22.2915 Y21.5624 F300.00
G1 X22.4220 Y21.5081 F300.00
G1 X22.5401 Y21.4290 F300.00
G1 X22.6390 Y21.3301 F300.00
G1 X22.7181 Y21.2120 F300.00
G1 X22.7724 Y21.0815 F300.00
G1 X22.8004 Y20.9416 F300.00
G1 X22.8004 Y20.7984 F300.00
G1 X22.7724 Y20.6585 F300.00
G1 X22.7196 Y20.5309 F300.00
G1 X22.6390 Y20.4099 F300.00
G1 X22.5401 Y20.3110 F300.00
G1 X22.4220 Y20.2319 F300.00
G1 X22.3201 Y20.1878 F300.00
G1 X22.3201 Y12.0474 F300.00
G1 X22.4464 Y11.9925 F300.00
G1 X22.5892 Y11.8971 F300.00
G1 X22.6581 Y11.8346 F300.00
G1 X22.7691 Y11.6987 F300.00
G1 X22.8505 Y11.5467 F300.00
G1 X22.8819 Y11.4589 F300.00
G1 X22.9156 Y11.2888 F300.00
G1 X22.9158 Y11.1142 F300.00
G1 X22.8819 Y10.9411 F300.00
G1 X22.8505 Y10.8533 F300.00
G1 X22.7691 Y10.7013 F300.00
G1 X22.6564 Y10.5636 F300.00
G1 X22.5187 Y10.4509 F300.00
G1 X22.3667 Y10.3695 F300.00
G1 X22.2789 Y10.3381 F300.00
G1 X22.1058 Y10.3042 F300.00
G1 X21.9312 Y10.3044 F300.00
G1 X21.7574 Y10.3392 F300.00
G1 X21.5970 Y10.4056 F300.00
G1 X21.4472 Y10.5059 F300.00
G1 X21.3229 Y10.6308 F300.00
G1 X21.2256 Y10.7770 F300.00
G1 X21.1592 Y10.9374 F300.00
G1 X21.1242 Y11.1142 F300.00
G1 X21.1244 Y11.2888 F300.00
G1 X21.1581 Y11.4589 F300.00
G1 X21.1895 Y11.5467 F300.00
G1 X21.2709 Y11.6987 F300.00
G1 X21.3819 Y11.8346 F300.00
G1 X21.4508 Y11.8971 F300.00
G1 X21.5936 Y11.9925 F300.00
G1 X21.7199 Y12.0474 F300.00
G1 X21.7199 Y20.2427 F300.00
G1 X21.6199 Y20.3110 F300.00
G1 X21.5188 Y20.4126 F300.00
G1 X21.4419 Y20.5280 F300.00
G1 X21.3865 Y20.6622 F300.00
M5
G0 X21.4056 Y20.6160
G1 F60.00
M03 S255.0
G1 F300.00
G1 X21.3865 Y20.6622 F300.00
G1 X21.3865 Y20.6622 F300.00
M5
G0 X23.7907 Y20.6282
G1 F60.00
M03 S255.0
G1 F300.00
G1 X23.7604 Y20.7830 F300.00
G1 X23.7604 Y20.9570 F300.00
G1 X23.7948 Y21.1257 F300.00
G1 X23.8595 Y21.2800 F300.00
G1 X23.9547 Y21.4212 F300.00
G1 X24.0688 Y21.5353 F300.00
G1 X24.2100 Y21.6305 F300.00
G1 X24.3643 Y21.6952 F300.00
G1 X24.5330 Y21.7296 F300.00
G1 X24.7070 Y21.7296 F300.00
G1 X24.8757 Y21.6952 F300.00
G1 X25.0300 Y21.6305 F300.00
G1 X25.1712 Y21.5353 F300.00
G1 X25.2853 Y21.4212 F300.00
G1 X25.3805 Y21.2800 F300.00
G1 X25.4452 Y21.1257 F300.00
G1 X25.4796 Y20.9570 F300.00
G1 X25.4805 Y20.7946 F300.00
G1 X25.4493 Y20.6282 F300.00
G1 X25.4145 Y20.5308 F300.00
G1 X25.3434 Y20.3979 F300.00
G1 X25.2374 Y20.2658 F300.00
G1 X25.1076 Y20.1570 F300.00
G1 X25.0001 Y20.0949 F300.00
G1 X25.0001 Y12.1412 F300.00
G1 X25.1454 Y12.0594 F300.00
G1 X25.2886 Y11.9418 F300.00
G1 X25.3691 Y11.8532 F300.00
G1 X25.4726 Y11.6984 F300.00
G1 X25.5242 Y11.5893 F300.00
G1 X25.5791 Y11.4070 F300.00
G1 X25.5957 Y11.2926 F300.00
G1 X25.5957 Y11.1074 F300.00
G1 X25.5791 Y10.9930 F300.00
G1 X25.5577 Y10.9071 F300.00
G1 X25.5171 Y10.7935 F300.00
G1 X25.4279 Y10.6271 F300.00
G1 X25.3691 Y10.5468 F300.00
G1 X25.2954 Y10.4646 F300.00
G1 X25.1454 Y10.3406 F300.00
G1 X25.0419 Y10.2786 F300.00
G1 X24.8668 Y10.2064 F300.00
G1 X24.7670 Y10.1809 F300.00
G1 X24.6643 Y10.1653 F300.00
G1 X24.5600 Y10.1600 F300.00
G1 X24.4557 Y10.1653 F300.00
G1 X24.3530 Y10.1809 F300.00
G1 X24.2532 Y10.2064 F300.00
G1 X24.0743 Y10.2804 F300.00
G1 X23.9068 Y10.3909 F300.00
G1 X23.8246 Y10.4646 F300.00
G1 X23.7509 Y10.5468 F300.00
G1 X23.6404 Y10.7143 F300.00
G1 X23.5664 Y10.8932 F300.00
G1 X23.5409 Y10.9930 F300.00
G1 X23.5253 Y11.0957 F300.00
G1 X23.5243 Y11.2926 F300.00
G1 X23.5409 Y11.4070 F300.00
G1 X23.5958 Y11.5893 F300.00
G1 X23.6474 Y11.6984 F300.00
G1 X23.7509 Y11.8532 F300.00
G1 X23.8314 Y11.9418 F300.00
G1 X23.9746 Y12.0594 F300.00
G1 X24.1199 Y12.1412 F300.00
G1 X24.1199 Y20.1662 F300.00
G1 X24.0091 Y20.2591 F300.00
G1 X23.9070 Y20.3824 F300.00
G1 X23.8255 Y20.5308 F300.00
G1 X23.7907 Y20.6282 F300.00
M5
G0 X23.8076 Y20.5811
G1 F60.00
M03 S255.0
G1 F300.00
G1 X23.7907 Y20.6282 F300.00
G1 X23.7907 Y20.6282 F300.00
M5
G0 X23.8586 Y20.6452
G1 F60.00
M03 S255.0
G1 F300.00
G1 X23.8300 Y20.7907 F300.00
G1 X23.8300 Y20.9493 F300.00
G1 X23.8612 Y21.1036 F300.00
G1 X23.9207 Y21.2460 F300.00
G1 X24.0079 Y21.3757 F300.00
G1 X24.1143 Y21.4821 F300.00
G1 X24.2440 Y21.5693 F300.00
G1 X24.3864 Y21.6288 F300.00
G1 X24.5407 Y21.6600 F300.00
G1 X24.6993 Y21.6600 F300.00
G1 X24.8536 Y21.6288 F300.00
G1 X24.9960 Y21.5693 F300.00
G1 X25.1257 Y21.4821 F300.00
G1 X25.2321 Y21.3757 F300.00
G1 X25.3193 Y21.2460 F300.00
G1 X25.3788 Y21.1036 F300.00
G1 X25.4100 Y20.9493 F300.00
G1 X25.4106 Y20.7980 F300.00
G1 X25.3814 Y20.6452 F300.00
G1 X25.3512 Y20.5608 F300.00
G1 X25.2768 Y20.4241 F300.00
G1 X25.1814 Y20.3086 F300.00
G1 X25.0659 Y20.2132 F300.00
G1 X24.9301 Y20.1392 F300.00
G1 X24.9301 Y12.0965 F300.00
G1 X25.0224 Y12.0526 F300.00
G1 X25.1712 Y11.9531 F300.00
G1 X25.3060 Y11.8198 F300.00
G1 X25.3697 Y11.7339 F300.00
G1 X25.4538 Y11.5766 F300.00
G1 X25.4898 Y11.4759 F300.00
G1 X25.5252 Y11.2966 F300.00
G1 X25.5258 Y11.1108 F300.00
G1 X25.4898 Y10.9241 F300.00
G1 X25.4538 Y10.8234 F300.00
G1 X25.3685 Y10.6642 F300.00
G1 X25.2459 Y10.5141 F300.00
G1 X25.0958 Y10.3915 F300.00
G1 X24.9366 Y10.3062 F300.00
G1 X24.8359 Y10.2702 F300.00
G1 X24.6492 Y10.2342 F300.00
G1 X24.4634 Y10.2348 F300.00
G1 X24.2753 Y10.2728 F300.00
G1 X24.1056 Y10.3430 F300.00
G1 X24.0242 Y10.3915 F300.00
G1 X23.9402 Y10.4540 F300.00
G1 X23.8069 Y10.5888 F300.00
G1 X23.7030 Y10.7456 F300.00
G1 X23.6328 Y10.9153 F300.00
G1 X23.6092 Y11.0081 F300.00
G1 X23.5942 Y11.1108 F300.00
G1 X23.5948 Y11.2966 F300.00
G1 X23.6302 Y11.4759 F300.00
G1 X23.6662 Y11.5766 F300.00
G1 X23.7503 Y11.7339 F300.00
G1 X23.8140 Y11.8198 F300.00
G1 X23.9488 Y11.9531 F300.00
G1 X24.0976 Y12.0526 F300.00
G1 X24.1899 Y12.0965 F300.00
G1 X24.1899 Y20.2031 F300.00
G1 X24.1118 Y20.2601 F300.00
G1 X24.0026 Y20.3709 F300.00
G1 X23.9207 Y20.4940 F300.00
G1 X23.8586 Y20.6452 F300.00
M5
G0 X23.8776 Y20.5989
G1 F60.00
M03 S255.0
G1 F300.00
G1 X23.8586 Y20.6452 F300.00
G1 X23.8586 Y20.6452 F300.00
M5
G0 X23.9265 Y20.6622
G1 F60.00
M03 S255.0
G1 F300.00
G1 X23.8996 Y20.7984 F300.00
G1 X23.8996 Y20.9416 F300.00
G1 X23.9276 Y21.0815 F300.00
G1 X23.9819 Y21.2120 F300.00
G1 X24.0610 Y21.3301 F300.00
G1 X24.1599 Y21.4290 F300.00
G1 X24.2780 Y21.5081 F300.00
G1 X24.4085 Y21.5624 F300.00
G1 X24.5484 Y21.5904 F300.00
G1 X24.6916 Y21.5904 F300.00
G1 X24.8315 Y21.5624 F300.00
G1 X24.9620 Y21.5081 F300.00
G1 X25.0801 Y21.4290 F300.00
G1 X25.1790 Y21.3301 F300.00
G1 X25.2581 Y21.2120 F300.00
G1 X25.3124 Y21.0815 F300.00
G1 X25.3404 Y20.9416 F300.00
G1 X25.3404 Y20.7984 F300.00
G1 X25.3124 Y20.6585 F300.00
G1 X25.2596 Y20.5309 F300.00
G1 X25.1790 Y20.4099 F300.00
G1 X25.0801 Y20.3110 F300.00
G1 X24.9620 Y20.2319 F300.00
G1 X24.8601 Y20.1878 F300.00
G1 X24.8601 Y12.0474 F300.00
G1 X24.9864 Y11.9925 F300.00
G1 X25.1292 Y11.8971 F300.00
G1 X25.1981 Y11.8346 F300.00
G1 X25.3091 Y11.6987 F300.00
G1 X25.3905 Y11.5467 F300.00
G1 X25.4219 Y11.4589 F300.00
G1 X25.4556 Y11.2888 F300.00
G1 X25.4558 Y11.1142 F300.00
G1 X25.4219 Y10.9411 F300.00
G1 X25.3905 Y10.8533 F300.00
G1 X25.3091 Y10.7013 F300.00
G1 X25.1964 Y10.5636 F300.00
G1 X25.0587 Y10.4509 F300.00
G1 X24.9067 Y10.3695 F300.00
G1 X24.8189 Y10.3381 F300.00
G1 X24.6458 Y10.3042 F300.00
G1 X24.4712 Y10.3044 F300.00
G1 X24.2974 Y10.3392 F300.00
G1 X24.1370 Y10.4056 F300.00
G1 X23.9872 Y10.5059 F300.00
G1 X23.8629 Y10.6308 F300.00
G1 X23.7656 Y10.7770 F300.00
G1 X23.6992 Y10.9374 F300.00
G1 X23.6642 Y11.1142 F300.00
G1 X23.6644 Y11.2888 F300.00
G1 X23.6981 Y11.4589 F300.00
G1 X23.7295 Y11.5467 F300.00
G1 X23.8109 Y11.6987 F300.00
G1 X23.9219 Y11.8346 F300.00
G1 X23.9908 Y11.8971 F300.00
G1 X24.1336 Y11.9925 F300.00
G1 X24.2599 Y12.0474 F300.00
G1 X24.2599 Y20.2427 F300.00
G1 X24.1599 Y20.3110 F300.00
G1 X24.0588 Y20.4126 F300.00
G1 X23.9819 Y20.5280 F300.00
G1 X23.9265 Y20.6622 F300.00
M5
G0 X23.9456 Y20.6160
G1 F60.00
M03 S255.0
G1 F300.00
G1 X23.9265 Y20.6622 F300.00
G1 X23.9265 Y20.6622 F300.00
M5
G0 X26.3307 Y20.6282
G1 F60.00
M03 S255.0
G1 F300.00
G1 X26.3004 Y20.7830 F300.00
G1 X26.3004 Y20.9570 F300.00
G1 X26.3348 Y21.1257 F300.00
G1 X26.3995 Y21.2800 F300.00
G1 X26.4947 Y21.4212 F300.00
G1 X26.6088 Y21.5353 F300.00
G1 X26.7500 Y21.6305 F300.00
G1 X26.9043 Y21.6952 F300.00
G1 X27.0730 Y21.7296 F300.00
G1 X27.2470 Y21.7296 F300.00
G1 X27.4157 Y21.6952 F300.00
G1 X27.5700 Y21.6305 F300.00
G1 X27.7112 Y21.5353 F300.00
G1 X27.8253 Y21.4212 F300.00
G1 X27.9205 Y21.2800 F300.00
G1 X27.9852 Y21.1257 F300.00
G1 X28.0196 Y20.9570 F300.00
G1 X28.0205 Y20.7946 F300.00
G1 X27.9893 Y20.6282 F300.00
G1 X27.9545 Y20.5308 F300.00
G1 X27.8834 Y20.3979 F300.00
G1 X27.7774 Y20.2658 F300.00
G1 X27.6476 Y20.1570 F300.00
G1 X27.5401 Y20.0949 F300.00
G1 X27.5401 Y12.2400 F300.00
G1 X27.9500 Y12.2400 F300.00
G1 X27.9961 Y12.2343 F300.00
G1 X28.0486 Y12.2124 F300.00
G1 X28.0844 Y12.1844 F300.00
G1 X28.1124 Y12.1486 F300.00
G1 X28.1355 Y12.0912 F300.00
G1 X28.1391 Y10.3311 F300.00
G1 X28.1236 Y10.2728 F300.00
G1 X28.0901 Y10.2216 F300.00
G1 X28.0309 Y10.1781 F300.00
G1 X27.9771 Y10.1619 F300.00
G1 X26.2311 Y10.1609 F300.00
G1 X26.1728 Y10.1764 F300.00
G1 X26.1216 Y10.2099 F300.00
G1 X26.0781 Y10.2691 F300.00
G1 X26.0619 Y10.3229 F300.00
G1 X26.0600 Y12.0500 F300.00
G1 X26.0698 Y12.1101 F300.00
G1 X26.0889 Y12.1507 F300.00
G1 X26.1216 Y12.1901 F300.00
G1 X26.1691 Y12.2219 F300.00
G1 X26.2088 Y12.2355 F300.00
G1 X26.6599 Y12.2400 F300.00
G1 X26.6599 Y20.1662 F300.00
G1 X26.5491 Y20.2591 F300.00
G1 X26.4470 Y20.3824 F300.00
G1 X26.3655 Y20.5308 F300.00
G1 X26.3307 Y20.6282 F300.00
M5
G0 X26.3476 Y20.5811
G1 F60.00
M03 S255.0
G1 F300.00
G1 X26.3307 Y20.6282 F300.00
G1 X26.3307 Y20.6282 F300.00
M5
G0 X26.3986 Y20.6452
G1 F60.00
M03 S255.0
G1 F300.00
G1 X26.3700 Y20.7907 F300.00
G1 X26.3700 Y20.9493 F300.00
G1 X26.4012 Y21.1036 F300.00
G1 X26.4607 Y21.2460 F300.00
G1 X26.5479 Y21.3757 F300.00
G1 X26.6543 Y21.4821 F300.00
G1 X26.7840 Y21.5693 F300.00
G1 X26.9264 Y21.6288 F300.00
G1 X27.0807 Y21.6600 F300.00
G1 X27.2393 Y21.6600 F300.00
G1 X27.3936 Y21.6288 F300.00
G1 X27.5360 Y21.5693 F300.00
G1 X27.6657 Y21.4821 F300.00
G1 X27.7721 Y21.3757 F300.00
G1 X27.8593 Y21.2460 F300.00
G1 X27.9188 Y21.1036 F300.00
G1 X27.9500 Y20.9493 F300.00
G1 X27.9506 Y20.7980 F300.00
G1 X27.9214 Y20.6452 F300.00
G1 X27.8912 Y20.5608 F300.00
G1 X27.8168 Y20.4241 F300.00
G1 X27.7214 Y20.3086 F300.00
G1 X27.6059 Y20.2132 F300.00
G1 X27.4701 Y20.1392 F300.00
G1 X27.4701 Y12.1700 F300.00
G1 X27.9671 Y12.1688 F300.00
G1 X28.0011 Y12.1586 F300.00
G1 X28.0311 Y12.1385 F300.00
G1 X28.0526 Y12.1123 F300.00
G1 X28.0664 Y12.0791 F300.00
G1 X28.0698 Y10.3439 F300.00
G1 X28.0597 Y10.3013 F300.00
G1 X28.0385 Y10.2689 F300.00
G1 X28.0011 Y10.2414 F300.00
G1 X27.9671 Y10.2312 F300.00
G1 X26.2439 Y10.2302 F300.00
G1 X26.2013 Y10.2403 F300.00
G1 X26.1689 Y10.2615 F300.00
G1 X26.1414 Y10.2989 F300.00
G1 X26.1312 Y10.3329 F300.00
G1 X26.1300 Y12.0500 F300.00
G1 X26.1362 Y12.0879 F300.00
G1 X26.1689 Y12.1385 F300.00
G1 X26.1989 Y12.1586 F300.00
G1 X26.2329 Y12.1688 F300.00
G1 X26.7299 Y12.1700 F300.00
G1 X26.7299 Y20.2031 F300.00
G1 X26.6518 Y20.2601 F300.00
G1 X26.5426 Y20.3709 F300.00
G1 X26.4607 Y20.4940 F300.00
G1 X26.3986 Y20.6452 F300.00
M5
G0 X26.4176 Y20.5989
G1 F60.00
M03 S255.0
G1 F300.00
G1 X26.3986 Y20.6452 F300.00
G1 X26.3986 Y20.6452 F300.00
M5
G0 X26.4665 Y20.6622
G1 F60.00
M03 S255.0
G1 F300.00
G1 X26.4396 Y20.7984 F300.00
G1 X26.4396 Y20.9416 F300.00
G1 X26.4676 Y21.0815 F300.00
G1 X26.5219 Y21.2120 F300.00
G1 X26.6010 Y21.3301 F300.00
G1 X26.6999 Y21.4290 F300.00
G1 X26.8180 Y21.5081 F300.00
G1 X26.9485 Y21.5624 F300.00
G1 X27.0884 Y21.5904 F300.00
G1 X27.2316 Y21.5904 F300.00
G1 X27.3715 Y21.5624 F300.00
G1 X27.5020 Y21.5081 F300.00
G1 X27.6201 Y21.4290 F300.00
G1 X27.7190 Y21.3301 F300.00
G1 X27.7981 Y21.2120 F300.00
G1 X27.8524 Y21.0815 F300.00
G1 X27.8804 Y20.9416 F300.00
G1 X27.8804 Y20.7984 F300.00
G1 X27.8524 Y20.6585 F300.00
G1 X27.7996 Y20.5309 F300.00
G1 X27.7190 Y20.4099 F300.00
G1 X27.6201 Y20.3110 F300.00
G1 X27.5020 Y20.2319 F300.00
G1 X27.4001 Y20.1878 F300.00
G1 X27.4001 Y12.1000 F300.00
G1 X27.9525 Y12.0999 F300.00
G1 X27.9800 Y12.0900 F300.00
G1 X27.9974 Y12.0658 F300.00
G1 X28.0000 Y10.3500 F300.00
G1 X27.9869 Y10.3162 F300.00
G1 X27.9571 Y10.3005 F300.00
G1 X26.2500 Y10.3000 F300.00
G1 X26.2162 Y10.3131 F300.00
G1 X26.2005 Y10.3429 F300.00
G1 X26.2026 Y12.0658 F300.00
G1 X26.2200 Y12.0900 F300.00
G1 X26.2475 Y12.0999 F300.00
G1 X26.7999 Y12.1000 F300.00
G1 X26.7999 Y20.2427 F300.00
G1 X26.6999 Y20.3110 F300.00
G1 X26.5988 Y20.4126 F300.00
G1 X26.5219 Y20.5280 F300.00
G1 X26.4665 Y20.6622 F300.00
M5
G0 X26.4856 Y20.6160
G1 F60.00
M03 S255.0
G1 F300.00
G1 X26.4665 Y20.6622 F300.00
G1 X26.4665 Y20.6622 F300.00
M5
G0 X28.8546 Y20.6923
G1 F60.00
M03 S255.0
G1 F300.00
G1 X28.8360 Y20.8700 F300.00
G1 X28.8526 Y21.0388 F300.00
G1 X28.8984 Y21.1919 F300.00
G1 X28.9766 Y21.3421 F300.00
G1 X29.0891 Y21.4809 F300.00
G1 X29.2124 Y21.5830 F300.00
G1 X29.3608 Y21.6645 F300.00
G1 X29.5223 Y21.7154 F300.00
G1 X29.7000 Y21.7340 F300.00
G1 X29.8688 Y21.7174 F300.00
G1 X30.0219 Y21.6716 F300.00
G1 X30.1721 Y21.5934 F300.00
G1 X30.2552 Y21.5318 F300.00
G1 X30.3736 Y21.4108 F300.00
G1 X30.4605 Y21.2800 F300.00
G1 X30.5293 Y21.1118 F300.00
G1 X30.5596 Y20.9570 F300.00
G1 X30.5605 Y20.7946 F300.00
G1 X30.5454 Y20.6923 F300.00
G1 X30.5016 Y20.5481 F300.00
G1 X30.4574 Y20.4546 F300.00
G1 X30.3653 Y20.3188 F300.00
G1 X30.2512 Y20.2047 F300.00
G1 X30.1401 Y20.1274 F300.00
G1 X30.1401 Y16.8823 F300.00
G1 X31.7926 Y15.2295 F300.00
G1 X31.8655 Y15.1279 F300.00
G1 X31.9058 Y15.0150 F300.00
G1 X31.9151 Y14.9250 F300.00
G1 X31.9151 Y11.5046 F300.00
G1 X31.9852 Y11.4485 F300.00
G1 X32.0546 Y11.3464 F300.00
G1 X32.0757 Y11.2994 F300.00
G1 X32.0988 Y11.1871 F300.00
G1 X32.1025 Y10.2500 F300.00
G1 X32.0757 Y10.1006 F300.00
G1 X32.0514 Y10.0488 F300.00
G1 X31.9736 Y9.9389 F300.00
G1 X31.8401 Y9.8478 F300.00
G1 X31.8401 Y9.3823 F300.00
G1 X32.4923 Y8.7301 F300.00
G1 X34.8294 Y8.7301 F300.00
G1 X34.9139 Y8.8511 F300.00
G1 X35.0238 Y8.9289 F300.00
G1 X35.0756 Y8.9532 F300.00
G1 X35.2064 Y8.9791 F300.00
G1 X37.1850 Y8.9801 F300.00
G1 X37.1850 Y9.3400 F300.00
G1 X37.1948 Y9.4001 F300.00
G1 X37.2139 Y9.4407 F300.00
G1 X37.2466 Y9.4801 F300.00
G1 X37.2941 Y9.5119 F300.00
G1 X37.3479 Y9.5281 F300.00
G1 X39.6662 Y9.5255 F300.00
G1 X39.7236 Y9.5024 F300.00
G1 X39.7651 Y9.4684 F300.00
G1 X39.7986 Y9.4172 F300.00
G1 X39.8148 Y9.3497 F300.00
G1 X39.8148 Y7.7303 F300.00
G1 X39.7969 Y7.6591 F300.00
G1 X39.7534 Y7.5999 F300.00
G1 X39.6892 Y7.5612 F300.00
G1 X39.6250 Y7.5500 F300.00
G1 X37.3338 Y7.5545 F300.00
G1 X37.2764 Y7.5776 F300.00
G1 X37.2406 Y7.6056 F300.00
G1 X37.2126 Y7.6414 F300.00
G1 X37.1907 Y7.6939 F300.00
G1 X37.1850 Y7.7400 F300.00
G1 X37.1850 Y8.0999 F300.00
G1 X36.6150 Y8.0999 F300.00
G1 X36.6141 Y8.0213 F300.00
G1 X36.5882 Y7.8906 F300.00
G1 X36.5671 Y7.8436 F300.00
G1 X36.4977 Y7.7415 F300.00
G1 X36.4573 Y7.7052 F300.00
G1 X36.3407 Y7.6324 F300.00
G1 X36.1750 Y7.6000 F300.00
G1 X35.1879 Y7.6037 F300.00
G1 X35.0593 Y7.6324 F300.00
G1 X34.9427 Y7.7052 F300.00
G1 X34.9023 Y7.7415 F300.00
G1 X34.8294 Y7.8499 F300.00
G1 X32.3100 Y7.8499 F300.00
G1 X32.2333 Y7.8567 F300.00
G1 X32.1330 Y7.8872 F300.00
G1 X32.0237 Y7.9559 F300.00
G1 X31.0659 Y8.9137 F300.00
G1 X31.0309 Y8.9603 F300.00
G1 X30.9953 Y9.0271 F300.00
G1 X30.9620 Y9.1566 F300.00
G1 X30.9599 Y9.8478 F300.00
G1 X30.8264 Y9.9389 F300.00
G1 X30.7486 Y10.0488 F300.00
G1 X30.7243 Y10.1006 F300.00
G1 X30.6975 Y10.2500 F300.00
G1 X30.6975 Y11.1500 F300.00
G1 X30.7243 Y11.2994 F300.00
G1 X30.7486 Y11.3512 F300.00
G1 X30.8390 Y11.4727 F300.00
G1 X30.9561 Y11.5505 F300.00
G1 X31.0349 Y11.5733 F300.00
G1 X31.0349 Y14.7427 F300.00
G1 X29.3888 Y16.3888 F300.00
G1 X29.3309 Y16.4603 F300.00
G1 X29.2900 Y16.5403 F300.00
G1 X29.2692 Y16.6100 F300.00
G1 X29.2599 Y16.7000 F300.00
G1 X29.2599 Y20.1274 F300.00
G1 X29.1592 Y20.1964 F300.00
G1 X29.0958 Y20.2526 F300.00
G1 X28.9870 Y20.3824 F300.00
G1 X28.9055 Y20.5308 F300.00
G1 X28.8546 Y20.6923 F300.00
M5
G0 X28.8697 Y20.6447
G1 F60.00
M03 S255.0
G1 F300.00
G1 X28.8546 Y20.6923 F300.00
G1 X28.8546 Y20.6923 F300.00
M5
G0 X28.9225 Y20.7094
G1 F60.00
M03 S255.0
G1 F300.00
G1 X28.9060 Y20.8700 F300.00
G1 X28.9213 Y21.0250 F300.00
G1 X28.9643 Y21.1684 F300.00
G1 X29.0367 Y21.3061 F300.00
G1 X29.1386 Y21.4314 F300.00
G1 X29.2541 Y21.5268 F300.00
G1 X29.3908 Y21.6012 F300.00
G1 X29.5394 Y21.6475 F300.00
G1 X29.7000 Y21.6640 F300.00
G1 X29.8550 Y21.6487 F300.00
G1 X29.9984 Y21.6057 F300.00
G1 X30.1361 Y21.5333 F300.00
G1 X30.2082 Y21.4799 F300.00
G1 X30.3174 Y21.3691 F300.00
G1 X30.3993 Y21.2460 F300.00
G1 X30.4614 Y21.0948 F300.00
G1 X30.4900 Y20.9493 F300.00
G1 X30.4906 Y20.7980 F300.00
G1 X30.4614 Y20.6452 F300.00
G1 X30.4312 Y20.5608 F300.00
G1 X30.3633 Y20.4339 F300.00
G1 X30.2655 Y20.3128 F300.00
G1 X30.1991 Y20.2526 F300.00
G1 X30.0701 Y20.1677 F300.00
G1 X30.0701 Y16.8533 F300.00
G1 X31.7367 Y15.1867 F300.00
G1 X31.8029 Y15.0966 F300.00
G1 X31.8375 Y14.9998 F300.00
G1 X31.8451 Y14.9250 F300.00
G1 X31.8451 Y11.4672 F300.00
G1 X31.9241 Y11.4116 F300.00
G1 X31.9952 Y11.3093 F300.00
G1 X32.0086 Y11.2796 F300.00
G1 X32.0302 Y11.1734 F300.00
G1 X32.0325 Y10.2500 F300.00
G1 X32.0050 Y10.1101 F300.00
G1 X31.9391 Y10.0066 F300.00
G1 X31.9161 Y9.9811 F300.00
G1 X31.8218 Y9.9173 F300.00
G1 X31.7701 Y9.8991 F300.00
G1 X31.7701 Y9.3533 F300.00
G1 X32.4633 Y8.6601 F300.00
G1 X34.8766 Y8.6601 F300.00
G1 X34.8923 Y8.6993 F300.00
G1 X34.9484 Y8.7834 F300.00
G1 X34.9816 Y8.8166 F300.00
G1 X35.0851 Y8.8825 F300.00
G1 X35.2132 Y8.9094 F300.00
G1 X37.2550 Y8.9101 F300.00
G1 X37.2579 Y9.3660 F300.00
G1 X37.2724 Y9.4023 F300.00
G1 X37.2939 Y9.4285 F300.00
G1 X37.3239 Y9.4486 F300.00
G1 X37.3579 Y9.4588 F300.00
G1 X39.6510 Y9.4571 F300.00
G1 X39.6886 Y9.4418 F300.00
G1 X39.7210 Y9.4120 F300.00
G1 X39.7388 Y9.3779 F300.00
G1 X39.7450 Y9.3400 F300.00
G1 X39.7448 Y7.7339 F300.00
G1 X39.7336 Y7.6889 F300.00
G1 X39.6970 Y7.6440 F300.00
G1 X39.6629 Y7.6262 F300.00
G1 X39.6250 Y7.6200 F300.00
G1 X37.3490 Y7.6229 F300.00
G1 X37.3127 Y7.6374 F300.00
G1 X37.2865 Y7.6589 F300.00
G1 X37.2664 Y7.6889 F300.00
G1 X37.2562 Y7.7229 F300.00
G1 X37.2550 Y8.1699 F300.00
G1 X36.5450 Y8.1699 F300.00
G1 X36.5444 Y8.0282 F300.00
G1 X36.5211 Y7.9104 F300.00
G1 X36.4516 Y7.7966 F300.00
G1 X36.4184 Y7.7634 F300.00
G1 X36.3248 Y7.7019 F300.00
G1 X36.1750 Y7.6700 F300.00
G1 X35.2016 Y7.6723 F300.00
G1 X35.0851 Y7.6975 F300.00
G1 X34.9714 Y7.7711 F300.00
G1 X34.8923 Y7.8807 F300.00
G1 X34.8766 Y7.9199 F300.00
G1 X32.3100 Y7.9199 F300.00
G1 X32.2436 Y7.9260 F300.00
G1 X32.1384 Y7.9621 F300.00
G1 X32.0525 Y8.0242 F300.00
G1 X31.1107 Y8.9693 F300.00
G1 X31.0593 Y9.0555 F300.00
G1 X31.0317 Y9.1635 F300.00
G1 X31.0299 Y9.8991 F300.00
G1 X30.9782 Y9.9173 F300.00
G1 X30.8839 Y9.9811 F300.00
G1 X30.8609 Y10.0066 F300.00
G1 X30.7950 Y10.1101 F300.00
G1 X30.7675 Y10.2500 F300.00
G1 X30.7675 Y11.1500 F300.00
G1 X30.7914 Y11.2796 F300.00
G1 X30.8068 Y11.3123 F300.00
G1 X30.8839 Y11.4189 F300.00
G1 X30.9976 Y11.4925 F300.00
G1 X31.1049 Y11.5159 F300.00
G1 X31.1049 Y14.7717 F300.00
G1 X29.4383 Y16.4383 F300.00
G1 X29.3903 Y16.4974 F300.00
G1 X29.3559 Y16.5639 F300.00
G1 X29.3375 Y16.6252 F300.00
G1 X29.3299 Y16.7000 F300.00
G1 X29.3299 Y20.1677 F300.00
G1 X29.1943 Y20.2579 F300.00
G1 X29.0826 Y20.3709 F300.00
G1 X29.0367 Y20.4339 F300.00
G1 X28.9688 Y20.5608 F300.00
G1 X28.9225 Y20.7094 F300.00
M5
G0 X28.9374 Y20.6616
G1 F60.00
M03 S255.0
G1 F300.00
G1 X28.9225 Y20.7094 F300.00
G1 X28.9225 Y20.7094 F300.00
M5
G0 X28.9904 Y20.7264
G1 F60.00
M03 S255.0
G1 F300.00
G1 X28.9760 Y20.8700 F300.00
G1 X28.9899 Y21.0113 F300.00
G1 X29.0302 Y21.1448 F300.00
G1 X29.0967 Y21.2702 F300.00
G1 X29.1881 Y21.3819 F300.00
G1 X29.2958 Y21.4706 F300.00
G1 X29.4207 Y21.5379 F300.00
G1 X29.5587 Y21.5801 F300.00
G1 X29.7000 Y21.5940 F300.00
G1 X29.8413 Y21.5801 F300.00
G1 X29.9748 Y21.5398 F300.00
G1 X30.1002 Y21.4733 F300.00
G1 X30.2119 Y21.3819 F300.00
G1 X30.3006 Y21.2742 F300.00
G1 X30.3679 Y21.1493 F300.00
G1 X30.4096 Y21.0136 F300.00
G1 X30.4207 Y20.9385 F300.00
G1 X30.4202 Y20.7966 F300.00
G1 X30.3924 Y20.6585 F300.00
G1 X30.3396 Y20.5309 F300.00
G1 X30.2612 Y20.4126 F300.00
G1 X30.2102 Y20.3564 F300.00
G1 X30.1042 Y20.2694 F300.00
G1 X30.0001 Y20.2120 F300.00
G1 X30.0001 Y16.8243 F300.00
G1 X31.6872 Y15.1372 F300.00
G1 X31.7403 Y15.0653 F300.00
G1 X31.7691 Y14.9846 F300.00
G1 X31.7751 Y14.9250 F300.00
G1 X31.7751 Y11.4280 F300.00
G1 X31.8809 Y11.3546 F300.00
G1 X31.9399 Y11.2641 F300.00
G1 X31.9615 Y11.1598 F300.00
G1 X31.9625 Y10.2500 F300.00
G1 X31.9399 Y10.1359 F300.00
G1 X31.8777 Y10.0412 F300.00
G1 X31.7807 Y9.9744 F300.00
G1 X31.7001 Y9.9565 F300.00
G1 X31.7001 Y9.3243 F300.00
G1 X32.4343 Y8.5901 F300.00
G1 X34.9340 Y8.5901 F300.00
G1 X34.9494 Y8.6582 F300.00
G1 X35.0162 Y8.7552 F300.00
G1 X35.1109 Y8.8174 F300.00
G1 X35.2201 Y8.8398 F300.00
G1 X37.3250 Y8.8401 F300.00
G1 X37.3252 Y9.3450 F300.00
G1 X37.3381 Y9.3738 F300.00
G1 X37.3679 Y9.3895 F300.00
G1 X39.6358 Y9.3888 F300.00
G1 X39.6650 Y9.3700 F300.00
G1 X39.6750 Y9.3400 F300.00
G1 X39.6750 Y7.7400 F300.00
G1 X39.6702 Y7.7187 F300.00
G1 X39.6550 Y7.7000 F300.00
G1 X39.6250 Y7.6900 F300.00
G1 X37.3642 Y7.6912 F300.00
G1 X37.3381 Y7.7062 F300.00
G1 X37.3251 Y7.7375 F300.00
G1 X37.3250 Y8.2399 F300.00
G1 X36.4750 Y8.2399 F300.00
G1 X36.4748 Y8.0351 F300.00
G1 X36.4484 Y7.9178 F300.00
G1 X36.3871 Y7.8279 F300.00
G1 X36.2984 Y7.7675 F300.00
G1 X36.1750 Y7.7400 F300.00
G1 X35.2250 Y7.7400 F300.00
G1 X35.1196 Y7.7600 F300.00
G1 X35.0098 Y7.8312 F300.00
G1 X34.9494 Y7.9218 F300.00
G1 X34.9340 Y7.9899 F300.00
G1 X32.3100 Y7.9899 F300.00
G1 X32.2539 Y7.9952 F300.00
G1 X32.1697 Y8.0247 F300.00
G1 X32.0996 Y8.0761 F300.00
G1 X31.1667 Y9.0113 F300.00
G1 X31.1232 Y9.0840 F300.00
G1 X31.1011 Y9.1730 F300.00
G1 X31.0999 Y9.9565 F300.00
G1 X31.0193 Y9.9744 F300.00
G1 X30.9254 Y10.0379 F300.00
G1 X30.8601 Y10.1359 F300.00
G1 X30.8385 Y10.2402 F300.00
G1 X30.8375 Y11.1500 F300.00
G1 X30.8601 Y11.2641 F300.00
G1 X30.9287 Y11.3652 F300.00
G1 X31.0277 Y11.4289 F300.00
G1 X31.1326 Y11.4498 F300.00
G1 X31.1749 Y11.4500 F300.00
G1 X31.1749 Y14.8007 F300.00
G1 X29.4878 Y16.4878 F300.00
G1 X29.4496 Y16.5345 F300.00
G1 X29.4218 Y16.5874 F300.00
G1 X29.4059 Y16.6404 F300.00
G1 X29.3999 Y16.7000 F300.00
G1 X29.3999 Y20.2120 F300.00
G1 X29.2998 Y20.2667 F300.00
G1 X29.2426 Y20.3088 F300.00
G1 X29.1388 Y20.4126 F300.00
G1 X29.0967 Y20.4698 F300.00
G1 X29.0321 Y20.5907 F300.00
G1 X28.9904 Y20.7264 F300.00
M5
G0 X29.0051 Y20.6786
G1 F60.00
M03 S255.0
G1 F300.00
G1 X28.9904 Y20.7264 F300.00
G1 X28.9904 Y20.7264 F300.00
M5
G0 X31.3946 Y20.6923
G1 F60.00
M03 S255.0
G1 F300.00
G1 X31.3760 Y20.8700 F300.00
G1 X31.3926 Y21.0388 F300.00
G1 X31.4384 Y21.1919 F300.00
G1 X31.5166 Y21.3421 F300.00
G1 X31.5782 Y21.4252 F300.00
G1 X31.6992 Y21.5436 F300.00
G1 X31.8300 Y21.6305 F300.00
G1 X31.9982 Y21.6993 F300.00
G1 X32.1530 Y21.7296 F300.00
G1 X32.3154 Y21.7305 F300.00
G1 X32.4177 Y21.7154 F300.00
G1 X32.5619 Y21.6716 F300.00
G1 X32.6554 Y21.6274 F300.00
G1 X32.7912 Y21.5353 F300.00
G1 X32.9053 Y21.4212 F300.00
G1 X32.9826 Y21.3101 F300.00
G1 X33.6877 Y21.3101 F300.00
G1 X37.7599 Y25.3823 F300.00
G1 X37.7599 Y33.3725 F300.00
G1 X37.6173 Y33.3952 F300.00
G1 X37.5536 Y33.4204 F300.00
G1 X37.4389 Y33.5014 F300.00
G1 X37.3495 Y33.6311 F300.00
G1 X37.3327 Y33.6798 F300.00
G1 X37.3109 Y33.7939 F300.00
G1 X37.3109 Y34.3562 F300.00
G1 X37.3424 Y34.5032 F300.00
G1 X37.4152 Y34.6198 F300.00
G1 X37.4677 Y34.6723 F300.00
G1 X37.5536 Y34.7296 F300.00
G1 X37.6006 Y34.7507 F300.00
G1 X37.7500 Y34.7775 F300.00
G1 X38.6500 Y34.7775 F300.00
G1 X38.7827 Y34.7548 F300.00
G1 X38.8314 Y34.7380 F300.00
G1 X38.9611 Y34.6486 F300.00
G1 X39.0421 Y34.5339 F300.00
G1 X39.0632 Y34.4869 F300.00
G1 X39.0900 Y34.3375 F300.00
G1 X39.0900 Y33.8125 F300.00
G1 X39.0576 Y33.6468 F300.00
G1 X38.9611 Y33.5014 F300.00
G1 X38.8157 Y33.4049 F300.00
G1 X38.6401 Y33.3725 F300.00
G1 X38.6401 Y25.2000 F300.00
G1 X38.6296 Y25.1050 F300.00
G1 X38.5905 Y24.9971 F300.00
G1 X38.5112 Y24.8888 F300.00
G1 X34.1812 Y20.5588 F300.00
G1 X34.0856 Y20.4864 F300.00
G1 X34.0027 Y20.4504 F300.00
G1 X33.9038 Y20.4313 F300.00
G1 X32.9826 Y20.4299 F300.00
G1 X32.9136 Y20.3292 F300.00
G1 X32.8509 Y20.2591 F300.00
G1 X32.7808 Y20.1964 F300.00
G1 X32.6500 Y20.1095 F300.00
G1 X32.5619 Y20.0684 F300.00
G1 X32.4088 Y20.0226 F300.00
G1 X32.3154 Y20.0095 F300.00
G1 X32.1646 Y20.0095 F300.00
G1 X32.0623 Y20.0246 F300.00
G1 X31.9181 Y20.0684 F300.00
G1 X31.7679 Y20.1466 F300.00
G1 X31.6848 Y20.2082 F300.00
G1 X31.5782 Y20.3148 F300.00
G1 X31.5166 Y20.3979 F300.00
G1 X31.4455 Y20.5308 F300.00
G1 X31.3946 Y20.6923 F300.00
M5
G0 X31.4097 Y20.6447
G1 F60.00
M03 S255.0
G1 F300.00
G1 X31.3946 Y20.6923 F300.00
G1 X31.3946 Y20.6923 F300.00
M5
G0 X31.4625 Y20.7094
G1 F60.00
M03 S255.0
G1 F300.00
G1 X31.4460 Y20.8700 F300.00
G1 X31.4613 Y21.0250 F300.00
G1 X31.5043 Y21.1684 F300.00
G1 X31.5767 Y21.3061 F300.00
G1 X31.6786 Y21.4314 F300.00
G1 X31.7941 Y21.5268 F300.00
G1 X31.9308 Y21.6012 F300.00
G1 X32.0794 Y21.6475 F300.00
G1 X32.1680 Y21.6606 F300.00
G1 X32.3193 Y21.6600 F300.00
G1 X32.4648 Y21.6314 F300.00
G1 X32.5492 Y21.6012 F300.00
G1 X32.6761 Y21.5333 F300.00
G1 X32.7972 Y21.4355 F300.00
G1 X32.8574 Y21.3691 F300.00
G1 X32.9423 Y21.2401 F300.00
G1 X33.7167 Y21.2401 F300.00
G1 X37.8299 Y25.3533 F300.00
G1 X37.8299 Y33.4425 F300.00
G1 X37.7382 Y33.4431 F300.00
G1 X37.6002 Y33.4744 F300.00
G1 X37.4884 Y33.5509 F300.00
G1 X37.4119 Y33.6627 F300.00
G1 X37.3800 Y33.8125 F300.00
G1 X37.3806 Y34.3493 F300.00
G1 X37.4075 Y34.4774 F300.00
G1 X37.4734 Y34.5809 F300.00
G1 X37.5066 Y34.6141 F300.00
G1 X37.5907 Y34.6702 F300.00
G1 X37.6309 Y34.6862 F300.00
G1 X37.7500 Y34.7075 F300.00
G1 X38.6500 Y34.7075 F300.00
G1 X38.7998 Y34.6756 F300.00
G1 X38.9116 Y34.5991 F300.00
G1 X38.9961 Y34.4671 F300.00
G1 X39.0200 Y34.3375 F300.00
G1 X39.0200 Y33.8125 F300.00
G1 X38.9925 Y33.6726 F300.00
G1 X38.9036 Y33.5436 F300.00
G1 X38.7796 Y33.4664 F300.00
G1 X38.6618 Y33.4431 F300.00
G1 X38.5701 Y33.4425 F300.00
G1 X38.5701 Y25.2000 F300.00
G1 X38.5617 Y25.1220 F300.00
G1 X38.5279 Y25.0284 F300.00
G1 X38.4617 Y24.9383 F300.00
G1 X34.1317 Y20.6083 F300.00
G1 X34.0707 Y20.5591 F300.00
G1 X33.9806 Y20.5168 F300.00
G1 X33.9004 Y20.5012 F300.00
G1 X32.9423 Y20.4999 F300.00
G1 X32.8968 Y20.4241 F300.00
G1 X32.8014 Y20.3086 F300.00
G1 X32.7391 Y20.2526 F300.00
G1 X32.6160 Y20.1707 F300.00
G1 X32.5384 Y20.1343 F300.00
G1 X32.3950 Y20.0913 F300.00
G1 X32.3120 Y20.0794 F300.00
G1 X32.1680 Y20.0794 F300.00
G1 X32.0794 Y20.0925 F300.00
G1 X31.9416 Y20.1343 F300.00
G1 X31.8039 Y20.2067 F300.00
G1 X31.7318 Y20.2601 F300.00
G1 X31.6301 Y20.3618 F300.00
G1 X31.5767 Y20.4339 F300.00
G1 X31.5088 Y20.5608 F300.00
G1 X31.4625 Y20.7094 F300.00
M5
G0 X31.4774 Y20.6616
G1 F60.00
M03 S255.0
G1 F300.00
G1 X31.4625 Y20.7094 F300.00
G1 X31.4625 Y20.7094 F300.00
M5
G0 X31.5304 Y20.7264
G1 F60.00
M03 S255.0
G1 F300.00
G1 X31.5160 Y20.8700 F300.00
G1 X31.5299 Y21.0113 F300.00
G1 X31.5702 Y21.1448 F300.00
G1 X31.6367 Y21.2702 F300.00
G1 X31.7281 Y21.3819 F300.00
G1 X31.8358 Y21.4706 F300.00
G1 X31.9607 Y21.5379 F300.00
G1 X32.0987 Y21.5801 F300.00
G1 X32.2375 Y21.5939 F300.00
G1 X32.3134 Y21.5902 F300.00
G1 X32.4515 Y21.5624 F300.00
G1 X32.5791 Y21.5096 F300.00
G1 X32.6974 Y21.4312 F300.00
G1 X32.7536 Y21.3802 F300.00
G1 X32.8406 Y21.2742 F300.00
G1 X32.8980 Y21.1701 F300.00
G1 X33.7457 Y21.1701 F300.00
G1 X37.8999 Y25.3243 F300.00
G1 X37.8999 Y33.5125 F300.00
G1 X37.7451 Y33.5127 F300.00
G1 X37.6359 Y33.5351 F300.00
G1 X37.5379 Y33.6004 F300.00
G1 X37.4744 Y33.6943 F300.00
G1 X37.4500 Y33.8125 F300.00
G1 X37.4502 Y34.3424 F300.00
G1 X37.4726 Y34.4516 F300.00
G1 X37.5316 Y34.5421 F300.00
G1 X37.6446 Y34.6175 F300.00
G1 X37.7500 Y34.6375 F300.00
G1 X38.6500 Y34.6375 F300.00
G1 X38.7682 Y34.6131 F300.00
G1 X38.8684 Y34.5421 F300.00
G1 X38.9274 Y34.4516 F300.00
G1 X38.9490 Y34.3473 F300.00
G1 X38.9500 Y33.8125 F300.00
G1 X38.9300 Y33.7071 F300.00
G1 X38.8621 Y33.6004 F300.00
G1 X38.7682 Y33.5369 F300.00
G1 X38.6549 Y33.5127 F300.00
G1 X38.5001 Y33.5125 F300.00
G1 X38.5001 Y25.2000 F300.00
G1 X38.4938 Y25.1391 F300.00
G1 X38.4653 Y25.0597 F300.00
G1 X38.4122 Y24.9878 F300.00
G1 X34.0822 Y20.6578 F300.00
G1 X34.0355 Y20.6196 F300.00
G1 X33.9584 Y20.5832 F300.00
G1 X33.8725 Y20.5699 F300.00
G1 X32.8980 Y20.5699 F300.00
G1 X32.8433 Y20.4698 F300.00
G1 X32.7990 Y20.4099 F300.00
G1 X32.7012 Y20.3119 F300.00
G1 X32.6402 Y20.2667 F300.00
G1 X32.5193 Y20.2021 F300.00
G1 X32.4515 Y20.1776 F300.00
G1 X32.3134 Y20.1498 F300.00
G1 X32.2375 Y20.1461 F300.00
G1 X32.0987 Y20.1599 F300.00
G1 X31.9652 Y20.2002 F300.00
G1 X31.8966 Y20.2327 F300.00
G1 X31.7799 Y20.3110 F300.00
G1 X31.6819 Y20.4088 F300.00
G1 X31.6367 Y20.4698 F300.00
G1 X31.5721 Y20.5907 F300.00
G1 X31.5304 Y20.7264 F300.00
M5
G0 X31.5451 Y20.6786
G1 F60.00
M03 S255.0
G1 F300.00
G1 X31.5304 Y20.7264 F300.00
G1 X31.5304 Y20.7264 F300.00
M5
G0 X42.8118 Y24.6706
G1 F60.00
M03 S255.0
G1 F300.00
G1 X42.7850 Y24.8200 F300.00
G1 X42.7850 Y25.3200 F300.00
G1 X42.8118 Y25.4694 F300.00
G1 X42.8329 Y25.5164 F300.00
G1 X42.9139 Y25.6311 F300.00
G1 X43.0286 Y25.7121 F300.00
G1 X43.0923 Y25.7373 F300.00
G1 X43.2250 Y25.7600 F300.00
G1 X44.2121 Y25.7563 F300.00
G1 X44.3407 Y25.7276 F300.00
G1 X44.4573 Y25.6548 F300.00
G1 X44.4977 Y25.6185 F300.00
G1 X44.5706 Y25.5101 F300.00
G1 X46.4600 Y25.5101 F300.00
G1 X46.4657 Y25.8911 F300.00
G1 X46.4876 Y25.9436 F300.00
G1 X46.5156 Y25.9794 F300.00
G1 X46.5514 Y26.0074 F300.00
G1 X46.6088 Y26.0305 F300.00
G1 X48.3597 Y26.0348 F300.00
G1 X48.4101 Y26.0252 F300.00
G1 X48.4486 Y26.0074 F300.00
G1 X48.4844 Y25.9794 F300.00
G1 X48.5111 Y25.9457 F300.00
G1 X48.5343 Y25.8911 F300.00
G1 X48.5400 Y25.8450 F300.00
G1 X48.5355 Y24.1038 F300.00
G1 X48.5219 Y24.0641 F300.00
G1 X48.4901 Y24.0166 F300.00
G1 X48.4507 Y23.9839 F300.00
G1 X48.4101 Y23.9648 F300.00
G1 X48.3597 Y23.9552 F300.00
G1 X48.0903 Y23.9550 F300.00
G1 X48.0903 Y21.2100 F300.00
G1 X48.2597 Y21.2098 F300.00
G1 X48.3309 Y21.1919 F300.00
G1 X48.3784 Y21.1601 F300.00
G1 X48.4111 Y21.1207 F300.00
G1 X48.4302 Y21.0801 F300.00
G1 X48.4398 Y21.0297 F300.00
G1 X48.4355 Y19.2788 F300.00
G1 X48.4020 Y19.2060 F300.00
G1 X48.3640 Y19.1680 F300.00
G1 X48.3272 Y19.1464 F300.00
G1 X48.2597 Y19.1302 F300.00
G1 X48.0903 Y19.1300 F300.00
G1 X48.0903 Y16.6100 F300.00
G1 X48.1689 Y16.6091 F300.00
G1 X48.2142 Y16.5988 F300.00
G1 X48.2637 Y16.5722 F300.00
G1 X48.3022 Y16.5337 F300.00
G1 X48.3236 Y16.4972 F300.00
G1 X48.3381 Y16.4471 F300.00
G1 X48.3400 Y16.2603 F300.00
G1 X53.2920 Y16.2603 F300.00
G1 X53.3097 Y16.2655 F300.00
G1 X53.3097 Y18.0400 F300.00
G1 X52.8313 Y18.0409 F300.00
G1 X52.6843 Y18.0724 F300.00
G1 X52.5677 Y18.1452 F300.00
G1 X52.5152 Y18.1977 F300.00
G1 X52.4424 Y18.3143 F300.00
G1 X52.4137 Y18.4429 F300.00
G1 X52.4100 Y21.1800 F300.00
G1 X52.4327 Y21.3127 F300.00
G1 X52.4495 Y21.3614 F300.00
G1 X52.5389 Y21.4911 F300.00
G1 X52.6536 Y21.5721 F300.00
G1 X52.7173 Y21.5973 F300.00
G1 X52.8500 Y21.6200 F300.00
G1 X55.5500 Y21.6200 F300.00
G1 X55.7157 Y21.5876 F300.00
G1 X55.8485 Y21.5027 F300.00
G1 X55.8848 Y21.4623 F300.00
G1 X55.9576 Y21.3457 F300.00
G1 X55.9900 Y21.1800 F300.00
G1 X55.9900 Y18.4800 F300.00
G1 X55.9632 Y18.3306 F300.00
G1 X55.9421 Y18.2836 F300.00
G1 X55.8611 Y18.1689 F300.00
G1 X55.7464 Y18.0879 F300.00
G1 X55.6827 Y18.0627 F300.00
G1 X55.5500 Y18.0400 F300.00
G1 X54.6903 Y18.0400 F300.00
G1 X54.6903 Y16.2655 F300.00
G1 X54.7464 Y16.2421 F300.00
G1 X54.8323 Y16.1848 F300.00
G1 X54.8727 Y16.1485 F300.00
G1 X54.9576 Y16.0157 F300.00
G1 X54.9891 Y15.8686 F300.00
G1 X54.9891 Y14.7313 F300.00
G1 X54.9576 Y14.5843 F300.00
G1 X54.8727 Y14.4515 F300.00
G1 X54.8323 Y14.4152 F300.00
G1 X54.7314 Y14.3495 F300.00
G1 X54.6827 Y14.3327 F300.00
G1 X54.5686 Y14.3109 F300.00
G1 X53.4500 Y14.3100 F300.00
G1 X53.3173 Y14.3327 F300.00
G1 X53.2536 Y14.3579 F300.00
G1 X53.1515 Y14.4273 F300.00
G1 X53.1152 Y14.4677 F300.00
G1 X53.0495 Y14.5686 F300.00
G1 X53.0327 Y14.6173 F300.00
G1 X53.0109 Y14.7314 F300.00
G1 X53.0100 Y14.8797 F300.00
G1 X48.3400 Y14.8797 F300.00
G1 X48.3398 Y14.7103 F300.00
G1 X48.3219 Y14.6391 F300.00
G1 X48.3020 Y14.6060 F300.00
G1 X48.2637 Y14.5678 F300.00
G1 X48.2272 Y14.5464 F300.00
G1 X48.1771 Y14.5319 F300.00
G1 X46.4403 Y14.5302 F300.00
G1 X46.3728 Y14.5464 F300.00
G1 X46.3216 Y14.5799 F300.00
G1 X46.2781 Y14.6391 F300.00
G1 X46.2602 Y14.7103 F300.00
G1 X46.2645 Y16.4612 F300.00
G1 X46.2781 Y16.5009 F300.00
G1 X46.3099 Y16.5484 F300.00
G1 X46.3493 Y16.5811 F300.00
G1 X46.3899 Y16.6002 F300.00
G1 X46.4403 Y16.6098 F300.00
G1 X46.7097 Y16.6100 F300.00
G1 X46.7097 Y19.1300 F300.00
G1 X46.5311 Y19.1309 F300.00
G1 X46.4514 Y19.1576 F300.00
G1 X46.4156 Y19.1857 F300.00
G1 X46.3876 Y19.2214 F300.00
G1 X46.3657 Y19.2739 F300.00
G1 X46.3600 Y19.3200 F300.00
G1 X46.3645 Y21.0612 F300.00
G1 X46.3980 Y21.1340 F300.00
G1 X46.4360 Y21.1720 F300.00
G1 X46.4728 Y21.1936 F300.00
G1 X46.5403 Y21.2098 F300.00
G1 X46.7097 Y21.2100 F300.00
G1 X46.7097 Y23.9550 F300.00
G1 X46.6229 Y23.9569 F300.00
G1 X46.5691 Y23.9731 F300.00
G1 X46.5099 Y24.0166 F300.00
G1 X46.4712 Y24.0808 F300.00
G1 X46.4600 Y24.1450 F300.00
G1 X46.4600 Y24.6299 F300.00
G1 X44.5706 Y24.6299 F300.00
G1 X44.4977 Y24.5215 F300.00
G1 X44.4573 Y24.4852 F300.00
G1 X44.3407 Y24.4124 F300.00
G1 X44.2121 Y24.3837 F300.00
G1 X43.2250 Y24.3800 F300.00
G1 X43.0593 Y24.4124 F300.00
G1 X42.9427 Y24.4852 F300.00
G1 X42.8902 Y24.5377 F300.00
G1 X42.8329 Y24.6236 F300.00
G1 X42.8118 Y24.6706 F300.00
M5
G0 X42.8323 Y24.6250
G1 F60.00
M03 S255.0
G1 F300.00
G1 X42.8118 Y24.6706 F300.00
G1 X42.8118 Y24.6706 F300.00
M5
G0 X42.8789 Y24.6904
G1 F60.00
M03 S255.0
G1 F300.00
G1 X42.8550 Y24.8200 F300.00
G1 X42.8550 Y25.3200 F300.00
G1 X42.8763 Y25.4391 F300.00
G1 X42.8923 Y25.4793 F300.00
G1 X42.9634 Y25.5816 F300.00
G1 X43.0657 Y25.6527 F300.00
G1 X43.1059 Y25.6687 F300.00
G1 X43.2250 Y25.6900 F300.00
G1 X44.1984 Y25.6877 F300.00
G1 X44.3149 Y25.6625 F300.00
G1 X44.4286 Y25.5889 F300.00
G1 X44.5077 Y25.4793 F300.00
G1 X44.5234 Y25.4401 F300.00
G1 X46.5300 Y25.4401 F300.00
G1 X46.5312 Y25.8621 F300.00
G1 X46.5414 Y25.8961 F300.00
G1 X46.5615 Y25.9261 F300.00
G1 X46.5877 Y25.9476 F300.00
G1 X46.6209 Y25.9614 F300.00
G1 X48.3561 Y25.9648 F300.00
G1 X48.4123 Y25.9476 F300.00
G1 X48.4518 Y25.9086 F300.00
G1 X48.4700 Y25.8450 F300.00
G1 X48.4671 Y24.1190 F300.00
G1 X48.4349 Y24.0601 F300.00
G1 X48.3760 Y24.0279 F300.00
G1 X48.0203 Y24.0250 F300.00
G1 X48.0203 Y21.1400 F300.00
G1 X48.2500 Y21.1400 F300.00
G1 X48.2879 Y21.1338 F300.00
G1 X48.3218 Y21.1161 F300.00
G1 X48.3460 Y21.0920 F300.00
G1 X48.3630 Y21.0605 F300.00
G1 X48.3698 Y21.0261 F300.00
G1 X48.3671 Y19.2940 F300.00
G1 X48.3349 Y19.2351 F300.00
G1 X48.2791 Y19.2036 F300.00
G1 X48.0203 Y19.2000 F300.00
G1 X48.0203 Y16.5400 F300.00
G1 X48.1760 Y16.5371 F300.00
G1 X48.2136 Y16.5218 F300.00
G1 X48.2461 Y16.4918 F300.00
G1 X48.2694 Y16.4319 F300.00
G1 X48.2700 Y16.1903 F300.00
G1 X53.3051 Y16.1903 F300.00
G1 X53.3797 Y16.2084 F300.00
G1 X53.3797 Y18.1100 F300.00
G1 X52.8500 Y18.1100 F300.00
G1 X52.7101 Y18.1375 F300.00
G1 X52.6066 Y18.2034 F300.00
G1 X52.5734 Y18.2366 F300.00
G1 X52.5075 Y18.3401 F300.00
G1 X52.4823 Y18.4566 F300.00
G1 X52.4800 Y21.1800 F300.00
G1 X52.5119 Y21.3298 F300.00
G1 X52.5884 Y21.4416 F300.00
G1 X52.6877 Y21.5107 F300.00
G1 X52.7309 Y21.5287 F300.00
G1 X52.8500 Y21.5500 F300.00
G1 X55.5500 Y21.5500 F300.00
G1 X55.6899 Y21.5225 F300.00
G1 X55.8036 Y21.4489 F300.00
G1 X55.8925 Y21.3199 F300.00
G1 X55.9200 Y21.1800 F300.00
G1 X55.9200 Y18.4800 F300.00
G1 X55.8925 Y18.3401 F300.00
G1 X55.8266 Y18.2366 F300.00
G1 X55.7934 Y18.2034 F300.00
G1 X55.6899 Y18.1375 F300.00
G1 X55.5734 Y18.1123 F300.00
G1 X54.6203 Y18.1100 F300.00
G1 X54.6203 Y16.2084 F300.00
G1 X54.6998 Y16.1881 F300.00
G1 X54.8189 Y16.1036 F300.00
G1 X54.8925 Y15.9899 F300.00
G1 X54.9194 Y15.8618 F300.00
G1 X54.9194 Y14.7382 F300.00
G1 X54.8925 Y14.6101 F300.00
G1 X54.8189 Y14.4964 F300.00
G1 X54.6998 Y14.4119 F300.00
G1 X54.5618 Y14.3806 F300.00
G1 X53.4500 Y14.3800 F300.00
G1 X53.3204 Y14.4039 F300.00
G1 X53.1884 Y14.4884 F300.00
G1 X53.1075 Y14.6101 F300.00
G1 X53.0806 Y14.7382 F300.00
G1 X53.0800 Y14.9497 F300.00
G1 X48.2700 Y14.9497 F300.00
G1 X48.2700 Y14.7200 F300.00
G1 X48.2638 Y14.6821 F300.00
G1 X48.2311 Y14.6315 F300.00
G1 X48.2011 Y14.6114 F300.00
G1 X48.1671 Y14.6012 F300.00
G1 X46.4500 Y14.6000 F300.00
G1 X46.4095 Y14.6070 F300.00
G1 X46.3689 Y14.6315 F300.00
G1 X46.3403 Y14.6713 F300.00
G1 X46.3300 Y14.7200 F300.00
G1 X46.3329 Y16.4460 F300.00
G1 X46.3651 Y16.5049 F300.00
G1 X46.4240 Y16.5371 F300.00
G1 X46.7797 Y16.5400 F300.00
G1 X46.7797 Y19.2000 F300.00
G1 X46.5500 Y19.2000 F300.00
G1 X46.5121 Y19.2062 F300.00
G1 X46.4782 Y19.2239 F300.00
G1 X46.4539 Y19.2482 F300.00
G1 X46.4362 Y19.2821 F300.00
G1 X46.4300 Y19.3200 F300.00
G1 X46.4329 Y21.0460 F300.00
G1 X46.4651 Y21.1049 F300.00
G1 X46.5209 Y21.1364 F300.00
G1 X46.7797 Y21.1400 F300.00
G1 X46.7797 Y24.0250 F300.00
G1 X46.6121 Y24.0312 F300.00
G1 X46.5651 Y24.0601 F300.00
G1 X46.5370 Y24.1045 F300.00
G1 X46.5300 Y24.1450 F300.00
G1 X46.5300 Y24.6999 F300.00
G1 X44.5234 Y24.6999 F300.00
G1 X44.5077 Y24.6607 F300.00
G1 X44.4516 Y24.5766 F300.00
G1 X44.4184 Y24.5434 F300.00
G1 X44.3149 Y24.4775 F300.00
G1 X44.1750 Y24.4500 F300.00
G1 X43.2016 Y24.4523 F300.00
G1 X43.0851 Y24.4775 F300.00
G1 X42.9816 Y24.5434 F300.00
G1 X42.9484 Y24.5766 F300.00
G1 X42.8789 Y24.6904 F300.00
M5
G0 X42.9050 Y24.6477
G1 F60.00
M03 S255.0
G1 F300.00
G1 X42.8789 Y24.6904 F300.00
G1 X42.8789 Y24.6904 F300.00
M5
G0 X42.9461 Y24.7102
G1 F60.00
M03 S255.0
G1 F300.00
G1 X42.9250 Y24.8200 F300.00
G1 X42.9260 Y25.3298 F300.00
G1 X42.9476 Y25.4341 F300.00
G1 X43.0066 Y25.5246 F300.00
G1 X43.1196 Y25.6000 F300.00
G1 X43.2250 Y25.6200 F300.00
G1 X44.1848 Y25.6190 F300.00
G1 X44.2891 Y25.5974 F300.00
G1 X44.3838 Y25.5352 F300.00
G1 X44.4506 Y25.4382 F300.00
G1 X44.4660 Y25.3701 F300.00
G1 X46.6000 Y25.3701 F300.00
G1 X46.6001 Y25.8475 F300.00
G1 X46.6100 Y25.8750 F300.00
G1 X46.6379 Y25.8935 F300.00
G1 X48.3500 Y25.8950 F300.00
G1 X48.3759 Y25.8877 F300.00
G1 X48.3927 Y25.8709 F300.00
G1 X48.4000 Y25.8450 F300.00
G1 X48.3985 Y24.1329 F300.00
G1 X48.3838 Y24.1081 F300.00
G1 X48.3550 Y24.0952 F300.00
G1 X47.9503 Y24.0950 F300.00
G1 X47.9503 Y21.0700 F300.00
G1 X48.2571 Y21.0695 F300.00
G1 X48.2869 Y21.0538 F300.00
G1 X48.2999 Y21.0225 F300.00
G1 X48.2988 Y19.3092 F300.00
G1 X48.2838 Y19.2831 F300.00
G1 X48.2550 Y19.2702 F300.00
G1 X47.9503 Y19.2700 F300.00
G1 X47.9503 Y16.4700 F300.00
G1 X48.1550 Y16.4698 F300.00
G1 X48.1901 Y16.4499 F300.00
G1 X48.1999 Y16.4225 F300.00
G1 X48.2000 Y16.1203 F300.00
G1 X53.3231 Y16.1203 F300.00
G1 X53.4497 Y16.1500 F300.00
G1 X53.4497 Y18.1800 F300.00
G1 X52.8500 Y18.1800 F300.00
G1 X52.7402 Y18.2011 F300.00
G1 X52.6316 Y18.2754 F300.00
G1 X52.5726 Y18.3659 F300.00
G1 X52.5510 Y18.4702 F300.00
G1 X52.5500 Y21.1800 F300.00
G1 X52.5726 Y21.2941 F300.00
G1 X52.6454 Y21.3984 F300.00
G1 X52.7359 Y21.4574 F300.00
G1 X52.8500 Y21.4800 F300.00
G1 X55.5500 Y21.4800 F300.00
G1 X55.6641 Y21.4574 F300.00
G1 X55.7588 Y21.3952 F300.00
G1 X55.8274 Y21.2941 F300.00
G1 X55.8500 Y21.1800 F300.00
G1 X55.8500 Y18.4800 F300.00
G1 X55.8274 Y18.3659 F300.00
G1 X55.7546 Y18.2616 F300.00
G1 X55.6641 Y18.2026 F300.00
G1 X55.5549 Y18.1802 F300.00
G1 X54.5503 Y18.1800 F300.00
G1 X54.5503 Y16.1500 F300.00
G1 X54.6641 Y16.1274 F300.00
G1 X54.7621 Y16.0621 F300.00
G1 X54.8274 Y15.9641 F300.00
G1 X54.8498 Y15.8549 F300.00
G1 X54.8498 Y14.7451 F300.00
G1 X54.8274 Y14.6359 F300.00
G1 X54.7652 Y14.5412 F300.00
G1 X54.6641 Y14.4726 F300.00
G1 X54.5549 Y14.4502 F300.00
G1 X53.4500 Y14.4500 F300.00
G1 X53.3402 Y14.4711 F300.00
G1 X53.2379 Y14.5379 F300.00
G1 X53.1726 Y14.6359 F300.00
G1 X53.1502 Y14.7451 F300.00
G1 X53.1500 Y15.0197 F300.00
G1 X48.2000 Y15.0197 F300.00
G1 X48.1998 Y14.7150 F300.00
G1 X48.1869 Y14.6862 F300.00
G1 X48.1608 Y14.6712 F300.00
G1 X46.4500 Y14.6700 F300.00
G1 X46.4162 Y14.6831 F300.00
G1 X46.4000 Y14.7200 F300.00
G1 X46.4015 Y16.4321 F300.00
G1 X46.4162 Y16.4569 F300.00
G1 X46.4450 Y16.4698 F300.00
G1 X46.8497 Y16.4700 F300.00
G1 X46.8497 Y19.2700 F300.00
G1 X46.5429 Y19.2705 F300.00
G1 X46.5131 Y19.2862 F300.00
G1 X46.5000 Y19.3200 F300.00
G1 X46.5012 Y21.0308 F300.00
G1 X46.5162 Y21.0569 F300.00
G1 X46.5450 Y21.0698 F300.00
G1 X46.8497 Y21.0700 F300.00
G1 X46.8497 Y24.0950 F300.00
G1 X46.6429 Y24.0955 F300.00
G1 X46.6200 Y24.1050 F300.00
G1 X46.6029 Y24.1281 F300.00
G1 X46.6000 Y24.7699 F300.00
G1 X44.4660 Y24.7699 F300.00
G1 X44.4506 Y24.7018 F300.00
G1 X44.3838 Y24.6048 F300.00
G1 X44.2891 Y24.5426 F300.00
G1 X44.1750 Y24.5200 F300.00
G1 X43.2152 Y24.5210 F300.00
G1 X43.1109 Y24.5426 F300.00
G1 X43.0204 Y24.6016 F300.00
G1 X42.9461 Y24.7102 F300.00
M5
G0 X42.9743 Y24.6689
G1 F60.00
M03 S255.0
G1 F300.00
G1 X42.9461 Y24.7102 F300.00
G1 X42.9461 Y24.7102 F300.00
M5
G0 X42.9494 Y27.3382
G1 F60.00
M03 S255.0
G1 F300.00
G1 X43.0204 Y27.4384 F300.00
G1 X43.1109 Y27.4974 F300.00
G1 X43.2201 Y27.5198 F300.00
G1 X44.1750 Y27.5200 F300.00
G1 X44.2891 Y27.4974 F300.00
G1 X44.3838 Y27.4352 F300.00
G1 X44.4506 Y27.3382 F300.00
G1 X44.4660 Y27.2701 F300.00
G1 X45.4457 Y27.2701 F300.00
G1 X45.9896 Y27.8139 F300.00
G1 X46.0345 Y27.8504 F300.00
G1 X46.0829 Y27.8763 F300.00
G1 X46.1439 Y27.8948 F300.00
G1 X46.2270 Y27.8989 F300.00
G1 X46.3126 Y27.8782 F300.00
G1 X46.3863 Y27.8351 F300.00
G1 X46.6497 Y27.8351 F300.00
G1 X46.6497 Y30.7250 F300.00
G1 X44.6000 Y30.7250 F300.00
G1 X44.5700 Y30.7350 F300.00
G1 X44.5515 Y30.7629 F300.00
G1 X44.5500 Y36.4050 F300.00
G1 X44.5548 Y36.4263 F300.00
G1 X44.5701 Y36.4451 F300.00
G1 X44.6000 Y36.4550 F300.00
G1 X50.7050 Y36.4548 F300.00
G1 X50.7369 Y36.4388 F300.00
G1 X50.7499 Y36.4075 F300.00
G1 X50.7500 Y35.6203 F300.00
G1 X52.6465 Y35.6203 F300.00
G1 X52.6766 Y35.7037 F300.00
G1 X52.7452 Y35.8485 F300.00
G1 X52.8268 Y35.9846 F300.00
G1 X52.9232 Y36.1150 F300.00
G1 X53.0351 Y36.2384 F300.00
G1 X53.1550 Y36.3468 F300.00
G1 X53.2813 Y36.4405 F300.00
G1 X53.4244 Y36.5263 F300.00
G1 X53.5709 Y36.5953 F300.00
G1 X53.7212 Y36.6490 F300.00
G1 X53.8780 Y36.6883 F300.00
G1 X54.0358 Y36.7118 F300.00
G1 X54.2025 Y36.7199 F300.00
G1 X54.3642 Y36.7118 F300.00
G1 X54.5220 Y36.6883 F300.00
G1 X54.6766 Y36.6496 F300.00
G1 X54.8291 Y36.5953 F300.00
G1 X54.9785 Y36.5248 F300.00
G1 X55.1187 Y36.4405 F300.00
G1 X55.2486 Y36.3439 F300.00
G1 X55.3667 Y36.2367 F300.00
G1 X55.4739 Y36.1186 F300.00
G1 X55.5705 Y35.9887 F300.00
G1 X55.6548 Y35.8485 F300.00
G1 X55.7253 Y35.6991 F300.00
G1 X55.7796 Y35.5466 F300.00
G1 X55.8183 Y35.3920 F300.00
G1 X55.8418 Y35.2342 F300.00
G1 X55.8500 Y35.0700 F300.00
G1 X55.8420 Y34.9082 F300.00
G1 X55.8183 Y34.7480 F300.00
G1 X55.7782 Y34.5887 F300.00
G1 X55.7234 Y34.4363 F300.00
G1 X55.6548 Y34.2915 F300.00
G1 X55.5732 Y34.1554 F300.00
G1 X55.4768 Y34.0250 F300.00
G1 X55.3667 Y33.9033 F300.00
G1 X55.2448 Y33.7930 F300.00
G1 X55.1187 Y33.6995 F300.00
G1 X54.9799 Y33.6160 F300.00
G1 X54.8337 Y33.5466 F300.00
G1 X54.6788 Y33.4910 F300.00
G1 X54.5219 Y33.4517 F300.00
G1 X54.3618 Y33.4280 F300.00
G1 X54.2000 Y33.4200 F300.00
G1 X54.0382 Y33.4280 F300.00
G1 X53.8781 Y33.4517 F300.00
G1 X53.7212 Y33.4910 F300.00
G1 X53.5709 Y33.5447 F300.00
G1 X53.4244 Y33.6137 F300.00
G1 X53.2854 Y33.6968 F300.00
G1 X53.1550 Y33.7932 F300.00
G1 X53.0333 Y33.9033 F300.00
G1 X52.9261 Y34.0214 F300.00
G1 X52.8295 Y34.1513 F300.00
G1 X52.7452 Y34.2915 F300.00
G1 X52.6766 Y34.4363 F300.00
G1 X52.6465 Y34.5197 F300.00
G1 X50.7500 Y34.5197 F300.00
G1 X50.7500 Y30.7750 F300.00
G1 X50.7400 Y30.7450 F300.00
G1 X50.7213 Y30.7298 F300.00
G1 X50.7000 Y30.7250 F300.00
G1 X47.7503 Y30.7250 F300.00
G1 X47.7503 Y28.3991 F300.00
G1 X47.8467 Y28.3655 F300.00
G1 X47.9987 Y28.2841 F300.00
G1 X48.0728 Y28.2291 F300.00
G1 X48.1941 Y28.1078 F300.00
G1 X48.2496 Y28.0329 F300.00
G1 X48.3310 Y27.8806 F300.00
G1 X48.3822 Y27.7130 F300.00
G1 X48.3958 Y27.6208 F300.00
G1 X48.3958 Y27.4492 F300.00
G1 X48.3831 Y27.3618 F300.00
G1 X48.3305 Y27.1883 F300.00
G1 X48.2496 Y27.0371 F300.00
G1 X48.1971 Y26.9658 F300.00
G1 X48.1346 Y26.8969 F300.00
G1 X48.0020 Y26.7881 F300.00
G1 X47.8456 Y26.7040 F300.00
G1 X47.6732 Y26.6519 F300.00
G1 X47.5858 Y26.6392 F300.00
G1 X47.4142 Y26.6392 F300.00
G1 X47.2411 Y26.6731 F300.00
G1 X47.0736 Y26.7425 F300.00
G1 X46.9310 Y26.8378 F300.00
G1 X46.8636 Y26.8986 F300.00
G1 X46.7509 Y27.0363 F300.00
G1 X46.7056 Y27.1120 F300.00
G1 X46.6526 Y27.2349 F300.00
G1 X46.2595 Y27.2351 F300.00
G1 X45.7804 Y26.7561 F300.00
G1 X45.7136 Y26.7065 F300.00
G1 X45.6548 Y26.6821 F300.00
G1 X45.5700 Y26.6699 F300.00
G1 X44.4660 Y26.6699 F300.00
G1 X44.4506 Y26.6018 F300.00
G1 X44.3902 Y26.5112 F300.00
G1 X44.2804 Y26.4400 F300.00
G1 X44.1750 Y26.4200 F300.00
G1 X43.2201 Y26.4202 F300.00
G1 X43.1109 Y26.4426 F300.00
G1 X43.0204 Y26.5016 F300.00
G1 X42.9461 Y26.6102 F300.00
G1 X42.9250 Y26.7200 F300.00
G1 X42.9250 Y27.2200 F300.00
G1 X42.9494 Y27.3382 F300.00
M5
G0 X42.9393 Y27.2893
G1 F60.00
M03 S255.0
G1 F300.00
G1 X42.9494 Y27.3382 F300.00
G1 X42.9494 Y27.3382 F300.00
M5
G0 X42.8869 Y27.3698
G1 F60.00
M03 S255.0
G1 F300.00
G1 X42.9484 Y27.4634 F300.00
G1 X42.9816 Y27.4966 F300.00
G1 X43.0851 Y27.5625 F300.00
G1 X43.2016 Y27.5877 F300.00
G1 X44.1750 Y27.5900 F300.00
G1 X44.3149 Y27.5625 F300.00
G1 X44.4184 Y27.4966 F300.00
G1 X44.4516 Y27.4634 F300.00
G1 X44.5077 Y27.3793 F300.00
G1 X44.5234 Y27.3401 F300.00
G1 X45.4167 Y27.3401 F300.00
G1 X45.9383 Y27.8618 F300.00
G1 X46.0308 Y27.9291 F300.00
G1 X46.1252 Y27.9625 F300.00
G1 X46.2059 Y27.9700 F300.00
G1 X46.3106 Y27.9532 F300.00
G1 X46.4093 Y27.9051 F300.00
G1 X46.5797 Y27.9051 F300.00
G1 X46.5797 Y30.6550 F300.00
G1 X44.5939 Y30.6552 F300.00
G1 X44.5595 Y30.6620 F300.00
G1 X44.5280 Y30.6790 F300.00
G1 X44.4982 Y30.7114 F300.00
G1 X44.4836 Y30.7459 F300.00
G1 X44.4800 Y36.4050 F300.00
G1 X44.4974 Y36.4673 F300.00
G1 X44.5364 Y36.5068 F300.00
G1 X44.6000 Y36.5250 F300.00
G1 X50.7119 Y36.5244 F300.00
G1 X50.7487 Y36.5147 F300.00
G1 X50.7811 Y36.4935 F300.00
G1 X50.8086 Y36.4561 F300.00
G1 X50.8188 Y36.4221 F300.00
G1 X50.8200 Y35.6903 F300.00
G1 X52.5972 Y35.6903 F300.00
G1 X52.6860 Y35.8859 F300.00
G1 X52.7733 Y36.0304 F300.00
G1 X52.8672 Y36.1570 F300.00
G1 X52.9880 Y36.2903 F300.00
G1 X53.1130 Y36.4028 F300.00
G1 X53.2396 Y36.4967 F300.00
G1 X53.3945 Y36.5896 F300.00
G1 X53.5473 Y36.6612 F300.00
G1 X53.7011 Y36.7160 F300.00
G1 X53.8643 Y36.7569 F300.00
G1 X54.0256 Y36.7810 F300.00
G1 X54.2059 Y36.7899 F300.00
G1 X54.3744 Y36.7810 F300.00
G1 X54.5357 Y36.7569 F300.00
G1 X54.6936 Y36.7175 F300.00
G1 X54.8527 Y36.6612 F300.00
G1 X55.0125 Y36.5860 F300.00
G1 X55.1604 Y36.4967 F300.00
G1 X55.2956 Y36.3957 F300.00
G1 X55.4162 Y36.2862 F300.00
G1 X55.5257 Y36.1656 F300.00
G1 X55.6267 Y36.0304 F300.00
G1 X55.7160 Y35.8825 F300.00
G1 X55.7912 Y35.7227 F300.00
G1 X55.8475 Y35.5636 F300.00
G1 X55.8869 Y35.4057 F300.00
G1 X55.9110 Y35.2444 F300.00
G1 X55.9200 Y35.0700 F300.00
G1 X55.9117 Y34.9012 F300.00
G1 X55.8869 Y34.7343 F300.00
G1 X55.8441 Y34.5651 F300.00
G1 X55.7867 Y34.4064 F300.00
G1 X55.7160 Y34.2575 F300.00
G1 X55.6333 Y34.1194 F300.00
G1 X55.5328 Y33.9830 F300.00
G1 X55.4162 Y33.8538 F300.00
G1 X55.2870 Y33.7372 F300.00
G1 X55.1506 Y33.6367 F300.00
G1 X55.0125 Y33.5540 F300.00
G1 X54.8636 Y33.4833 F300.00
G1 X54.7049 Y33.4259 F300.00
G1 X54.5357 Y33.3831 F300.00
G1 X54.3688 Y33.3583 F300.00
G1 X54.2000 Y33.3500 F300.00
G1 X54.0312 Y33.3583 F300.00
G1 X53.8643 Y33.3831 F300.00
G1 X53.7011 Y33.4240 F300.00
G1 X53.5473 Y33.4788 F300.00
G1 X53.3945 Y33.5504 F300.00
G1 X53.2494 Y33.6367 F300.00
G1 X53.1130 Y33.7372 F300.00
G1 X52.9838 Y33.8538 F300.00
G1 X52.8743 Y33.9744 F300.00
G1 X52.7733 Y34.1096 F300.00
G1 X52.6860 Y34.2541 F300.00
G1 X52.5972 Y34.4497 F300.00
G1 X50.8200 Y34.4497 F300.00
G1 X50.8200 Y30.7750 F300.00
G1 X50.8138 Y30.7371 F300.00
G1 X50.7960 Y30.7030 F300.00
G1 X50.7511 Y30.6664 F300.00
G1 X50.7000 Y30.6550 F300.00
G1 X47.8203 Y30.6550 F300.00
G1 X47.8203 Y28.4495 F300.00
G1 X47.9544 Y28.3920 F300.00
G1 X48.0437 Y28.3381 F300.00
G1 X48.1816 Y28.2250 F300.00
G1 X48.2531 Y28.1462 F300.00
G1 X48.3526 Y27.9974 F300.00
G1 X48.3950 Y27.9090 F300.00
G1 X48.4501 Y27.7300 F300.00
G1 X48.4658 Y27.6242 F300.00
G1 X48.4658 Y27.4458 F300.00
G1 X48.4508 Y27.3431 F300.00
G1 X48.4264 Y27.2478 F300.00
G1 X48.3581 Y27.0830 F300.00
G1 X48.3085 Y26.9992 F300.00
G1 X48.2460 Y26.9152 F300.00
G1 X48.1198 Y26.7890 F300.00
G1 X48.0358 Y26.7265 F300.00
G1 X47.8740 Y26.6400 F300.00
G1 X47.7847 Y26.6078 F300.00
G1 X47.6834 Y26.5826 F300.00
G1 X47.5892 Y26.5692 F300.00
G1 X47.4108 Y26.5692 F300.00
G1 X47.2241 Y26.6052 F300.00
G1 X47.0456 Y26.6780 F300.00
G1 X46.9642 Y26.7265 F300.00
G1 X46.8802 Y26.7890 F300.00
G1 X46.7540 Y26.9152 F300.00
G1 X46.6969 Y26.9913 F300.00
G1 X46.6430 Y27.0806 F300.00
G1 X46.6035 Y27.1649 F300.00
G1 X46.2883 Y27.1649 F300.00
G1 X45.8093 Y26.6877 F300.00
G1 X45.7416 Y26.6421 F300.00
G1 X45.6718 Y26.6142 F300.00
G1 X45.5700 Y26.5999 F300.00
G1 X44.5234 Y26.5999 F300.00
G1 X44.5077 Y26.5607 F300.00
G1 X44.4286 Y26.4511 F300.00
G1 X44.3149 Y26.3775 F300.00
G1 X44.1984 Y26.3523 F300.00
G1 X43.2132 Y26.3506 F300.00
G1 X43.0851 Y26.3775 F300.00
G1 X42.9816 Y26.4434 F300.00
G1 X42.9484 Y26.4766 F300.00
G1 X42.8789 Y26.5904 F300.00
G1 X42.8550 Y26.7200 F300.00
G1 X42.8550 Y27.2200 F300.00
G1 X42.8869 Y27.3698 F300.00
M5
G0 X42.8765 Y27.3209
G1 F60.00
M03 S255.0
G1 F300.00
G1 X42.8869 Y27.3698 F300.00
G1 X42.8869 Y27.3698 F300.00
M5
G0 X42.8245 Y27.4014
G1 F60.00
M03 S255.0
G1 F300.00
G1 X42.9139 Y27.5311 F300.00
G1 X43.0286 Y27.6121 F300.00
G1 X43.0923 Y27.6373 F300.00
G1 X43.2250 Y27.6600 F300.00
G1 X44.1937 Y27.6591 F300.00
G1 X44.3244 Y27.6332 F300.00
G1 X44.3762 Y27.6089 F300.00
G1 X44.4861 Y27.5311 F300.00
G1 X44.5706 Y27.4101 F300.00
G1 X45.3877 Y27.4101 F300.00
G1 X45.8889 Y27.9113 F300.00
G1 X45.9971 Y27.9905 F300.00
G1 X46.1100 Y28.0308 F300.00
G1 X46.2093 Y28.0399 F300.00
G1 X46.3327 Y28.0196 F300.00
G1 X46.4297 Y27.9751 F300.00
G1 X46.5097 Y27.9751 F300.00
G1 X46.5097 Y30.5850 F300.00
G1 X44.5903 Y30.5852 F300.00
G1 X44.5228 Y30.6014 F300.00
G1 X44.4716 Y30.6349 F300.00
G1 X44.4376 Y30.6764 F300.00
G1 X44.4145 Y30.7338 F300.00
G1 X44.4100 Y36.4050 F300.00
G1 X44.4157 Y36.4511 F300.00
G1 X44.4376 Y36.5036 F300.00
G1 X44.4657 Y36.5394 F300.00
G1 X44.4993 Y36.5661 F300.00
G1 X44.5539 Y36.5893 F300.00
G1 X44.6000 Y36.5950 F300.00
G1 X50.7189 Y36.5941 F300.00
G1 X50.7772 Y36.5786 F300.00
G1 X50.8284 Y36.5451 F300.00
G1 X50.8624 Y36.5036 F300.00
G1 X50.8855 Y36.4462 F300.00
G1 X50.8900 Y35.7603 F300.00
G1 X52.5487 Y35.7603 F300.00
G1 X52.6228 Y35.9165 F300.00
G1 X52.7067 Y36.0566 F300.00
G1 X52.8224 Y36.2126 F300.00
G1 X52.9343 Y36.3357 F300.00
G1 X53.0574 Y36.4476 F300.00
G1 X53.2134 Y36.5633 F300.00
G1 X53.3535 Y36.6472 F300.00
G1 X53.5065 Y36.7200 F300.00
G1 X53.6809 Y36.7831 F300.00
G1 X53.8506 Y36.8256 F300.00
G1 X54.0153 Y36.8502 F300.00
G1 X54.2093 Y36.8598 F300.00
G1 X54.3847 Y36.8502 F300.00
G1 X54.5494 Y36.8256 F300.00
G1 X54.7106 Y36.7854 F300.00
G1 X54.8763 Y36.7271 F300.00
G1 X55.0465 Y36.6472 F300.00
G1 X55.2021 Y36.5530 F300.00
G1 X55.3426 Y36.4476 F300.00
G1 X55.4657 Y36.3357 F300.00
G1 X55.5776 Y36.2126 F300.00
G1 X55.6830 Y36.0721 F300.00
G1 X55.7772 Y35.9165 F300.00
G1 X55.8571 Y35.7463 F300.00
G1 X55.9154 Y35.5806 F300.00
G1 X55.9556 Y35.4194 F300.00
G1 X55.9802 Y35.2547 F300.00
G1 X55.9900 Y35.0700 F300.00
G1 X55.9814 Y34.8943 F300.00
G1 X55.9556 Y34.7206 F300.00
G1 X55.9100 Y34.5415 F300.00
G1 X55.8500 Y34.3765 F300.00
G1 X55.7772 Y34.2235 F300.00
G1 X55.6933 Y34.0834 F300.00
G1 X55.5888 Y33.9410 F300.00
G1 X55.4657 Y33.8043 F300.00
G1 X55.3290 Y33.6812 F300.00
G1 X55.1866 Y33.5767 F300.00
G1 X55.0465 Y33.4928 F300.00
G1 X54.8935 Y33.4200 F300.00
G1 X54.7285 Y33.3600 F300.00
G1 X54.5494 Y33.3144 F300.00
G1 X54.3757 Y33.2886 F300.00
G1 X54.2000 Y33.2800 F300.00
G1 X54.0338 Y33.2879 F300.00
G1 X53.8506 Y33.3144 F300.00
G1 X53.6894 Y33.3546 F300.00
G1 X53.5065 Y33.4200 F300.00
G1 X53.3535 Y33.4928 F300.00
G1 X53.1979 Y33.5870 F300.00
G1 X53.0710 Y33.6812 F300.00
G1 X52.9343 Y33.8043 F300.00
G1 X52.8112 Y33.9410 F300.00
G1 X52.7170 Y34.0679 F300.00
G1 X52.6228 Y34.2235 F300.00
G1 X52.5487 Y34.3797 F300.00
G1 X50.8900 Y34.3797 F300.00
G1 X50.8900 Y30.7750 F300.00
G1 X50.8803 Y30.7149 F300.00
G1 X50.8520 Y30.6610 F300.00
G1 X50.8140 Y30.6230 F300.00
G1 X50.7809 Y30.6031 F300.00
G1 X50.7097 Y30.5852 F300.00
G1 X47.8903 Y30.5850 F300.00
G1 X47.8903 Y28.4988 F300.00
G1 X47.9984 Y28.4476 F300.00
G1 X48.1532 Y28.3441 F300.00
G1 X48.2418 Y28.2636 F300.00
G1 X48.3679 Y28.1079 F300.00
G1 X48.4571 Y27.9415 F300.00
G1 X48.4936 Y27.8418 F300.00
G1 X48.5216 Y27.7287 F300.00
G1 X48.5398 Y27.5443 F300.00
G1 X48.5347 Y27.4307 F300.00
G1 X48.5180 Y27.3230 F300.00
G1 X48.4642 Y27.1457 F300.00
G1 X48.4196 Y27.0493 F300.00
G1 X48.3594 Y26.9496 F300.00
G1 X48.2418 Y26.8064 F300.00
G1 X48.1532 Y26.7259 F300.00
G1 X48.0729 Y26.6671 F300.00
G1 X47.9024 Y26.5761 F300.00
G1 X47.8068 Y26.5414 F300.00
G1 X47.7070 Y26.5159 F300.00
G1 X47.6043 Y26.5003 F300.00
G1 X47.5000 Y26.4950 F300.00
G1 X47.3957 Y26.5003 F300.00
G1 X47.2880 Y26.5170 F300.00
G1 X47.1107 Y26.5708 F300.00
G1 X47.0181 Y26.6136 F300.00
G1 X46.9271 Y26.6671 F300.00
G1 X46.8468 Y26.7259 F300.00
G1 X46.7646 Y26.7996 F300.00
G1 X46.6909 Y26.8818 F300.00
G1 X46.6321 Y26.9621 F300.00
G1 X46.5588 Y27.0949 F300.00
G1 X46.3173 Y27.0949 F300.00
G1 X45.8563 Y26.6359 F300.00
G1 X45.7729 Y26.5795 F300.00
G1 X45.6888 Y26.5463 F300.00
G1 X45.5700 Y26.5299 F300.00
G1 X44.5706 Y26.5299 F300.00
G1 X44.4861 Y26.4089 F300.00
G1 X44.3762 Y26.3311 F300.00
G1 X44.3244 Y26.3068 F300.00
G1 X44.1936 Y26.2809 F300.00
G1 X43.2063 Y26.2809 F300.00
G1 X43.0593 Y26.3124 F300.00
G1 X42.9427 Y26.3852 F300.00
G1 X42.8902 Y26.4377 F300.00
G1 X42.8329 Y26.5236 F300.00
G1 X42.8118 Y26.5706 F300.00
G1 X42.7850 Y26.7200 F300.00
G1 X42.7850 Y27.2200 F300.00
G1 X42.8077 Y27.3527 F300.00
G1 X42.8245 Y27.4014 F300.00
M5
G0 X42.8082 Y27.3541
G1 F60.00
M03 S255.0
G1 F300.00
G1 X42.8245 Y27.4014 F300.00
G1 X42.8245 Y27.4014 F300.00
M5
G0 X37.4766 Y36.2847
G1 F60.00
M03 S255.0
G1 F300.00
G1 X37.5379 Y36.3746 F300.00
G1 X37.6266 Y36.4350 F300.00
G1 X37.7500 Y36.4625 F300.00
G1 X38.6500 Y36.4625 F300.00
G1 X38.7554 Y36.4425 F300.00
G1 X38.8652 Y36.3713 F300.00
G1 X38.9256 Y36.2807 F300.00
G1 X38.9435 Y36.2001 F300.00
G1 X39.5350 Y36.2001 F300.00
G1 X39.5463 Y36.3043 F300.00
G1 X39.5805 Y36.3595 F300.00
G1 X39.6373 Y36.4004 F300.00
G1 X39.7013 Y36.4148 F300.00
G1 X41.1106 Y36.4150 F300.00
G1 X41.2124 Y36.5168 F300.00
G1 X41.2124 Y37.4375 F300.00
G1 X41.0576 Y37.4377 F300.00
G1 X40.9484 Y37.4601 F300.00
G1 X40.8504 Y37.5254 F300.00
G1 X40.7851 Y37.6234 F300.00
G1 X40.7625 Y37.7375 F300.00
G1 X40.7625 Y38.2625 F300.00
G1 X40.7891 Y38.3847 F300.00
G1 X40.8579 Y38.4809 F300.00
G1 X40.9484 Y38.5399 F300.00
G1 X41.0527 Y38.5615 F300.00
G1 X41.9625 Y38.5625 F300.00
G1 X42.0766 Y38.5399 F300.00
G1 X42.1671 Y38.4809 F300.00
G1 X42.2399 Y38.3766 F300.00
G1 X42.2625 Y38.2625 F300.00
G1 X42.2625 Y37.7375 F300.00
G1 X42.2381 Y37.6193 F300.00
G1 X42.1746 Y37.5254 F300.00
G1 X42.0766 Y37.4601 F300.00
G1 X41.9674 Y37.4377 F300.00
G1 X41.8126 Y37.4375 F300.00
G1 X41.8126 Y36.4150 F300.00
G1 X42.3035 Y36.4140 F300.00
G1 X42.3586 Y36.4023 F300.00
G1 X42.4073 Y36.3711 F300.00
G1 X42.4504 Y36.3127 F300.00
G1 X42.4650 Y36.2438 F300.00
G1 X42.4648 Y35.5113 F300.00
G1 X42.4523 Y35.4514 F300.00
G1 X42.4211 Y35.4027 F300.00
G1 X42.3586 Y35.3577 F300.00
G1 X42.2938 Y35.3450 F300.00
G1 X39.7013 Y35.3452 F300.00
G1 X39.6321 Y35.3627 F300.00
G1 X39.5835 Y35.3969 F300.00
G1 X39.5527 Y35.4421 F300.00
G1 X39.5352 Y35.5113 F300.00
G1 X39.5350 Y35.5999 F300.00
G1 X38.9435 Y35.5999 F300.00
G1 X38.9256 Y35.5193 F300.00
G1 X38.8652 Y35.4287 F300.00
G1 X38.7554 Y35.3575 F300.00
G1 X38.6500 Y35.3375 F300.00
G1 X37.7402 Y35.3385 F300.00
G1 X37.6359 Y35.3601 F300.00
G1 X37.5454 Y35.4191 F300.00
G1 X37.4711 Y35.5277 F300.00
G1 X37.4500 Y35.6375 F300.00
G1 X37.4500 Y36.1625 F300.00
G1 X37.4766 Y36.2847 F300.00
M5
G0 X37.4660 Y36.2358
G1 F60.00
M03 S255.0
G1 F300.00
G1 X37.4766 Y36.2847 F300.00
G1 X37.4766 Y36.2847 F300.00
M5
G0 X37.4173 Y36.3218
G1 F60.00
M03 S255.0
G1 F300.00
G1 X37.4884 Y36.4241 F300.00
G1 X37.5907 Y36.4952 F300.00
G1 X37.6309 Y36.5112 F300.00
G1 X37.7500 Y36.5325 F300.00
G1 X38.6500 Y36.5325 F300.00
G1 X38.7691 Y36.5112 F300.00
G1 X38.8093 Y36.4952 F300.00
G1 X38.9116 Y36.4241 F300.00
G1 X38.9827 Y36.3218 F300.00
G1 X39.0009 Y36.2701 F300.00
G1 X39.4679 Y36.2701 F300.00
G1 X39.4871 Y36.3443 F300.00
G1 X39.5398 Y36.4183 F300.00
G1 X39.6156 Y36.4673 F300.00
G1 X39.6945 Y36.4844 F300.00
G1 X41.0816 Y36.4850 F300.00
G1 X41.1424 Y36.5458 F300.00
G1 X41.1424 Y37.3675 F300.00
G1 X41.0507 Y37.3681 F300.00
G1 X40.9127 Y37.3994 F300.00
G1 X40.8009 Y37.4759 F300.00
G1 X40.7200 Y37.5976 F300.00
G1 X40.6925 Y37.7375 F300.00
G1 X40.6925 Y38.2625 F300.00
G1 X40.7138 Y38.3816 F300.00
G1 X40.7298 Y38.4218 F300.00
G1 X40.7936 Y38.5161 F300.00
G1 X40.8191 Y38.5391 F300.00
G1 X40.9226 Y38.6050 F300.00
G1 X41.0391 Y38.6302 F300.00
G1 X41.9625 Y38.6325 F300.00
G1 X42.1024 Y38.6050 F300.00
G1 X42.2059 Y38.5391 F300.00
G1 X42.2391 Y38.5059 F300.00
G1 X42.3050 Y38.4024 F300.00
G1 X42.3325 Y38.2625 F300.00
G1 X42.3325 Y37.7375 F300.00
G1 X42.3050 Y37.5976 F300.00
G1 X42.2241 Y37.4759 F300.00
G1 X42.1123 Y37.3994 F300.00
G1 X41.9743 Y37.3681 F300.00
G1 X41.8826 Y37.3675 F300.00
G1 X41.8826 Y36.4850 F300.00
G1 X42.2938 Y36.4850 F300.00
G1 X42.3636 Y36.4735 F300.00
G1 X42.4038 Y36.4575 F300.00
G1 X42.4602 Y36.4183 F300.00
G1 X42.5173 Y36.3344 F300.00
G1 X42.5350 Y36.2438 F300.00
G1 X42.5344 Y35.5044 F300.00
G1 X42.5173 Y35.4256 F300.00
G1 X42.4755 Y35.3585 F300.00
G1 X42.4515 Y35.3345 F300.00
G1 X42.3844 Y35.2927 F300.00
G1 X42.2938 Y35.2750 F300.00
G1 X39.6944 Y35.2756 F300.00
G1 X39.6057 Y35.2971 F300.00
G1 X39.5317 Y35.3498 F300.00
G1 X39.4827 Y35.4256 F300.00
G1 X39.4650 Y35.5299 F300.00
G1 X39.0009 Y35.5299 F300.00
G1 X38.9827 Y35.4782 F300.00
G1 X38.9036 Y35.3686 F300.00
G1 X38.7899 Y35.2950 F300.00
G1 X38.6734 Y35.2698 F300.00
G1 X37.7500 Y35.2675 F300.00
G1 X37.6309 Y35.2888 F300.00
G1 X37.5907 Y35.3048 F300.00
G1 X37.4884 Y35.3759 F300.00
G1 X37.4173 Y35.4782 F300.00
G1 X37.4013 Y35.5184 F300.00
G1 X37.3800 Y35.6375 F300.00
G1 X37.3800 Y36.1625 F300.00
G1 X37.4013 Y36.2816 F300.00
G1 X37.4173 Y36.3218 F300.00
M5
G0 X37.4001 Y36.2749
G1 F60.00
M03 S255.0
G1 F300.00
G1 X37.4013 Y36.2816 F300.00
G1 X37.4173 Y36.3218 F300.00
G1 X37.4173 Y36.3218 F300.00
M5
G0 X37.3579 Y36.3589
G1 F60.00
M03 S255.0
G1 F300.00
G1 X37.4389 Y36.4736 F300.00
G1 X37.5488 Y36.5514 F300.00
G1 X37.6006 Y36.5757 F300.00
G1 X37.7314 Y36.6016 F300.00
G1 X38.6871 Y36.5988 F300.00
G1 X38.8157 Y36.5701 F300.00
G1 X38.9323 Y36.4973 F300.00
G1 X38.9727 Y36.4610 F300.00
G1 X39.0522 Y36.3401 F300.00
G1 X39.4111 Y36.3401 F300.00
G1 X39.4247 Y36.3759 F300.00
G1 X39.4625 Y36.4350 F300.00
G1 X39.5065 Y36.4815 F300.00
G1 X39.5898 Y36.5324 F300.00
G1 X39.6876 Y36.5541 F300.00
G1 X41.0526 Y36.5550 F300.00
G1 X41.0724 Y36.5748 F300.00
G1 X41.0724 Y37.2975 F300.00
G1 X40.8968 Y37.3299 F300.00
G1 X40.7640 Y37.4148 F300.00
G1 X40.7277 Y37.4552 F300.00
G1 X40.6620 Y37.5561 F300.00
G1 X40.6262 Y37.7004 F300.00
G1 X40.6234 Y38.2812 F300.00
G1 X40.6549 Y38.4282 F300.00
G1 X40.7277 Y38.5448 F300.00
G1 X40.7640 Y38.5852 F300.00
G1 X40.8811 Y38.6630 F300.00
G1 X40.9298 Y38.6798 F300.00
G1 X41.0439 Y38.7016 F300.00
G1 X41.9812 Y38.7016 F300.00
G1 X42.1282 Y38.6701 F300.00
G1 X42.2448 Y38.5973 F300.00
G1 X42.2973 Y38.5448 F300.00
G1 X42.3701 Y38.4282 F300.00
G1 X42.4025 Y38.2625 F300.00
G1 X42.4025 Y37.7375 F300.00
G1 X42.3798 Y37.6048 F300.00
G1 X42.3630 Y37.5561 F300.00
G1 X42.2973 Y37.4552 F300.00
G1 X42.2448 Y37.4027 F300.00
G1 X42.1282 Y37.3299 F300.00
G1 X41.9526 Y37.2975 F300.00
G1 X41.9526 Y36.5550 F300.00
G1 X42.2938 Y36.5550 F300.00
G1 X42.3939 Y36.5380 F300.00
G1 X42.4409 Y36.5169 F300.00
G1 X42.5073 Y36.4700 F300.00
G1 X42.5669 Y36.3908 F300.00
G1 X42.5880 Y36.3439 F300.00
G1 X42.6050 Y36.2438 F300.00
G1 X42.6013 Y35.4792 F300.00
G1 X42.5824 Y35.3998 F300.00
G1 X42.5315 Y35.3165 F300.00
G1 X42.4935 Y35.2785 F300.00
G1 X42.4102 Y35.2276 F300.00
G1 X42.2938 Y35.2050 F300.00
G1 X39.6875 Y35.2059 F300.00
G1 X39.5898 Y35.2276 F300.00
G1 X39.4927 Y35.2900 F300.00
G1 X39.4247 Y35.3841 F300.00
G1 X39.4025 Y35.4599 F300.00
G1 X39.0522 Y35.4599 F300.00
G1 X38.9727 Y35.3390 F300.00
G1 X38.9323 Y35.3027 F300.00
G1 X38.8157 Y35.2299 F300.00
G1 X38.6871 Y35.2012 F300.00
G1 X37.7500 Y35.1975 F300.00
G1 X37.6173 Y35.2202 F300.00
G1 X37.5536 Y35.2454 F300.00
G1 X37.4389 Y35.3264 F300.00
G1 X37.3579 Y35.4411 F300.00
G1 X37.3327 Y35.5048 F300.00
G1 X37.3100 Y35.6375 F300.00
G1 X37.3100 Y36.1625 F300.00
G1 X37.3327 Y36.2952 F300.00
G1 X37.3579 Y36.3589 F300.00
M5
G0 X37.3395 Y36.3124
G1 F60.00
M03 S255.0
G1 F300.00
G1 X37.3579 Y36.3589 F300.00
G1 X37.3579 Y36.3589 F300.00
M5
G0 X31.4700 Y33.3446
G1 F60.00
M03 S255.0
G1 F300.00
G1 X31.4500 Y33.4500 F300.00
G1 X31.4500 Y33.9750 F300.00
G1 X31.4744 Y34.0932 F300.00
G1 X31.5379 Y34.1871 F300.00
G1 X31.6359 Y34.2524 F300.00
G1 X31.7451 Y34.2748 F300.00
G1 X31.9399 Y34.2750 F300.00
G1 X31.9399 Y35.4520 F300.00
G1 X31.8398 Y35.5067 F300.00
G1 X31.7799 Y35.5510 F300.00
G1 X31.6819 Y35.6488 F300.00
G1 X31.6367 Y35.7098 F300.00
G1 X31.5721 Y35.8307 F300.00
G1 X31.5476 Y35.8985 F300.00
G1 X31.5295 Y35.9712 F300.00
G1 X31.5160 Y36.1100 F300.00
G1 X31.5295 Y36.2488 F300.00
G1 X31.5476 Y36.3215 F300.00
G1 X31.5721 Y36.3893 F300.00
G1 X31.6367 Y36.5102 F300.00
G1 X31.6819 Y36.5712 F300.00
G1 X31.7799 Y36.6690 F300.00
G1 X31.8398 Y36.7133 F300.00
G1 X31.9399 Y36.7680 F300.00
G1 X31.9399 Y37.8400 F300.00
G1 X31.9532 Y37.9284 F300.00
G1 X31.9891 Y38.0047 F300.00
G1 X32.0278 Y38.0522 F300.00
G1 X33.2999 Y39.3243 F300.00
G1 X33.2999 Y39.8875 F300.00
G1 X32.7475 Y39.8876 F300.00
G1 X32.7200 Y39.8975 F300.00
G1 X32.7015 Y39.9254 F300.00
G1 X32.7029 Y41.6544 F300.00
G1 X32.7201 Y41.6776 F300.00
G1 X32.7500 Y41.6875 F300.00
G1 X34.4669 Y41.6846 F300.00
G1 X34.4901 Y41.6674 F300.00
G1 X34.5000 Y41.6375 F300.00
G1 X34.4952 Y39.9162 F300.00
G1 X34.4765 Y39.8951 F300.00
G1 X34.4525 Y39.8876 F300.00
G1 X33.9001 Y39.8875 F300.00
G1 X33.8989 Y39.1730 F300.00
G1 X33.8864 Y39.1105 F300.00
G1 X33.8504 Y39.0345 F300.00
G1 X33.8122 Y38.9878 F300.00
G1 X32.5401 Y37.7157 F300.00
G1 X32.5401 Y36.7680 F300.00
G1 X32.6402 Y36.7133 F300.00
G1 X32.7001 Y36.6690 F300.00
G1 X32.7981 Y36.5712 F300.00
G1 X32.8433 Y36.5102 F300.00
G1 X32.9079 Y36.3893 F300.00
G1 X32.9324 Y36.3215 F300.00
G1 X32.9505 Y36.2488 F300.00
G1 X32.9640 Y36.1100 F300.00
G1 X32.9505 Y35.9712 F300.00
G1 X32.9324 Y35.8985 F300.00
G1 X32.9079 Y35.8307 F300.00
G1 X32.8433 Y35.7098 F300.00
G1 X32.7981 Y35.6488 F300.00
G1 X32.7001 Y35.5510 F300.00
G1 X32.6402 Y35.5067 F300.00
G1 X32.5401 Y35.4520 F300.00
G1 X32.5401 Y34.2750 F300.00
G1 X32.6549 Y34.2748 F300.00
G1 X32.7682 Y34.2506 F300.00
G1 X32.8621 Y34.1871 F300.00
G1 X32.9275 Y34.0891 F300.00
G1 X32.9500 Y33.9750 F300.00
G1 X32.9500 Y33.4500 F300.00
G1 X32.9274 Y33.3359 F300.00
G1 X32.8546 Y33.2316 F300.00
G1 X32.7641 Y33.1725 F300.00
G1 X32.6598 Y33.1510 F300.00
G1 X31.7500 Y33.1500 F300.00
G1 X31.6359 Y33.1726 F300.00
G1 X31.5454 Y33.2316 F300.00
G1 X31.4700 Y33.3446 F300.00
M5
G0 X31.4978 Y33.3030
G1 F60.00
M03 S255.0
G1 F300.00
G1 X31.4700 Y33.3446 F300.00
G1 X31.4700 Y33.3446 F300.00
M5
G0 X31.4013 Y33.3309
G1 F60.00
M03 S255.0
G1 F300.00
G1 X31.3800 Y33.4500 F300.00
G1 X31.3800 Y33.9750 F300.00
G1 X31.4119 Y34.1248 F300.00
G1 X31.4884 Y34.2366 F300.00
G1 X31.6002 Y34.3131 F300.00
G1 X31.7382 Y34.3444 F300.00
G1 X31.8699 Y34.3450 F300.00
G1 X31.8699 Y35.4077 F300.00
G1 X31.7941 Y35.4532 F300.00
G1 X31.6828 Y35.5445 F300.00
G1 X31.5767 Y35.6739 F300.00
G1 X31.5088 Y35.8008 F300.00
G1 X31.4812 Y35.8764 F300.00
G1 X31.4602 Y35.9609 F300.00
G1 X31.4460 Y36.1100 F300.00
G1 X31.4602 Y36.2591 F300.00
G1 X31.4812 Y36.3436 F300.00
G1 X31.5088 Y36.4192 F300.00
G1 X31.5767 Y36.5461 F300.00
G1 X31.6828 Y36.6755 F300.00
G1 X31.7941 Y36.7668 F300.00
G1 X31.8699 Y36.8123 F300.00
G1 X31.8699 Y37.8400 F300.00
G1 X31.8868 Y37.9506 F300.00
G1 X31.9291 Y38.0407 F300.00
G1 X31.9782 Y38.1017 F300.00
G1 X33.2299 Y39.3533 F300.00
G1 X33.2299 Y39.8175 F300.00
G1 X32.7329 Y39.8187 F300.00
G1 X32.6989 Y39.8289 F300.00
G1 X32.6689 Y39.8490 F300.00
G1 X32.6474 Y39.8752 F300.00
G1 X32.6336 Y39.9084 F300.00
G1 X32.6300 Y41.6375 F300.00
G1 X32.6370 Y41.6780 F300.00
G1 X32.6539 Y41.7093 F300.00
G1 X32.6782 Y41.7336 F300.00
G1 X32.7095 Y41.7505 F300.00
G1 X32.7439 Y41.7573 F300.00
G1 X34.4500 Y41.7575 F300.00
G1 X34.4905 Y41.7505 F300.00
G1 X34.5218 Y41.7336 F300.00
G1 X34.5461 Y41.7093 F300.00
G1 X34.5630 Y41.6780 F300.00
G1 X34.5698 Y41.6436 F300.00
G1 X34.5700 Y39.9375 F300.00
G1 X34.5586 Y39.8864 F300.00
G1 X34.5218 Y39.8414 F300.00
G1 X34.4619 Y39.8181 F300.00
G1 X33.9701 Y39.8175 F300.00
G1 X33.9688 Y39.1696 F300.00
G1 X33.9532 Y39.0894 F300.00
G1 X33.9097 Y38.9974 F300.00
G1 X33.8617 Y38.9383 F300.00
G1 X32.6101 Y37.6867 F300.00
G1 X32.6101 Y36.8123 F300.00
G1 X32.6859 Y36.7668 F300.00
G1 X32.7972 Y36.6755 F300.00
G1 X32.9033 Y36.5461 F300.00
G1 X32.9712 Y36.4192 F300.00
G1 X32.9988 Y36.3436 F300.00
G1 X33.0198 Y36.2591 F300.00
G1 X33.0340 Y36.1100 F300.00
G1 X33.0198 Y35.9609 F300.00
G1 X32.9988 Y35.8764 F300.00
G1 X32.9712 Y35.8008 F300.00
G1 X32.9033 Y35.6739 F300.00
G1 X32.7972 Y35.5445 F300.00
G1 X32.6859 Y35.4532 F300.00
G1 X32.6101 Y35.4077 F300.00
G1 X32.6101 Y34.3450 F300.00
G1 X32.6734 Y34.3427 F300.00
G1 X32.7796 Y34.3211 F300.00
G1 X32.8093 Y34.3077 F300.00
G1 X32.9116 Y34.2366 F300.00
G1 X32.9925 Y34.1149 F300.00
G1 X33.0200 Y33.9750 F300.00
G1 X33.0200 Y33.4500 F300.00
G1 X32.9925 Y33.3101 F300.00
G1 X32.9266 Y33.2066 F300.00
G1 X32.8934 Y33.1734 F300.00
G1 X32.7899 Y33.1075 F300.00
G1 X32.6734 Y33.0823 F300.00
G1 X31.7500 Y33.0800 F300.00
G1 X31.6101 Y33.1075 F300.00
G1 X31.5066 Y33.1734 F300.00
G1 X31.4734 Y33.2066 F300.00
G1 X31.4173 Y33.2907 F300.00
G1 X31.4013 Y33.3309 F300.00
M5
G0 X31.4210 Y33.2851
G1 F60.00
M03 S255.0
G1 F300.00
G1 X31.4173 Y33.2907 F300.00
G1 X31.4013 Y33.3309 F300.00
G1 X31.4013 Y33.3309 F300.00
M5
G0 X31.3327 Y33.3173
G1 F60.00
M03 S255.0
G1 F300.00
G1 X31.3100 Y33.4500 F300.00
G1 X31.3100 Y33.9750 F300.00
G1 X31.3424 Y34.1407 F300.00
G1 X31.4389 Y34.2861 F300.00
G1 X31.5536 Y34.3671 F300.00
G1 X31.6006 Y34.3882 F300.00
G1 X31.7129 Y34.4113 F300.00
G1 X31.7999 Y34.4150 F300.00
G1 X31.7999 Y35.3674 F300.00
G1 X31.6992 Y35.4364 F300.00
G1 X31.6291 Y35.4991 F300.00
G1 X31.5664 Y35.5692 F300.00
G1 X31.4795 Y35.7000 F300.00
G1 X31.4107 Y35.8682 F300.00
G1 X31.3813 Y36.0161 F300.00
G1 X31.3760 Y36.1100 F300.00
G1 X31.3813 Y36.2039 F300.00
G1 X31.4107 Y36.3518 F300.00
G1 X31.4795 Y36.5200 F300.00
G1 X31.5664 Y36.6508 F300.00
G1 X31.6291 Y36.7209 F300.00
G1 X31.6992 Y36.7836 F300.00
G1 X31.7999 Y36.8526 F300.00
G1 X31.7999 Y37.8400 F300.00
G1 X31.8204 Y37.9727 F300.00
G1 X31.8564 Y38.0556 F300.00
G1 X31.9224 Y38.1445 F300.00
G1 X33.1599 Y39.3823 F300.00
G1 X33.1599 Y39.7475 F300.00
G1 X32.7500 Y39.7475 F300.00
G1 X32.7039 Y39.7532 F300.00
G1 X32.6514 Y39.7751 F300.00
G1 X32.6157 Y39.8031 F300.00
G1 X32.5876 Y39.8389 F300.00
G1 X32.5657 Y39.8914 F300.00
G1 X32.5600 Y39.9375 F300.00
G1 X32.5600 Y41.6375 F300.00
G1 X32.5712 Y41.7017 F300.00
G1 X32.5978 Y41.7512 F300.00
G1 X32.6363 Y41.7897 F300.00
G1 X32.6858 Y41.8163 F300.00
G1 X32.7403 Y41.8273 F300.00
G1 X34.4500 Y41.8275 F300.00
G1 X34.5142 Y41.8163 F300.00
G1 X34.5637 Y41.7897 F300.00
G1 X34.6022 Y41.7512 F300.00
G1 X34.6288 Y41.7017 F300.00
G1 X34.6398 Y41.6472 F300.00
G1 X34.6400 Y39.9375 F300.00
G1 X34.6236 Y39.8603 F300.00
G1 X34.6020 Y39.8235 F300.00
G1 X34.5640 Y39.7855 F300.00
G1 X34.4912 Y39.7520 F300.00
G1 X34.0401 Y39.7475 F300.00
G1 X34.0380 Y39.1566 F300.00
G1 X34.0182 Y39.0634 F300.00
G1 X33.9691 Y38.9603 F300.00
G1 X33.9112 Y38.8888 F300.00
G1 X32.6801 Y37.6577 F300.00
G1 X32.6801 Y36.8526 F300.00
G1 X32.7808 Y36.7836 F300.00
G1 X32.8509 Y36.7209 F300.00
G1 X32.9634 Y36.5821 F300.00
G1 X33.0345 Y36.4492 F300.00
G1 X33.0639 Y36.3697 F300.00
G1 X33.0996 Y36.1970 F300.00
G1 X33.1038 Y36.1007 F300.00
G1 X33.0874 Y35.9412 F300.00
G1 X33.0639 Y35.8503 F300.00
G1 X33.0062 Y35.7110 F300.00
G1 X32.9530 Y35.6224 F300.00
G1 X32.8574 Y35.5058 F300.00
G1 X32.7808 Y35.4364 F300.00
G1 X32.6801 Y35.3674 F300.00
G1 X32.6801 Y34.4124 F300.00
G1 X32.8157 Y34.3826 F300.00
G1 X32.9485 Y34.2977 F300.00
G1 X33.0389 Y34.1762 F300.00
G1 X33.0632 Y34.1244 F300.00
G1 X33.0900 Y33.9750 F300.00
G1 X33.0900 Y33.4500 F300.00
G1 X33.0576 Y33.2843 F300.00
G1 X32.9611 Y33.1389 F300.00
G1 X32.8464 Y33.0579 F300.00
G1 X32.7827 Y33.0327 F300.00
G1 X32.6500 Y33.0100 F300.00
G1 X31.7500 Y33.0100 F300.00
G1 X31.5843 Y33.0424 F300.00
G1 X31.4677 Y33.1152 F300.00
G1 X31.4152 Y33.1677 F300.00
G1 X31.3495 Y33.2686 F300.00
G1 X31.3327 Y33.3173 F300.00
M5
G0 X31.3490 Y33.2700
G1 F60.00
M03 S255.0
G1 F300.00
G1 X31.3327 Y33.3173 F300.00
G1 X31.3327 Y33.3173 F300.00
M5
G0 X28.9904 Y35.9664
G1 F60.00
M03 S255.0
G1 F300.00
G1 X28.9760 Y36.1100 F300.00
G1 X28.9899 Y36.2513 F300.00
G1 X29.0302 Y36.3848 F300.00
G1 X29.0967 Y36.5102 F300.00
G1 X29.1881 Y36.6219 F300.00
G1 X29.2958 Y36.7106 F300.00
G1 X29.4207 Y36.7779 F300.00
G1 X29.5587 Y36.8201 F300.00
G1 X29.7000 Y36.8340 F300.00
G1 X29.8413 Y36.8201 F300.00
G1 X29.9748 Y36.7798 F300.00
G1 X30.1002 Y36.7133 F300.00
G1 X30.2119 Y36.6219 F300.00
G1 X30.3006 Y36.5142 F300.00
G1 X30.3679 Y36.3893 F300.00
G1 X30.4101 Y36.2513 F300.00
G1 X30.4240 Y36.1100 F300.00
G1 X30.4101 Y35.9687 F300.00
G1 X30.3698 Y35.8352 F300.00
G1 X30.3033 Y35.7098 F300.00
G1 X30.2119 Y35.5981 F300.00
G1 X30.1042 Y35.5094 F300.00
G1 X29.9793 Y35.4421 F300.00
G1 X29.8413 Y35.3999 F300.00
G1 X29.7000 Y35.3860 F300.00
G1 X29.5587 Y35.3999 F300.00
G1 X29.4252 Y35.4402 F300.00
G1 X29.2998 Y35.5067 F300.00
G1 X29.1881 Y35.5981 F300.00
G1 X29.0994 Y35.7058 F300.00
G1 X29.0321 Y35.8307 F300.00
G1 X28.9904 Y35.9664 F300.00
M5
G0 X29.0051 Y35.9186
G1 F60.00
M03 S255.0
G1 F300.00
G1 X28.9904 Y35.9664 F300.00
G1 X28.9904 Y35.9664 F300.00
M5
G0 X28.9225 Y35.9494
G1 F60.00
M03 S255.0
G1 F300.00
G1 X28.9060 Y36.1100 F300.00
G1 X28.9213 Y36.2650 F300.00
G1 X28.9643 Y36.4084 F300.00
G1 X29.0367 Y36.5461 F300.00
G1 X29.1386 Y36.6714 F300.00
G1 X29.2541 Y36.7668 F300.00
G1 X29.3908 Y36.8412 F300.00
G1 X29.5450 Y36.8887 F300.00
G1 X29.7000 Y36.9040 F300.00
G1 X29.8550 Y36.8887 F300.00
G1 X29.9984 Y36.8457 F300.00
G1 X30.1361 Y36.7733 F300.00
G1 X30.2614 Y36.6714 F300.00
G1 X30.3568 Y36.5559 F300.00
G1 X30.4312 Y36.4192 F300.00
G1 X30.4787 Y36.2650 F300.00
G1 X30.4940 Y36.1100 F300.00
G1 X30.4787 Y35.9550 F300.00
G1 X30.4357 Y35.8116 F300.00
G1 X30.3633 Y35.6739 F300.00
G1 X30.2614 Y35.5486 F300.00
G1 X30.1459 Y35.4532 F300.00
G1 X30.0092 Y35.3788 F300.00
G1 X29.8550 Y35.3313 F300.00
G1 X29.7000 Y35.3160 F300.00
G1 X29.5450 Y35.3313 F300.00
G1 X29.4016 Y35.3743 F300.00
G1 X29.2639 Y35.4467 F300.00
G1 X29.1386 Y35.5486 F300.00
G1 X29.0432 Y35.6641 F300.00
G1 X28.9688 Y35.8008 F300.00
G1 X28.9225 Y35.9494 F300.00
M5
G0 X28.9374 Y35.9016
G1 F60.00
M03 S255.0
G1 F300.00
G1 X28.9225 Y35.9494 F300.00
G1 X28.9225 Y35.9494 F300.00
M5
G0 X28.8546 Y35.9323
G1 F60.00
M03 S255.0
G1 F300.00
G1 X28.8360 Y36.1100 F300.00
G1 X28.8526 Y36.2788 F300.00
G1 X28.8984 Y36.4319 F300.00
G1 X28.9766 Y36.5821 F300.00
G1 X29.0891 Y36.7209 F300.00
G1 X29.2124 Y36.8230 F300.00
G1 X29.3608 Y36.9045 F300.00
G1 X29.5312 Y36.9574 F300.00
G1 X29.7000 Y36.9740 F300.00
G1 X29.8688 Y36.9574 F300.00
G1 X30.0219 Y36.9116 F300.00
G1 X30.1721 Y36.8334 F300.00
G1 X30.3109 Y36.7209 F300.00
G1 X30.4130 Y36.5976 F300.00
G1 X30.4945 Y36.4492 F300.00
G1 X30.5474 Y36.2788 F300.00
G1 X30.5640 Y36.1100 F300.00
G1 X30.5474 Y35.9412 F300.00
G1 X30.5016 Y35.7881 F300.00
G1 X30.4234 Y35.6379 F300.00
G1 X30.3109 Y35.4991 F300.00
G1 X30.1876 Y35.3970 F300.00
G1 X30.0392 Y35.3155 F300.00
G1 X29.8688 Y35.2626 F300.00
G1 X29.7000 Y35.2460 F300.00
G1 X29.5312 Y35.2626 F300.00
G1 X29.3781 Y35.3084 F300.00
G1 X29.2279 Y35.3866 F300.00
G1 X29.0891 Y35.4991 F300.00
G1 X28.9870 Y35.6224 F300.00
G1 X28.9055 Y35.7708 F300.00
G1 X28.8546 Y35.9323 F300.00
M5
G0 X28.8697 Y35.8847
G1 F60.00
M03 S255.0
G1 F300.00
G1 X28.8546 Y35.9323 F300.00
G1 X28.8546 Y35.9323 F300.00
M5
G0 X26.4665 Y35.9022
G1 F60.00
M03 S255.0
G1 F300.00
G1 X26.4396 Y36.0384 F300.00
G1 X26.4393 Y36.1785 F300.00
G1 X26.4665 Y36.3178 F300.00
G1 X26.4921 Y36.3893 F300.00
G1 X26.5594 Y36.5142 F300.00
G1 X26.6481 Y36.6219 F300.00
G1 X26.7558 Y36.7106 F300.00
G1 X26.8599 Y36.7680 F300.00
G1 X26.8599 Y37.6625 F300.00
G1 X26.8732 Y37.7484 F300.00
G1 X26.9096 Y37.8255 F300.00
G1 X26.9478 Y37.8722 F300.00
G1 X28.8999 Y39.8243 F300.00
G1 X28.8999 Y39.8600 F300.00
G1 X28.3475 Y39.8601 F300.00
G1 X28.3200 Y39.8700 F300.00
G1 X28.3026 Y39.8942 F300.00
G1 X28.3000 Y41.6100 F300.00
G1 X28.3076 Y41.6365 F300.00
G1 X28.3241 Y41.6527 F300.00
G1 X28.3500 Y41.6600 F300.00
G1 X30.0500 Y41.6600 F300.00
G1 X30.0765 Y41.6524 F300.00
G1 X30.0927 Y41.6359 F300.00
G1 X30.1000 Y41.6100 F300.00
G1 X30.1000 Y39.9100 F300.00
G1 X30.0924 Y39.8835 F300.00
G1 X30.0759 Y39.8673 F300.00
G1 X30.0525 Y39.8601 F300.00
G1 X29.5001 Y39.8600 F300.00
G1 X29.4941 Y39.6404 F300.00
G1 X29.4658 Y39.5607 F300.00
G1 X29.4304 Y39.5077 F300.00
G1 X27.4601 Y37.5357 F300.00
G1 X27.4601 Y36.7680 F300.00
G1 X27.5602 Y36.7133 F300.00
G1 X27.6201 Y36.6690 F300.00
G1 X27.7181 Y36.5712 F300.00
G1 X27.7633 Y36.5102 F300.00
G1 X27.8279 Y36.3893 F300.00
G1 X27.8524 Y36.3215 F300.00
G1 X27.8705 Y36.2488 F300.00
G1 X27.8840 Y36.1100 F300.00
G1 X27.8705 Y35.9712 F300.00
G1 X27.8524 Y35.8985 F300.00
G1 X27.8279 Y35.8307 F300.00
G1 X27.7633 Y35.7098 F300.00
G1 X27.7181 Y35.6488 F300.00
G1 X27.6201 Y35.5510 F300.00
G1 X27.5602 Y35.5067 F300.00
G1 X27.4601 Y35.4520 F300.00
G1 X27.4601 Y34.3893 F300.00
G1 X27.5619 Y34.2875 F300.00
G1 X28.1549 Y34.2873 F300.00
G1 X28.2641 Y34.2649 F300.00
G1 X28.3652 Y34.1963 F300.00
G1 X28.4274 Y34.1016 F300.00
G1 X28.4498 Y33.9924 F300.00
G1 X28.4500 Y33.4625 F300.00
G1 X28.4274 Y33.3484 F300.00
G1 X28.3546 Y33.2441 F300.00
G1 X28.2641 Y33.1851 F300.00
G1 X28.1549 Y33.1627 F300.00
G1 X27.2500 Y33.1625 F300.00
G1 X27.1359 Y33.1851 F300.00
G1 X27.0316 Y33.2579 F300.00
G1 X26.9726 Y33.3484 F300.00
G1 X26.9502 Y33.4576 F300.00
G1 X26.9500 Y33.9875 F300.00
G1 X26.9596 Y34.0409 F300.00
G1 X26.8947 Y34.1247 F300.00
G1 X26.8732 Y34.1766 F300.00
G1 X26.8613 Y34.2355 F300.00
G1 X26.8599 Y35.4520 F300.00
G1 X26.7598 Y35.5067 F300.00
G1 X26.7026 Y35.5488 F300.00
G1 X26.6010 Y35.6499 F300.00
G1 X26.5219 Y35.7680 F300.00
G1 X26.4665 Y35.9022 F300.00
M5
G0 X26.4856 Y35.8560
G1 F60.00
M03 S255.0
G1 F300.00
G1 X26.4665 Y35.9022 F300.00
G1 X26.4665 Y35.9022 F300.00
M5
G0 X26.3986 Y35.8852
G1 F60.00
M03 S255.0
G1 F300.00
G1 X26.3700 Y36.0307 F300.00
G1 X26.3694 Y36.1820 F300.00
G1 X26.3986 Y36.3348 F300.00
G1 X26.4288 Y36.4192 F300.00
G1 X26.4967 Y36.5461 F300.00
G1 X26.5945 Y36.6672 F300.00
G1 X26.6609 Y36.7274 F300.00
G1 X26.7899 Y36.8123 F300.00
G1 X26.7912 Y37.6904 F300.00
G1 X26.8068 Y37.7706 F300.00
G1 X26.8491 Y37.8607 F300.00
G1 X26.8982 Y37.9217 F300.00
G1 X28.7666 Y39.7900 F300.00
G1 X28.3329 Y39.7912 F300.00
G1 X28.2989 Y39.8014 F300.00
G1 X28.2689 Y39.8215 F300.00
G1 X28.2474 Y39.8477 F300.00
G1 X28.2336 Y39.8809 F300.00
G1 X28.2300 Y41.6100 F300.00
G1 X28.2482 Y41.6736 F300.00
G1 X28.2877 Y41.7126 F300.00
G1 X28.3500 Y41.7300 F300.00
G1 X30.0500 Y41.7300 F300.00
G1 X30.1136 Y41.7118 F300.00
G1 X30.1526 Y41.6723 F300.00
G1 X30.1700 Y41.6100 F300.00
G1 X30.1700 Y39.9100 F300.00
G1 X30.1526 Y39.8477 F300.00
G1 X30.1136 Y39.8082 F300.00
G1 X30.0619 Y39.7906 F300.00
G1 X29.5701 Y39.7900 F300.00
G1 X29.5683 Y39.6635 F300.00
G1 X29.5558 Y39.5982 F300.00
G1 X29.5279 Y39.5284 F300.00
G1 X29.4823 Y39.4607 F300.00
G1 X27.5301 Y37.5067 F300.00
G1 X27.5301 Y36.8123 F300.00
G1 X27.6059 Y36.7668 F300.00
G1 X27.7172 Y36.6755 F300.00
G1 X27.8233 Y36.5461 F300.00
G1 X27.8912 Y36.4192 F300.00
G1 X27.9188 Y36.3436 F300.00
G1 X27.9398 Y36.2591 F300.00
G1 X27.9540 Y36.1100 F300.00
G1 X27.9398 Y35.9609 F300.00
G1 X27.9188 Y35.8764 F300.00
G1 X27.8912 Y35.8008 F300.00
G1 X27.8233 Y35.6739 F300.00
G1 X27.7172 Y35.5445 F300.00
G1 X27.6059 Y35.4532 F300.00
G1 X27.5301 Y35.4077 F300.00
G1 X27.5301 Y34.4183 F300.00
G1 X27.5909 Y34.3575 F300.00
G1 X28.1500 Y34.3575 F300.00
G1 X28.2691 Y34.3362 F300.00
G1 X28.3093 Y34.3202 F300.00
G1 X28.3934 Y34.2641 F300.00
G1 X28.4266 Y34.2309 F300.00
G1 X28.4925 Y34.1274 F300.00
G1 X28.5194 Y33.9993 F300.00
G1 X28.5200 Y33.4625 F300.00
G1 X28.4881 Y33.3127 F300.00
G1 X28.4266 Y33.2191 F300.00
G1 X28.3934 Y33.1859 F300.00
G1 X28.2899 Y33.1200 F300.00
G1 X28.1618 Y33.0931 F300.00
G1 X27.2500 Y33.0925 F300.00
G1 X27.1002 Y33.1244 F300.00
G1 X27.0066 Y33.1859 F300.00
G1 X26.9734 Y33.2191 F300.00
G1 X26.9075 Y33.3226 F300.00
G1 X26.8806 Y33.4507 F300.00
G1 X26.8839 Y34.0189 F300.00
G1 X26.8503 Y34.0624 F300.00
G1 X26.8193 Y34.1205 F300.00
G1 X26.7917 Y34.2285 F300.00
G1 X26.7899 Y35.4077 F300.00
G1 X26.6543 Y35.4979 F300.00
G1 X26.5479 Y35.6043 F300.00
G1 X26.4607 Y35.7340 F300.00
G1 X26.3986 Y35.8852 F300.00
M5
G0 X26.4176 Y35.8389
G1 F60.00
M03 S255.0
G1 F300.00
G1 X26.3986 Y35.8852 F300.00
G1 X26.3986 Y35.8852 F300.00
M5
G0 X26.3307 Y35.8682
G1 F60.00
M03 S255.0
G1 F300.00
G1 X26.3004 Y36.0230 F300.00
G1 X26.2995 Y36.1854 F300.00
G1 X26.3146 Y36.2877 F300.00
G1 X26.3584 Y36.4319 F300.00
G1 X26.4026 Y36.5254 F300.00
G1 X26.4947 Y36.6612 F300.00
G1 X26.6088 Y36.7753 F300.00
G1 X26.7199 Y36.8526 F300.00
G1 X26.7213 Y37.6938 F300.00
G1 X26.7404 Y37.7927 F300.00
G1 X26.7764 Y37.8756 F300.00
G1 X26.8487 Y37.9711 F300.00
G1 X28.5976 Y39.7200 F300.00
G1 X28.3403 Y39.7202 F300.00
G1 X28.2899 Y39.7298 F300.00
G1 X28.2493 Y39.7489 F300.00
G1 X28.2099 Y39.7816 F300.00
G1 X28.1781 Y39.8291 F300.00
G1 X28.1645 Y39.8688 F300.00
G1 X28.1600 Y41.6100 F300.00
G1 X28.1657 Y41.6561 F300.00
G1 X28.1889 Y41.7107 F300.00
G1 X28.2157 Y41.7444 F300.00
G1 X28.2514 Y41.7724 F300.00
G1 X28.2899 Y41.7902 F300.00
G1 X28.3403 Y41.7998 F300.00
G1 X30.0500 Y41.8000 F300.00
G1 X30.0961 Y41.7943 F300.00
G1 X30.1507 Y41.7711 F300.00
G1 X30.1843 Y41.7444 F300.00
G1 X30.2124 Y41.7086 F300.00
G1 X30.2302 Y41.6701 F300.00
G1 X30.2398 Y41.6197 F300.00
G1 X30.2400 Y39.9100 F300.00
G1 X30.2343 Y39.8639 F300.00
G1 X30.2124 Y39.8114 F300.00
G1 X30.1843 Y39.7756 F300.00
G1 X30.1507 Y39.7489 F300.00
G1 X30.0771 Y39.7219 F300.00
G1 X29.6401 Y39.7200 F300.00
G1 X29.6333 Y39.6233 F300.00
G1 X29.6100 Y39.5403 F300.00
G1 X29.5691 Y39.4603 F300.00
G1 X29.5176 Y39.3955 F300.00
G1 X27.6001 Y37.4777 F300.00
G1 X27.6001 Y36.8526 F300.00
G1 X27.7008 Y36.7836 F300.00
G1 X27.7709 Y36.7209 F300.00
G1 X27.8336 Y36.6508 F300.00
G1 X27.9205 Y36.5200 F300.00
G1 X27.9893 Y36.3518 F300.00
G1 X28.0187 Y36.2039 F300.00
G1 X28.0240 Y36.1100 F300.00
G1 X28.0187 Y36.0161 F300.00
G1 X27.9893 Y35.8682 F300.00
G1 X27.9205 Y35.7000 F300.00
G1 X27.8336 Y35.5692 F300.00
G1 X27.7709 Y35.4991 F300.00
G1 X27.7008 Y35.4364 F300.00
G1 X27.6001 Y35.3674 F300.00
G1 X27.6001 Y34.4473 F300.00
G1 X27.6199 Y34.4275 F300.00
G1 X28.1500 Y34.4275 F300.00
G1 X28.2994 Y34.4007 F300.00
G1 X28.3464 Y34.3796 F300.00
G1 X28.4485 Y34.3102 F300.00
G1 X28.5389 Y34.1887 F300.00
G1 X28.5632 Y34.1369 F300.00
G1 X28.5891 Y34.0061 F300.00
G1 X28.5891 Y33.4438 F300.00
G1 X28.5673 Y33.3298 F300.00
G1 X28.5505 Y33.2811 F300.00
G1 X28.4848 Y33.1802 F300.00
G1 X28.4485 Y33.1398 F300.00
G1 X28.3157 Y33.0549 F300.00
G1 X28.1686 Y33.0234 F300.00
G1 X27.2500 Y33.0225 F300.00
G1 X27.0843 Y33.0549 F300.00
G1 X26.9677 Y33.1277 F300.00
G1 X26.9273 Y33.1640 F300.00
G1 X26.8424 Y33.2968 F300.00
G1 X26.8137 Y33.4254 F300.00
G1 X26.8105 Y33.9979 F300.00
G1 X26.7500 Y34.1053 F300.00
G1 X26.7220 Y34.2216 F300.00
G1 X26.7199 Y35.3674 F300.00
G1 X26.6088 Y35.4447 F300.00
G1 X26.4864 Y35.5692 F300.00
G1 X26.3995 Y35.7000 F300.00
G1 X26.3307 Y35.8682 F300.00
M5
G0 X26.3496 Y35.8219
G1 F60.00
M03 S255.0
G1 F300.00
G1 X26.3307 Y35.8682 F300.00
G1 X26.3307 Y35.8682 F300.00
M5
G0 X18.8304 Y35.9664
G1 F60.00
M03 S255.0
G1 F300.00
G1 X18.8193 Y36.0415 F300.00
G1 X18.8196 Y36.1816 F300.00
G1 X18.8304 Y36.2536 F300.00
G1 X18.8702 Y36.3848 F300.00
G1 X18.9027 Y36.4534 F300.00
G1 X18.9788 Y36.5674 F300.00
G1 X19.0298 Y36.6236 F300.00
G1 X19.1199 Y36.6988 F300.00
G1 X19.1199 Y40.0526 F300.00
G1 X18.9936 Y40.1075 F300.00
G1 X18.8508 Y40.2029 F300.00
G1 X18.7819 Y40.2654 F300.00
G1 X18.6709 Y40.4013 F300.00
G1 X18.5890 Y40.5544 F300.00
G1 X18.5378 Y40.7220 F300.00
G1 X18.5242 Y40.8142 F300.00
G1 X18.5244 Y40.9888 F300.00
G1 X18.5592 Y41.1626 F300.00
G1 X18.6256 Y41.3230 F300.00
G1 X18.7229 Y41.4692 F300.00
G1 X18.8508 Y41.5971 F300.00
G1 X18.9970 Y41.6944 F300.00
G1 X19.1574 Y41.7608 F300.00
G1 X19.3312 Y41.7956 F300.00
G1 X19.5088 Y41.7956 F300.00
G1 X19.6826 Y41.7608 F300.00
G1 X19.8421 Y41.6948 F300.00
G1 X19.9220 Y41.6469 F300.00
G1 X20.0564 Y41.5364 F300.00
G1 X20.1669 Y41.4020 F300.00
G1 X20.2148 Y41.3221 F300.00
G1 X20.2808 Y41.1626 F300.00
G1 X20.3154 Y40.9907 F300.00
G1 X20.3158 Y40.8142 F300.00
G1 X20.3022 Y40.7220 F300.00
G1 X20.2510 Y40.5544 F300.00
G1 X20.1691 Y40.4013 F300.00
G1 X20.0581 Y40.2654 F300.00
G1 X19.9892 Y40.2029 F300.00
G1 X19.8464 Y40.1075 F300.00
G1 X19.7201 Y40.0526 F300.00
G1 X19.7201 Y36.8104 F300.00
G1 X19.8193 Y36.7779 F300.00
G1 X19.9442 Y36.7106 F300.00
G1 X20.0519 Y36.6219 F300.00
G1 X20.1406 Y36.5142 F300.00
G1 X20.2079 Y36.3893 F300.00
G1 X20.2335 Y36.3178 F300.00
G1 X20.2604 Y36.1816 F300.00
G1 X20.2604 Y36.0384 F300.00
G1 X20.2324 Y35.8985 F300.00
G1 X20.1796 Y35.7709 F300.00
G1 X20.1406 Y35.7058 F300.00
G1 X20.0519 Y35.5981 F300.00
G1 X19.9442 Y35.5094 F300.00
G1 X19.8193 Y35.4421 F300.00
G1 X19.7478 Y35.4165 F300.00
G1 X19.6085 Y35.3893 F300.00
G1 X19.4684 Y35.3896 F300.00
G1 X19.3285 Y35.4176 F300.00
G1 X19.1980 Y35.4719 F300.00
G1 X19.0826 Y35.5488 F300.00
G1 X18.9819 Y35.6488 F300.00
G1 X18.9367 Y35.7098 F300.00
G1 X18.8721 Y35.8307 F300.00
G1 X18.8304 Y35.9664 F300.00
M5
G0 X18.8451 Y35.9186
G1 F60.00
M03 S255.0
G1 F300.00
G1 X18.8304 Y35.9664 F300.00
G1 X18.8304 Y35.9664 F300.00
M5
G0 X18.7625 Y35.9494
G1 F60.00
M03 S255.0
G1 F300.00
G1 X18.7494 Y36.0380 F300.00
G1 X18.7500 Y36.1893 F300.00
G1 X18.7625 Y36.2706 F300.00
G1 X18.8043 Y36.4084 F300.00
G1 X18.8427 Y36.4894 F300.00
G1 X18.9226 Y36.6091 F300.00
G1 X18.9786 Y36.6714 F300.00
G1 X19.0499 Y36.7340 F300.00
G1 X19.0499 Y40.0035 F300.00
G1 X18.8861 Y40.0903 F300.00
G1 X18.8002 Y40.1540 F300.00
G1 X18.6669 Y40.2888 F300.00
G1 X18.5674 Y40.4376 F300.00
G1 X18.5217 Y40.5343 F300.00
G1 X18.4692 Y40.7081 F300.00
G1 X18.4542 Y40.8108 F300.00
G1 X18.4548 Y40.9966 F300.00
G1 X18.4928 Y41.1847 F300.00
G1 X18.5630 Y41.3544 F300.00
G1 X18.6669 Y41.5112 F300.00
G1 X18.7341 Y41.5859 F300.00
G1 X18.8088 Y41.6531 F300.00
G1 X18.9656 Y41.7570 F300.00
G1 X19.1353 Y41.8272 F300.00
G1 X19.3234 Y41.8652 F300.00
G1 X19.5166 Y41.8652 F300.00
G1 X19.7047 Y41.8272 F300.00
G1 X19.8720 Y41.7581 F300.00
G1 X19.9637 Y41.7031 F300.00
G1 X20.1059 Y41.5859 F300.00
G1 X20.2231 Y41.4437 F300.00
G1 X20.2781 Y41.3520 F300.00
G1 X20.3472 Y41.1847 F300.00
G1 X20.3846 Y41.0009 F300.00
G1 X20.3899 Y40.8941 F300.00
G1 X20.3708 Y40.7081 F300.00
G1 X20.3183 Y40.5343 F300.00
G1 X20.2726 Y40.4376 F300.00
G1 X20.1731 Y40.2888 F300.00
G1 X20.0398 Y40.1540 F300.00
G1 X19.9539 Y40.0903 F300.00
G1 X19.7901 Y40.0035 F300.00
G1 X19.7901 Y36.8629 F300.00
G1 X19.9160 Y36.8093 F300.00
G1 X20.0391 Y36.7274 F300.00
G1 X20.1499 Y36.6182 F300.00
G1 X20.2033 Y36.5461 F300.00
G1 X20.2712 Y36.4192 F300.00
G1 X20.3175 Y36.2706 F300.00
G1 X20.3306 Y36.1820 F300.00
G1 X20.3300 Y36.0307 F300.00
G1 X20.2988 Y35.8764 F300.00
G1 X20.2429 Y35.7410 F300.00
G1 X20.1968 Y35.6641 F300.00
G1 X20.1014 Y35.5486 F300.00
G1 X19.9859 Y35.4532 F300.00
G1 X19.8492 Y35.3788 F300.00
G1 X19.7648 Y35.3486 F300.00
G1 X19.6120 Y35.3194 F300.00
G1 X19.4607 Y35.3200 F300.00
G1 X19.3064 Y35.3512 F300.00
G1 X19.1640 Y35.4107 F300.00
G1 X19.0409 Y35.4926 F300.00
G1 X18.9301 Y35.6018 F300.00
G1 X18.8767 Y35.6739 F300.00
G1 X18.8088 Y35.8008 F300.00
G1 X18.7625 Y35.9494 F300.00
M5
G0 X18.7774 Y35.9016
G1 F60.00
M03 S255.0
G1 F300.00
G1 X18.7625 Y35.9494 F300.00
G1 X18.7625 Y35.9494 F300.00
M5
G0 X18.6946 Y35.9323
G1 F60.00
M03 S255.0
G1 F300.00
G1 X18.6804 Y36.0230 F300.00
G1 X18.6762 Y36.1193 F300.00
G1 X18.6910 Y36.2694 F300.00
G1 X18.7148 Y36.3657 F300.00
G1 X18.7455 Y36.4492 F300.00
G1 X18.8166 Y36.5821 F300.00
G1 X18.8782 Y36.6652 F300.00
G1 X18.9799 Y36.7673 F300.00
G1 X18.9799 Y39.9588 F300.00
G1 X18.8346 Y40.0406 F300.00
G1 X18.6914 Y40.1582 F300.00
G1 X18.6109 Y40.2468 F300.00
G1 X18.5074 Y40.4016 F300.00
G1 X18.4558 Y40.5107 F300.00
G1 X18.4009 Y40.6930 F300.00
G1 X18.3802 Y40.8907 F300.00
G1 X18.3861 Y41.0112 F300.00
G1 X18.4264 Y41.2068 F300.00
G1 X18.5004 Y41.3857 F300.00
G1 X18.6109 Y41.5532 F300.00
G1 X18.6846 Y41.6354 F300.00
G1 X18.7668 Y41.7091 F300.00
G1 X18.9343 Y41.8196 F300.00
G1 X19.1132 Y41.8936 F300.00
G1 X19.2130 Y41.9191 F300.00
G1 X19.3157 Y41.9347 F300.00
G1 X19.4200 Y41.9400 F300.00
G1 X19.5312 Y41.9339 F300.00
G1 X19.7268 Y41.8936 F300.00
G1 X19.9019 Y41.8214 F300.00
G1 X20.0054 Y41.7594 F300.00
G1 X20.1554 Y41.6354 F300.00
G1 X20.2794 Y41.4854 F300.00
G1 X20.3414 Y41.3819 F300.00
G1 X20.4136 Y41.2068 F300.00
G1 X20.4539 Y41.0112 F300.00
G1 X20.4598 Y40.8907 F300.00
G1 X20.4391 Y40.6930 F300.00
G1 X20.3842 Y40.5107 F300.00
G1 X20.3326 Y40.4016 F300.00
G1 X20.2291 Y40.2468 F300.00
G1 X20.1486 Y40.1582 F300.00
G1 X20.0054 Y40.0406 F300.00
G1 X19.8602 Y39.9589 F300.00
G1 X19.8614 Y36.9118 F300.00
G1 X19.9554 Y36.8674 F300.00
G1 X20.0912 Y36.7753 F300.00
G1 X20.2018 Y36.6652 F300.00
G1 X20.2634 Y36.5821 F300.00
G1 X20.3345 Y36.4492 F300.00
G1 X20.3854 Y36.2877 F300.00
G1 X20.4005 Y36.1854 F300.00
G1 X20.3987 Y36.0161 F300.00
G1 X20.3652 Y35.8543 F300.00
G1 X20.3062 Y35.7110 F300.00
G1 X20.2530 Y35.6224 F300.00
G1 X20.1509 Y35.4991 F300.00
G1 X20.0276 Y35.3970 F300.00
G1 X19.8792 Y35.3155 F300.00
G1 X19.7818 Y35.2807 F300.00
G1 X19.6154 Y35.2495 F300.00
G1 X19.4530 Y35.2504 F300.00
G1 X19.2843 Y35.2848 F300.00
G1 X19.1300 Y35.3495 F300.00
G1 X18.9992 Y35.4364 F300.00
G1 X18.8782 Y35.5548 F300.00
G1 X18.8166 Y35.6379 F300.00
G1 X18.7455 Y35.7708 F300.00
G1 X18.6946 Y35.9323 F300.00
M5
G0 X18.7097 Y35.8847
G1 F60.00
M03 S255.0
G1 F300.00
G1 X18.6946 Y35.9323 F300.00
G1 X18.6946 Y35.9323 F300.00
M5
G0 X16.2904 Y35.9664
G1 F60.00
M03 S255.0
G1 F300.00
G1 X16.2793 Y36.0415 F300.00
G1 X16.2796 Y36.1816 F300.00
G1 X16.2904 Y36.2536 F300.00
G1 X16.3302 Y36.3848 F300.00
G1 X16.3627 Y36.4534 F300.00
G1 X16.4388 Y36.5674 F300.00
G1 X16.4898 Y36.6236 F300.00
G1 X16.5799 Y36.6988 F300.00
G1 X16.5799 Y40.0526 F300.00
G1 X16.4536 Y40.1075 F300.00
G1 X16.3108 Y40.2029 F300.00
G1 X16.2419 Y40.2654 F300.00
G1 X16.1309 Y40.4013 F300.00
G1 X16.0490 Y40.5544 F300.00
G1 X15.9978 Y40.7220 F300.00
G1 X15.9842 Y40.8142 F300.00
G1 X15.9844 Y40.9888 F300.00
G1 X16.0192 Y41.1626 F300.00
G1 X16.0856 Y41.3230 F300.00
G1 X16.1829 Y41.4692 F300.00
G1 X16.3108 Y41.5971 F300.00
G1 X16.4570 Y41.6944 F300.00
G1 X16.6174 Y41.7608 F300.00
G1 X16.7912 Y41.7956 F300.00
G1 X16.9688 Y41.7956 F300.00
G1 X17.1426 Y41.7608 F300.00
G1 X17.3021 Y41.6948 F300.00
G1 X17.3820 Y41.6469 F300.00
G1 X17.5164 Y41.5364 F300.00
G1 X17.6269 Y41.4020 F300.00
G1 X17.6748 Y41.3221 F300.00
G1 X17.7408 Y41.1626 F300.00
G1 X17.7754 Y40.9907 F300.00
G1 X17.7758 Y40.8142 F300.00
G1 X17.7622 Y40.7220 F300.00
G1 X17.7110 Y40.5544 F300.00
G1 X17.6291 Y40.4013 F300.00
G1 X17.5181 Y40.2654 F300.00
G1 X17.4492 Y40.2029 F300.00
G1 X17.3064 Y40.1075 F300.00
G1 X17.1801 Y40.0526 F300.00
G1 X17.1801 Y36.8104 F300.00
G1 X17.2793 Y36.7779 F300.00
G1 X17.4042 Y36.7106 F300.00
G1 X17.5119 Y36.6219 F300.00
G1 X17.6006 Y36.5142 F300.00
G1 X17.6679 Y36.3893 F300.00
G1 X17.6935 Y36.3178 F300.00
G1 X17.7204 Y36.1816 F300.00
G1 X17.7204 Y36.0384 F300.00
G1 X17.6924 Y35.8985 F300.00
G1 X17.6396 Y35.7709 F300.00
G1 X17.6006 Y35.7058 F300.00
G1 X17.5119 Y35.5981 F300.00
G1 X17.4042 Y35.5094 F300.00
G1 X17.2793 Y35.4421 F300.00
G1 X17.2078 Y35.4165 F300.00
G1 X17.0685 Y35.3893 F300.00
G1 X16.9284 Y35.3896 F300.00
G1 X16.7885 Y35.4176 F300.00
G1 X16.6580 Y35.4719 F300.00
G1 X16.5426 Y35.5488 F300.00
G1 X16.4419 Y35.6488 F300.00
G1 X16.3967 Y35.7098 F300.00
G1 X16.3321 Y35.8307 F300.00
G1 X16.2904 Y35.9664 F300.00
M5
G0 X16.3051 Y35.9186
G1 F60.00
M03 S255.0
G1 F300.00
G1 X16.2904 Y35.9664 F300.00
G1 X16.2904 Y35.9664 F300.00
M5
G0 X16.2225 Y35.9494
G1 F60.00
M03 S255.0
G1 F300.00
G1 X16.2094 Y36.0380 F300.00
G1 X16.2100 Y36.1893 F300.00
G1 X16.2225 Y36.2706 F300.00
G1 X16.2643 Y36.4084 F300.00
G1 X16.3027 Y36.4894 F300.00
G1 X16.3826 Y36.6091 F300.00
G1 X16.4386 Y36.6714 F300.00
G1 X16.5099 Y36.7340 F300.00
G1 X16.5099 Y40.0035 F300.00
G1 X16.3461 Y40.0903 F300.00
G1 X16.2602 Y40.1540 F300.00
G1 X16.1269 Y40.2888 F300.00
G1 X16.0274 Y40.4376 F300.00
G1 X15.9817 Y40.5343 F300.00
G1 X15.9292 Y40.7081 F300.00
G1 X15.9142 Y40.8108 F300.00
G1 X15.9148 Y40.9966 F300.00
G1 X15.9528 Y41.1847 F300.00
G1 X16.0230 Y41.3544 F300.00
G1 X16.1269 Y41.5112 F300.00
G1 X16.1941 Y41.5859 F300.00
G1 X16.2688 Y41.6531 F300.00
G1 X16.4256 Y41.7570 F300.00
G1 X16.5953 Y41.8272 F300.00
G1 X16.7834 Y41.8652 F300.00
G1 X16.9766 Y41.8652 F300.00
G1 X17.1647 Y41.8272 F300.00
G1 X17.3320 Y41.7581 F300.00
G1 X17.4237 Y41.7031 F300.00
G1 X17.5659 Y41.5859 F300.00
G1 X17.6831 Y41.4437 F300.00
G1 X17.7381 Y41.3520 F300.00
G1 X17.8072 Y41.1847 F300.00
G1 X17.8446 Y41.0009 F300.00
G1 X17.8499 Y40.8941 F300.00
G1 X17.8308 Y40.7081 F300.00
G1 X17.7783 Y40.5343 F300.00
G1 X17.7326 Y40.4376 F300.00
G1 X17.6331 Y40.2888 F300.00
G1 X17.4998 Y40.1540 F300.00
G1 X17.4139 Y40.0903 F300.00
G1 X17.2501 Y40.0035 F300.00
G1 X17.2501 Y36.8629 F300.00
G1 X17.3760 Y36.8093 F300.00
G1 X17.4991 Y36.7274 F300.00
G1 X17.6099 Y36.6182 F300.00
G1 X17.6633 Y36.5461 F300.00
G1 X17.7312 Y36.4192 F300.00
G1 X17.7775 Y36.2706 F300.00
G1 X17.7906 Y36.1820 F300.00
G1 X17.7900 Y36.0307 F300.00
G1 X17.7588 Y35.8764 F300.00
G1 X17.7029 Y35.7410 F300.00
G1 X17.6568 Y35.6641 F300.00
G1 X17.5614 Y35.5486 F300.00
G1 X17.4459 Y35.4532 F300.00
G1 X17.3092 Y35.3788 F300.00
G1 X17.2248 Y35.3486 F300.00
G1 X17.0720 Y35.3194 F300.00
G1 X16.9207 Y35.3200 F300.00
G1 X16.7664 Y35.3512 F300.00
G1 X16.6240 Y35.4107 F300.00
G1 X16.5009 Y35.4926 F300.00
G1 X16.3901 Y35.6018 F300.00
G1 X16.3367 Y35.6739 F300.00
G1 X16.2688 Y35.8008 F300.00
G1 X16.2225 Y35.9494 F300.00
M5
G0 X16.2374 Y35.9016
G1 F60.00
M03 S255.0
G1 F300.00
G1 X16.2225 Y35.9494 F300.00
G1 X16.2225 Y35.9494 F300.00
M5
G0 X16.1546 Y35.9323
G1 F60.00
M03 S255.0
G1 F300.00
G1 X16.1404 Y36.0230 F300.00
G1 X16.1362 Y36.1193 F300.00
G1 X16.1510 Y36.2694 F300.00
G1 X16.1748 Y36.3657 F300.00
G1 X16.2055 Y36.4492 F300.00
G1 X16.2766 Y36.5821 F300.00
G1 X16.3382 Y36.6652 F300.00
G1 X16.4399 Y36.7673 F300.00
G1 X16.4399 Y39.9588 F300.00
G1 X16.2946 Y40.0406 F300.00
G1 X16.1514 Y40.1582 F300.00
G1 X16.0709 Y40.2468 F300.00
G1 X15.9674 Y40.4016 F300.00
G1 X15.9158 Y40.5107 F300.00
G1 X15.8609 Y40.6930 F300.00
G1 X15.8402 Y40.8907 F300.00
G1 X15.8461 Y41.0112 F300.00
G1 X15.8864 Y41.2068 F300.00
G1 X15.9604 Y41.3857 F300.00
G1 X16.0709 Y41.5532 F300.00
G1 X16.1446 Y41.6354 F300.00
