(G-code generated by FlatCAM Evo vUnstable - Version Date: 2023/6/31)

(Name: CNC_Coolant_Pump_Control-F_Cu.gtl_iso_combined_cnc)
(Type: G-code from Geometry)
(Units: MM)

(Created on Tuesday, 17 February 2026 at 21:23)

(This preprocessor is used with a motion controller loaded with GRBL firmware. )
(It is for the case when it is used together with a LASER connected on the SPINDLE connector.)
(This preprocessor makes no moves on the Z axis it will only move horizontally.)
(The horizontal move is done with G0 - highest possible speed set in the GRBL controller.)
(It assumes a manually focused laser.)
(The laser is started with M3 or M4 command and stopped with the M5 command.)

(Feedrate: 300.0 mm/min)
(Steps per circle: 16)
(Preprocessor Geometry: GRBL_laser)

(X range:    6.2600 ...   55.9900  mm)
(Y range:    5.6325 ...   45.0400  mm)

(Laser Power - Spindle Speed: 255.0)
(Laser Minimum Power: 0.0)

G21
G90
G17
G94

G1 F300.00
M5

M5
G1 F300.00
G0 X13.4714 Y8.0609
G1 F60.00
M03 S255.0
G1 F300.00
G1 X13.4088 Y8.0782 F300.00
G1 X13.3492 Y8.1224 F300.00
G1 X13.3145 Y8.1773 F300.00
G1 X13.3002 Y8.2407 F300.00
G1 X13.3001 Y9.9547 F300.00
G1 X13.3145 Y10.0227 F300.00
G1 X13.3492 Y10.0776 F300.00
G1 X13.4088 Y10.1218 F300.00
G1 X13.4900 Y10.1400 F300.00
G1 X15.1947 Y10.1399 F300.00
G1 X15.2627 Y10.1255 F300.00
G1 X15.3176 Y10.0908 F300.00
G1 X15.3618 Y10.0312 F300.00
G1 X15.3800 Y9.9500 F300.00
G1 X15.3799 Y8.2453 F300.00
G1 X15.3655 Y8.1773 F300.00
G1 X15.3308 Y8.1224 F300.00
G1 X15.2712 Y8.0782 F300.00
G1 X15.1947 Y8.0601 F300.00
G1 X13.4714 Y8.0609 F300.00
M5
G0 X13.5214 Y8.0609
G1 F60.00
M03 S255.0
G1 F300.00
G1 X13.4714 Y8.0609 F300.00
G1 X13.4714 Y8.0609 F300.00
M5
G0 X13.4782 Y8.1306
G1 F60.00
M03 S255.0
G1 F300.00
G1 X13.4387 Y8.1415 F300.00
G1 X13.4011 Y8.1694 F300.00
G1 X13.3791 Y8.2041 F300.00
G1 X13.3701 Y8.2441 F300.00
G1 X13.3700 Y9.9529 F300.00
G1 X13.3791 Y9.9959 F300.00
G1 X13.4011 Y10.0306 F300.00
G1 X13.4387 Y10.0585 F300.00
G1 X13.4900 Y10.0700 F300.00
G1 X15.1929 Y10.0700 F300.00
G1 X15.2359 Y10.0609 F300.00
G1 X15.2706 Y10.0389 F300.00
G1 X15.2985 Y10.0013 F300.00
G1 X15.3100 Y9.9500 F300.00
G1 X15.3100 Y8.2471 F300.00
G1 X15.3009 Y8.2041 F300.00
G1 X15.2789 Y8.1694 F300.00
G1 X15.2413 Y8.1415 F300.00
G1 X15.1929 Y8.1300 F300.00
G1 X13.4782 Y8.1306 F300.00
M5
G0 X13.5282 Y8.1306
G1 F60.00
M03 S255.0
G1 F300.00
G1 X13.4782 Y8.1306 F300.00
G1 X13.4387 Y8.1415 F300.00
G1 X13.4782 Y8.1306 F300.00
M5
G0 X13.4851 Y8.2002
G1 F60.00
M03 S255.0
G1 F300.00
G1 X13.4530 Y8.2164 F300.00
G1 X13.4400 Y8.2488 F300.00
G1 X13.4400 Y9.9500 F300.00
G1 X13.4546 Y9.9854 F300.00
G1 X13.4900 Y10.0000 F300.00
G1 X15.1900 Y10.0000 F300.00
G1 X15.2254 Y9.9854 F300.00
G1 X15.2400 Y9.9500 F300.00
G1 X15.2400 Y8.2500 F300.00
G1 X15.2254 Y8.2146 F300.00
G1 X15.1900 Y8.2000 F300.00
G1 X13.4851 Y8.2002 F300.00
M5
G0 X13.5351 Y8.2002
G1 F60.00
M03 S255.0
G1 F300.00
G1 X13.4851 Y8.2002 F300.00
G1 X13.4530 Y8.2164 F300.00
G1 X13.4851 Y8.2002 F300.00
M5
G0 X17.7631 Y8.9268
G1 F60.00
M03 S255.0
G1 F300.00
G1 X17.7115 Y8.7556 F300.00
G1 X17.6283 Y8.6000 F300.00
G1 X17.5164 Y8.4636 F300.00
G1 X17.3800 Y8.3517 F300.00
G1 X17.2244 Y8.2685 F300.00
G1 X17.0556 Y8.2173 F300.00
G1 X16.8800 Y8.2000 F300.00
G1 X16.7044 Y8.2173 F300.00
G1 X16.5356 Y8.2685 F300.00
G1 X16.3800 Y8.3517 F300.00
G1 X16.2436 Y8.4636 F300.00
G1 X16.1317 Y8.6000 F300.00
G1 X16.0485 Y8.7556 F300.00
G1 X15.9973 Y8.9244 F300.00
G1 X15.9800 Y9.1000 F300.00
G1 X15.9973 Y9.2756 F300.00
G1 X16.0485 Y9.4444 F300.00
G1 X16.1317 Y9.6000 F300.00
G1 X16.2436 Y9.7364 F300.00
G1 X16.3800 Y9.8483 F300.00
G1 X16.5356 Y9.9315 F300.00
G1 X16.7044 Y9.9827 F300.00
G1 X16.8800 Y10.0000 F300.00
G1 X17.0556 Y9.9827 F300.00
G1 X17.2244 Y9.9315 F300.00
G1 X17.3800 Y9.8483 F300.00
G1 X17.5164 Y9.7364 F300.00
G1 X17.6283 Y9.6000 F300.00
G1 X17.7115 Y9.4444 F300.00
G1 X17.7627 Y9.2756 F300.00
G1 X17.7800 Y9.1000 F300.00
G1 X17.7631 Y8.9268 F300.00
M5
G0 X17.7680 Y8.9766
G1 F60.00
M03 S255.0
G1 F300.00
G1 X17.7631 Y8.9268 F300.00
G1 X17.7631 Y8.9268 F300.00
M5
G0 X17.8324 Y8.9166
G1 F60.00
M03 S255.0
G1 F300.00
G1 X17.8082 Y8.8184 F300.00
G1 X17.7762 Y8.7288 F300.00
G1 X17.6865 Y8.5611 F300.00
G1 X17.5659 Y8.4141 F300.00
G1 X17.4189 Y8.2935 F300.00
G1 X17.2512 Y8.2038 F300.00
G1 X17.0692 Y8.1486 F300.00
G1 X16.8800 Y8.1300 F300.00
G1 X16.6908 Y8.1486 F300.00
G1 X16.5088 Y8.2038 F300.00
G1 X16.3411 Y8.2935 F300.00
G1 X16.1941 Y8.4141 F300.00
G1 X16.0735 Y8.5611 F300.00
G1 X15.9838 Y8.7288 F300.00
G1 X15.9286 Y8.9108 F300.00
G1 X15.9100 Y9.1000 F300.00
G1 X15.9286 Y9.2892 F300.00
G1 X15.9838 Y9.4712 F300.00
G1 X16.0735 Y9.6389 F300.00
G1 X16.1941 Y9.7859 F300.00
G1 X16.3411 Y9.9065 F300.00
G1 X16.5088 Y9.9962 F300.00
G1 X16.6908 Y10.0514 F300.00
G1 X16.8800 Y10.0700 F300.00
G1 X17.0692 Y10.0514 F300.00
G1 X17.2512 Y9.9962 F300.00
G1 X17.4189 Y9.9065 F300.00
G1 X17.5659 Y9.7859 F300.00
G1 X17.6865 Y9.6389 F300.00
G1 X17.7762 Y9.4712 F300.00
G1 X17.8314 Y9.2892 F300.00
G1 X17.8500 Y9.1000 F300.00
G1 X17.8324 Y8.9166 F300.00
M5
G0 X17.8372 Y8.9663
G1 F60.00
M03 S255.0
G1 F300.00
G1 X17.8324 Y8.9166 F300.00
G1 X17.8324 Y8.9166 F300.00
M5
G0 X17.9016 Y8.9063
G1 F60.00
M03 S255.0
G1 F300.00
G1 X17.8752 Y8.7981 F300.00
G1 X17.8408 Y8.7020 F300.00
G1 X17.7972 Y8.6097 F300.00
G1 X17.7447 Y8.5222 F300.00
G1 X17.6839 Y8.4402 F300.00
G1 X17.6154 Y8.3646 F300.00
G1 X17.5398 Y8.2961 F300.00
G1 X17.4578 Y8.2353 F300.00
G1 X17.3703 Y8.1828 F300.00
G1 X17.2780 Y8.1392 F300.00
G1 X17.1819 Y8.1048 F300.00
G1 X17.0829 Y8.0800 F300.00
G1 X16.9819 Y8.0650 F300.00
G1 X16.8800 Y8.0600 F300.00
G1 X16.7781 Y8.0650 F300.00
G1 X16.6771 Y8.0800 F300.00
G1 X16.5781 Y8.1048 F300.00
G1 X16.4820 Y8.1392 F300.00
G1 X16.3897 Y8.1828 F300.00
G1 X16.3022 Y8.2353 F300.00
G1 X16.2202 Y8.2961 F300.00
G1 X16.1446 Y8.3646 F300.00
G1 X16.0761 Y8.4402 F300.00
G1 X16.0153 Y8.5222 F300.00
G1 X15.9628 Y8.6097 F300.00
G1 X15.9192 Y8.7020 F300.00
G1 X15.8848 Y8.7981 F300.00
G1 X15.8600 Y8.8971 F300.00
G1 X15.8450 Y8.9981 F300.00
G1 X15.8400 Y9.1000 F300.00
G1 X15.8450 Y9.2019 F300.00
G1 X15.8600 Y9.3029 F300.00
G1 X15.8848 Y9.4019 F300.00
G1 X15.9192 Y9.4980 F300.00
G1 X15.9628 Y9.5903 F300.00
G1 X16.0153 Y9.6778 F300.00
G1 X16.0761 Y9.7598 F300.00
G1 X16.1446 Y9.8354 F300.00
G1 X16.2202 Y9.9039 F300.00
G1 X16.3022 Y9.9647 F300.00
G1 X16.3897 Y10.0172 F300.00
G1 X16.4820 Y10.0608 F300.00
G1 X16.5781 Y10.0952 F300.00
G1 X16.6771 Y10.1200 F300.00
G1 X16.7781 Y10.1350 F300.00
G1 X16.8800 Y10.1400 F300.00
G1 X16.9819 Y10.1350 F300.00
G1 X17.0829 Y10.1200 F300.00
G1 X17.1819 Y10.0952 F300.00
G1 X17.2780 Y10.0608 F300.00
G1 X17.3703 Y10.0172 F300.00
G1 X17.4578 Y9.9647 F300.00
G1 X17.5398 Y9.9039 F300.00
G1 X17.6154 Y9.8354 F300.00
G1 X17.6839 Y9.7598 F300.00
G1 X17.7447 Y9.6778 F300.00
G1 X17.7972 Y9.5903 F300.00
G1 X17.8408 Y9.4980 F300.00
G1 X17.8752 Y9.4019 F300.00
G1 X17.9000 Y9.3029 F300.00
G1 X17.9150 Y9.2019 F300.00
G1 X17.9200 Y9.1000 F300.00
G1 X17.9016 Y8.9063 F300.00
M5
G0 X17.9063 Y8.9561
G1 F60.00
M03 S255.0
G1 F300.00
G1 X17.9016 Y8.9063 F300.00
G1 X17.9016 Y8.9063 F300.00
M5
G0 X20.3031 Y8.9268
G1 F60.00
M03 S255.0
G1 F300.00
G1 X20.2515 Y8.7556 F300.00
G1 X20.1683 Y8.6000 F300.00
G1 X20.0564 Y8.4636 F300.00
G1 X19.9200 Y8.3517 F300.00
G1 X19.7644 Y8.2685 F300.00
G1 X19.5956 Y8.2173 F300.00
G1 X19.4200 Y8.2000 F300.00
G1 X19.2444 Y8.2173 F300.00
G1 X19.0756 Y8.2685 F300.00
G1 X18.9200 Y8.3517 F300.00
G1 X18.7836 Y8.4636 F300.00
G1 X18.6717 Y8.6000 F300.00
G1 X18.5885 Y8.7556 F300.00
G1 X18.5373 Y8.9244 F300.00
G1 X18.5200 Y9.1000 F300.00
G1 X18.5373 Y9.2756 F300.00
G1 X18.5885 Y9.4444 F300.00
G1 X18.6717 Y9.6000 F300.00
G1 X18.7836 Y9.7364 F300.00
G1 X18.9200 Y9.8483 F300.00
G1 X19.0756 Y9.9315 F300.00
G1 X19.2444 Y9.9827 F300.00
G1 X19.4200 Y10.0000 F300.00
G1 X19.5956 Y9.9827 F300.00
G1 X19.7644 Y9.9315 F300.00
G1 X19.9200 Y9.8483 F300.00
G1 X20.0564 Y9.7364 F300.00
G1 X20.1683 Y9.6000 F300.00
G1 X20.2515 Y9.4444 F300.00
G1 X20.3027 Y9.2756 F300.00
G1 X20.3200 Y9.1000 F300.00
G1 X20.3031 Y8.9268 F300.00
M5
G0 X20.3080 Y8.9766
G1 F60.00
M03 S255.0
G1 F300.00
G1 X20.3031 Y8.9268 F300.00
G1 X20.3031 Y8.9268 F300.00
M5
G0 X20.3724 Y8.9166
G1 F60.00
M03 S255.0
G1 F300.00
G1 X20.3482 Y8.8184 F300.00
G1 X20.3162 Y8.7288 F300.00
G1 X20.2265 Y8.5611 F300.00
G1 X20.1059 Y8.4141 F300.00
G1 X19.9589 Y8.2935 F300.00
G1 X19.7912 Y8.2038 F300.00
G1 X19.6092 Y8.1486 F300.00
G1 X19.4200 Y8.1300 F300.00
G1 X19.2308 Y8.1486 F300.00
G1 X19.0488 Y8.2038 F300.00
G1 X18.8811 Y8.2935 F300.00
G1 X18.7341 Y8.4141 F300.00
G1 X18.6135 Y8.5611 F300.00
G1 X18.5238 Y8.7288 F300.00
G1 X18.4686 Y8.9108 F300.00
G1 X18.4500 Y9.1000 F300.00
G1 X18.4686 Y9.2892 F300.00
G1 X18.5238 Y9.4712 F300.00
G1 X18.6135 Y9.6389 F300.00
G1 X18.7341 Y9.7859 F300.00
G1 X18.8811 Y9.9065 F300.00
G1 X19.0488 Y9.9962 F300.00
G1 X19.2308 Y10.0514 F300.00
G1 X19.4200 Y10.0700 F300.00
G1 X19.6092 Y10.0514 F300.00
G1 X19.7912 Y9.9962 F300.00
G1 X19.9589 Y9.9065 F300.00
G1 X20.1059 Y9.7859 F300.00
G1 X20.2265 Y9.6389 F300.00
G1 X20.3162 Y9.4712 F300.00
G1 X20.3714 Y9.2892 F300.00
G1 X20.3900 Y9.1000 F300.00
G1 X20.3724 Y8.9166 F300.00
M5
G0 X20.3772 Y8.9663
G1 F60.00
M03 S255.0
G1 F300.00
G1 X20.3724 Y8.9166 F300.00
G1 X20.3724 Y8.9166 F300.00
M5
G0 X20.4416 Y8.9063
G1 F60.00
M03 S255.0
G1 F300.00
G1 X20.4152 Y8.7981 F300.00
G1 X20.3808 Y8.7020 F300.00
G1 X20.3372 Y8.6097 F300.00
G1 X20.2847 Y8.5222 F300.00
G1 X20.2239 Y8.4402 F300.00
G1 X20.1554 Y8.3646 F300.00
G1 X20.0798 Y8.2961 F300.00
G1 X19.9978 Y8.2353 F300.00
G1 X19.9103 Y8.1828 F300.00
G1 X19.8180 Y8.1392 F300.00
G1 X19.7219 Y8.1048 F300.00
G1 X19.6229 Y8.0800 F300.00
G1 X19.5219 Y8.0650 F300.00
G1 X19.4200 Y8.0600 F300.00
G1 X19.3181 Y8.0650 F300.00
G1 X19.2171 Y8.0800 F300.00
G1 X19.1181 Y8.1048 F300.00
G1 X19.0220 Y8.1392 F300.00
G1 X18.9297 Y8.1828 F300.00
G1 X18.8422 Y8.2353 F300.00
G1 X18.7602 Y8.2961 F300.00
G1 X18.6846 Y8.3646 F300.00
G1 X18.6161 Y8.4402 F300.00
G1 X18.5553 Y8.5222 F300.00
G1 X18.5028 Y8.6097 F300.00
G1 X18.4592 Y8.7020 F300.00
G1 X18.4248 Y8.7981 F300.00
G1 X18.4000 Y8.8971 F300.00
G1 X18.3850 Y8.9981 F300.00
G1 X18.3800 Y9.1000 F300.00
G1 X18.3850 Y9.2019 F300.00
G1 X18.4000 Y9.3029 F300.00
G1 X18.4248 Y9.4019 F300.00
G1 X18.4592 Y9.4980 F300.00
G1 X18.5028 Y9.5903 F300.00
G1 X18.5553 Y9.6778 F300.00
G1 X18.6161 Y9.7598 F300.00
G1 X18.6846 Y9.8354 F300.00
G1 X18.7602 Y9.9039 F300.00
G1 X18.8422 Y9.9647 F300.00
G1 X18.9297 Y10.0172 F300.00
G1 X19.0220 Y10.0608 F300.00
G1 X19.1181 Y10.0952 F300.00
G1 X19.2171 Y10.1200 F300.00
G1 X19.3181 Y10.1350 F300.00
G1 X19.4200 Y10.1400 F300.00
G1 X19.5219 Y10.1350 F300.00
G1 X19.6229 Y10.1200 F300.00
G1 X19.7219 Y10.0952 F300.00
G1 X19.8180 Y10.0608 F300.00
G1 X19.9103 Y10.0172 F300.00
G1 X19.9978 Y9.9647 F300.00
G1 X20.0798 Y9.9039 F300.00
G1 X20.1554 Y9.8354 F300.00
G1 X20.2239 Y9.7598 F300.00
G1 X20.2847 Y9.6778 F300.00
G1 X20.3372 Y9.5903 F300.00
G1 X20.3808 Y9.4980 F300.00
G1 X20.4152 Y9.4019 F300.00
G1 X20.4400 Y9.3029 F300.00
G1 X20.4550 Y9.2019 F300.00
G1 X20.4600 Y9.1000 F300.00
G1 X20.4416 Y8.9063 F300.00
M5
G0 X20.4463 Y8.9561
G1 F60.00
M03 S255.0
G1 F300.00
G1 X20.4416 Y8.9063 F300.00
G1 X20.4416 Y8.9063 F300.00
M5
G0 X22.8427 Y8.9244
G1 F60.00
M03 S255.0
G1 F300.00
G1 X22.7915 Y8.7556 F300.00
G1 X22.7083 Y8.6000 F300.00
G1 X22.5964 Y8.4636 F300.00
G1 X22.4600 Y8.3517 F300.00
G1 X22.3044 Y8.2685 F300.00
G1 X22.1356 Y8.2173 F300.00
G1 X21.9600 Y8.2000 F300.00
G1 X21.7844 Y8.2173 F300.00
G1 X21.6156 Y8.2685 F300.00
G1 X21.4600 Y8.3517 F300.00
G1 X21.3236 Y8.4636 F300.00
G1 X21.2117 Y8.6000 F300.00
G1 X21.1285 Y8.7556 F300.00
G1 X21.0773 Y8.9244 F300.00
G1 X21.0600 Y9.1000 F300.00
G1 X21.0773 Y9.2756 F300.00
G1 X21.1285 Y9.4444 F300.00
G1 X21.2117 Y9.6000 F300.00
G1 X21.3236 Y9.7364 F300.00
G1 X21.4600 Y9.8483 F300.00
G1 X21.6156 Y9.9315 F300.00
G1 X21.7844 Y9.9827 F300.00
G1 X21.9600 Y10.0000 F300.00
G1 X22.1356 Y9.9827 F300.00
G1 X22.3044 Y9.9315 F300.00
G1 X22.4600 Y9.8483 F300.00
G1 X22.5964 Y9.7364 F300.00
G1 X22.7083 Y9.6000 F300.00
G1 X22.7915 Y9.4444 F300.00
G1 X22.8427 Y9.2756 F300.00
G1 X22.8600 Y9.1000 F300.00
G1 X22.8427 Y8.9244 F300.00
M5
G0 X22.8476 Y8.9742
G1 F60.00
M03 S255.0
G1 F300.00
G1 X22.8427 Y8.9244 F300.00
G1 X22.8427 Y8.9244 F300.00
M5
G0 X22.9114 Y8.9108
G1 F60.00
M03 S255.0
G1 F300.00
G1 X22.8562 Y8.7288 F300.00
G1 X22.7665 Y8.5611 F300.00
G1 X22.6459 Y8.4141 F300.00
G1 X22.4989 Y8.2935 F300.00
G1 X22.3312 Y8.2038 F300.00
G1 X22.1492 Y8.1486 F300.00
G1 X21.9600 Y8.1300 F300.00
G1 X21.7708 Y8.1486 F300.00
G1 X21.5888 Y8.2038 F300.00
G1 X21.4211 Y8.2935 F300.00
G1 X21.2741 Y8.4141 F300.00
G1 X21.1535 Y8.5611 F300.00
G1 X21.0638 Y8.7288 F300.00
G1 X21.0086 Y8.9108 F300.00
G1 X20.9900 Y9.1000 F300.00
G1 X21.0086 Y9.2892 F300.00
G1 X21.0638 Y9.4712 F300.00
G1 X21.1535 Y9.6389 F300.00
G1 X21.2741 Y9.7859 F300.00
G1 X21.4211 Y9.9065 F300.00
G1 X21.5888 Y9.9962 F300.00
G1 X21.7708 Y10.0514 F300.00
G1 X21.9600 Y10.0700 F300.00
G1 X22.1492 Y10.0514 F300.00
G1 X22.3312 Y9.9962 F300.00
G1 X22.4989 Y9.9065 F300.00
G1 X22.6459 Y9.7859 F300.00
G1 X22.7665 Y9.6389 F300.00
G1 X22.8562 Y9.4712 F300.00
G1 X22.9114 Y9.2892 F300.00
G1 X22.9300 Y9.1000 F300.00
G1 X22.9114 Y8.9108 F300.00
M5
G0 X22.9163 Y8.9605
G1 F60.00
M03 S255.0
G1 F300.00
G1 X22.9114 Y8.9108 F300.00
G1 X22.9114 Y8.9108 F300.00
M5
G0 X22.9800 Y8.8971
G1 F60.00
M03 S255.0
G1 F300.00
G1 X22.9552 Y8.7981 F300.00
G1 X22.9208 Y8.7020 F300.00
G1 X22.8772 Y8.6097 F300.00
G1 X22.8247 Y8.5222 F300.00
G1 X22.7639 Y8.4402 F300.00
G1 X22.6954 Y8.3646 F300.00
G1 X22.6198 Y8.2961 F300.00
G1 X22.5378 Y8.2353 F300.00
G1 X22.4503 Y8.1828 F300.00
G1 X22.3580 Y8.1392 F300.00
G1 X22.2619 Y8.1048 F300.00
G1 X22.1629 Y8.0800 F300.00
G1 X22.0619 Y8.0650 F300.00
G1 X21.9600 Y8.0600 F300.00
G1 X21.8581 Y8.0650 F300.00
G1 X21.7571 Y8.0800 F300.00
G1 X21.6581 Y8.1048 F300.00
G1 X21.5620 Y8.1392 F300.00
G1 X21.4697 Y8.1828 F300.00
G1 X21.3822 Y8.2353 F300.00
G1 X21.3002 Y8.2961 F300.00
G1 X21.2246 Y8.3646 F300.00
G1 X21.1561 Y8.4402 F300.00
G1 X21.0953 Y8.5222 F300.00
G1 X21.0428 Y8.6097 F300.00
G1 X20.9992 Y8.7020 F300.00
G1 X20.9648 Y8.7981 F300.00
G1 X20.9400 Y8.8971 F300.00
G1 X20.9250 Y8.9981 F300.00
G1 X20.9200 Y9.1000 F300.00
G1 X20.9250 Y9.2019 F300.00
G1 X20.9400 Y9.3029 F300.00
G1 X20.9648 Y9.4019 F300.00
G1 X20.9992 Y9.4980 F300.00
G1 X21.0428 Y9.5903 F300.00
G1 X21.0953 Y9.6778 F300.00
G1 X21.1561 Y9.7598 F300.00
G1 X21.2246 Y9.8354 F300.00
G1 X21.3002 Y9.9039 F300.00
G1 X21.3822 Y9.9647 F300.00
G1 X21.4697 Y10.0172 F300.00
G1 X21.5620 Y10.0608 F300.00
G1 X21.6581 Y10.0952 F300.00
G1 X21.7571 Y10.1200 F300.00
G1 X21.8581 Y10.1350 F300.00
G1 X21.9600 Y10.1400 F300.00
G1 X22.0619 Y10.1350 F300.00
G1 X22.1629 Y10.1200 F300.00
G1 X22.2619 Y10.0952 F300.00
G1 X22.3580 Y10.0608 F300.00
G1 X22.4503 Y10.0172 F300.00
G1 X22.5378 Y9.9647 F300.00
G1 X22.6198 Y9.9039 F300.00
G1 X22.6954 Y9.8354 F300.00
G1 X22.7639 Y9.7598 F300.00
G1 X22.8247 Y9.6778 F300.00
G1 X22.8772 Y9.5903 F300.00
G1 X22.9208 Y9.4980 F300.00
G1 X22.9552 Y9.4019 F300.00
G1 X22.9800 Y9.3029 F300.00
G1 X22.9950 Y9.2019 F300.00
G1 X23.0000 Y9.1000 F300.00
G1 X22.9950 Y8.9981 F300.00
G1 X22.9800 Y8.8971 F300.00
M5
G0 X22.9874 Y8.9466
G1 F60.00
M03 S255.0
G1 F300.00
G1 X22.9800 Y8.8971 F300.00
G1 X22.9800 Y8.8971 F300.00
M5
G0 X25.3831 Y8.9268
G1 F60.00
M03 S255.0
G1 F300.00
G1 X25.3315 Y8.7556 F300.00
G1 X25.2483 Y8.6000 F300.00
G1 X25.1364 Y8.4636 F300.00
G1 X25.0000 Y8.3517 F300.00
G1 X24.8444 Y8.2685 F300.00
G1 X24.6756 Y8.2173 F300.00
G1 X24.5000 Y8.2000 F300.00
G1 X24.3244 Y8.2173 F300.00
G1 X24.1556 Y8.2685 F300.00
G1 X24.0000 Y8.3517 F300.00
G1 X23.8636 Y8.4636 F300.00
G1 X23.7517 Y8.6000 F300.00
G1 X23.6685 Y8.7556 F300.00
G1 X23.6173 Y8.9244 F300.00
G1 X23.6000 Y9.1000 F300.00
G1 X23.6173 Y9.2756 F300.00
G1 X23.6685 Y9.4444 F300.00
G1 X23.7517 Y9.6000 F300.00
G1 X23.8636 Y9.7364 F300.00
G1 X24.0000 Y9.8483 F300.00
G1 X24.1556 Y9.9315 F300.00
G1 X24.3244 Y9.9827 F300.00
G1 X24.5000 Y10.0000 F300.00
G1 X24.6756 Y9.9827 F300.00
G1 X24.8444 Y9.9315 F300.00
G1 X25.0000 Y9.8483 F300.00
G1 X25.1364 Y9.7364 F300.00
G1 X25.2483 Y9.6000 F300.00
G1 X25.3315 Y9.4444 F300.00
G1 X25.3827 Y9.2756 F300.00
G1 X25.4000 Y9.1000 F300.00
G1 X25.3831 Y8.9268 F300.00
M5
G0 X25.3880 Y8.9766
G1 F60.00
M03 S255.0
G1 F300.00
G1 X25.3831 Y8.9268 F300.00
G1 X25.3831 Y8.9268 F300.00
M5
G0 X25.4524 Y8.9166
G1 F60.00
M03 S255.0
G1 F300.00
G1 X25.4282 Y8.8184 F300.00
G1 X25.3962 Y8.7288 F300.00
G1 X25.3065 Y8.5611 F300.00
G1 X25.1859 Y8.4141 F300.00
G1 X25.0389 Y8.2935 F300.00
G1 X24.8712 Y8.2038 F300.00
G1 X24.6892 Y8.1486 F300.00
G1 X24.5000 Y8.1300 F300.00
G1 X24.3108 Y8.1486 F300.00
G1 X24.1288 Y8.2038 F300.00
G1 X23.9611 Y8.2935 F300.00
G1 X23.8141 Y8.4141 F300.00
G1 X23.6935 Y8.5611 F300.00
G1 X23.6038 Y8.7288 F300.00
G1 X23.5486 Y8.9108 F300.00
G1 X23.5300 Y9.1000 F300.00
G1 X23.5486 Y9.2892 F300.00
G1 X23.6038 Y9.4712 F300.00
G1 X23.6935 Y9.6389 F300.00
G1 X23.8141 Y9.7859 F300.00
G1 X23.9611 Y9.9065 F300.00
G1 X24.1288 Y9.9962 F300.00
G1 X24.3108 Y10.0514 F300.00
G1 X24.5000 Y10.0700 F300.00
G1 X24.6892 Y10.0514 F300.00
G1 X24.8712 Y9.9962 F300.00
G1 X25.0389 Y9.9065 F300.00
G1 X25.1859 Y9.7859 F300.00
G1 X25.3065 Y9.6389 F300.00
G1 X25.3962 Y9.4712 F300.00
G1 X25.4514 Y9.2892 F300.00
G1 X25.4700 Y9.1000 F300.00
G1 X25.4524 Y8.9166 F300.00
M5
G0 X25.4572 Y8.9663
G1 F60.00
M03 S255.0
G1 F300.00
G1 X25.4524 Y8.9166 F300.00
G1 X25.4524 Y8.9166 F300.00
M5
G0 X25.5216 Y8.9063
G1 F60.00
M03 S255.0
G1 F300.00
G1 X25.4952 Y8.7981 F300.00
G1 X25.4608 Y8.7020 F300.00
G1 X25.4172 Y8.6097 F300.00
G1 X25.3647 Y8.5222 F300.00
G1 X25.3039 Y8.4402 F300.00
G1 X25.2354 Y8.3646 F300.00
G1 X25.1598 Y8.2961 F300.00
G1 X25.0778 Y8.2353 F300.00
G1 X24.9903 Y8.1828 F300.00
G1 X24.8980 Y8.1392 F300.00
G1 X24.8019 Y8.1048 F300.00
G1 X24.7029 Y8.0800 F300.00
G1 X24.6019 Y8.0650 F300.00
G1 X24.5000 Y8.0600 F300.00
G1 X24.3981 Y8.0650 F300.00
G1 X24.2971 Y8.0800 F300.00
G1 X24.1981 Y8.1048 F300.00
G1 X24.1020 Y8.1392 F300.00
G1 X24.0097 Y8.1828 F300.00
G1 X23.9222 Y8.2353 F300.00
G1 X23.8402 Y8.2961 F300.00
G1 X23.7646 Y8.3646 F300.00
G1 X23.6961 Y8.4402 F300.00
G1 X23.6353 Y8.5222 F300.00
G1 X23.5828 Y8.6097 F300.00
G1 X23.5392 Y8.7020 F300.00
G1 X23.5048 Y8.7981 F300.00
G1 X23.4800 Y8.8971 F300.00
G1 X23.4650 Y8.9981 F300.00
G1 X23.4600 Y9.1000 F300.00
G1 X23.4650 Y9.2019 F300.00
G1 X23.4800 Y9.3029 F300.00
G1 X23.5048 Y9.4019 F300.00
G1 X23.5392 Y9.4980 F300.00
G1 X23.5828 Y9.5903 F300.00
G1 X23.6353 Y9.6778 F300.00
G1 X23.6961 Y9.7598 F300.00
G1 X23.7646 Y9.8354 F300.00
G1 X23.8402 Y9.9039 F300.00
G1 X23.9222 Y9.9647 F300.00
G1 X24.0097 Y10.0172 F300.00
G1 X24.1020 Y10.0608 F300.00
G1 X24.1981 Y10.0952 F300.00
G1 X24.2971 Y10.1200 F300.00
G1 X24.3981 Y10.1350 F300.00
G1 X24.5000 Y10.1400 F300.00
G1 X24.6019 Y10.1350 F300.00
G1 X24.7029 Y10.1200 F300.00
G1 X24.8019 Y10.0952 F300.00
G1 X24.8980 Y10.0608 F300.00
G1 X24.9903 Y10.0172 F300.00
G1 X25.0778 Y9.9647 F300.00
G1 X25.1598 Y9.9039 F300.00
G1 X25.2354 Y9.8354 F300.00
G1 X25.3039 Y9.7598 F300.00
G1 X25.3647 Y9.6778 F300.00
G1 X25.4172 Y9.5903 F300.00
G1 X25.4608 Y9.4980 F300.00
G1 X25.4952 Y9.4019 F300.00
G1 X25.5200 Y9.3029 F300.00
G1 X25.5350 Y9.2019 F300.00
G1 X25.5400 Y9.1000 F300.00
G1 X25.5216 Y8.9063 F300.00
M5
G0 X25.5263 Y8.9561
G1 F60.00
M03 S255.0
G1 F300.00
G1 X25.5216 Y8.9063 F300.00
G1 X25.5216 Y8.9063 F300.00
M5
G0 X28.3427 Y8.3405
G1 F60.00
M03 S255.0
G1 F300.00
G1 X28.3130 Y8.3564 F300.00
G1 X28.3000 Y8.3888 F300.00
G1 X28.3000 Y10.0900 F300.00
G1 X28.3146 Y10.1254 F300.00
G1 X28.3500 Y10.1400 F300.00
G1 X30.0500 Y10.1400 F300.00
G1 X30.0854 Y10.1254 F300.00
G1 X30.1000 Y10.0900 F300.00
G1 X30.1000 Y8.3900 F300.00
G1 X30.0854 Y8.3546 F300.00
G1 X30.0500 Y8.3400 F300.00
G1 X28.3427 Y8.3405 F300.00
M5
G0 X28.3927 Y8.3405
G1 F60.00
M03 S255.0
G1 F300.00
G1 X28.3427 Y8.3405 F300.00
G1 X28.3130 Y8.3564 F300.00
G1 X28.3427 Y8.3405 F300.00
M5
G0 X28.3324 Y8.2713
G1 F60.00
M03 S255.0
G1 F300.00
G1 X28.2934 Y8.2842 F300.00
G1 X28.2611 Y8.3094 F300.00
G1 X28.2391 Y8.3441 F300.00
G1 X28.2301 Y8.3841 F300.00
G1 X28.2300 Y10.0929 F300.00
G1 X28.2391 Y10.1359 F300.00
G1 X28.2611 Y10.1706 F300.00
G1 X28.3041 Y10.2009 F300.00
G1 X28.3500 Y10.2100 F300.00
G1 X30.0529 Y10.2100 F300.00
G1 X30.0959 Y10.2009 F300.00
G1 X30.1306 Y10.1789 F300.00
G1 X30.1585 Y10.1413 F300.00
G1 X30.1700 Y10.0900 F300.00
G1 X30.1700 Y8.3871 F300.00
G1 X30.1609 Y8.3441 F300.00
G1 X30.1389 Y8.3094 F300.00
G1 X30.1013 Y8.2815 F300.00
G1 X30.0529 Y8.2700 F300.00
G1 X28.3324 Y8.2713 F300.00
M5
G0 X28.3824 Y8.2713
G1 F60.00
M03 S255.0
G1 F300.00
G1 X28.3324 Y8.2713 F300.00
G1 X28.2934 Y8.2842 F300.00
G1 X28.3324 Y8.2713 F300.00
M5
G0 X28.3221 Y8.2021
G1 F60.00
M03 S255.0
G1 F300.00
G1 X28.2604 Y8.2224 F300.00
G1 X28.2092 Y8.2624 F300.00
G1 X28.1745 Y8.3173 F300.00
G1 X28.1602 Y8.3807 F300.00
G1 X28.1601 Y10.0947 F300.00
G1 X28.1745 Y10.1627 F300.00
G1 X28.2092 Y10.2176 F300.00
G1 X28.2773 Y10.2655 F300.00
G1 X28.3500 Y10.2800 F300.00
G1 X30.0547 Y10.2799 F300.00
G1 X30.1227 Y10.2655 F300.00
G1 X30.1776 Y10.2308 F300.00
G1 X30.2218 Y10.1712 F300.00
G1 X30.2400 Y10.0900 F300.00
G1 X30.2399 Y8.3853 F300.00
G1 X30.2255 Y8.3173 F300.00
G1 X30.1908 Y8.2624 F300.00
G1 X30.1312 Y8.2182 F300.00
G1 X30.0547 Y8.2001 F300.00
G1 X28.3221 Y8.2021 F300.00
M5
G0 X28.3721 Y8.2020
G1 F60.00
M03 S255.0
G1 F300.00
G1 X28.3221 Y8.2021 F300.00
G1 X28.3221 Y8.2021 F300.00
M5
G0 X30.0827 Y6.5244
G1 F60.00
M03 S255.0
G1 F300.00
G1 X30.0315 Y6.3556 F300.00
G1 X29.9483 Y6.2000 F300.00
G1 X29.8364 Y6.0636 F300.00
G1 X29.7000 Y5.9517 F300.00
G1 X29.5444 Y5.8685 F300.00
G1 X29.3756 Y5.8173 F300.00
G1 X29.2000 Y5.8000 F300.00
G1 X29.0244 Y5.8173 F300.00
G1 X28.8556 Y5.8685 F300.00
G1 X28.7000 Y5.9517 F300.00
G1 X28.5636 Y6.0636 F300.00
G1 X28.4517 Y6.2000 F300.00
G1 X28.3685 Y6.3556 F300.00
G1 X28.3173 Y6.5244 F300.00
G1 X28.3000 Y6.7000 F300.00
G1 X28.3173 Y6.8756 F300.00
G1 X28.3685 Y7.0444 F300.00
G1 X28.4517 Y7.2000 F300.00
G1 X28.5636 Y7.3364 F300.00
G1 X28.7000 Y7.4483 F300.00
G1 X28.8556 Y7.5315 F300.00
G1 X29.0244 Y7.5827 F300.00
G1 X29.2000 Y7.6000 F300.00
G1 X29.3756 Y7.5827 F300.00
G1 X29.5444 Y7.5315 F300.00
G1 X29.7000 Y7.4483 F300.00
G1 X29.8364 Y7.3364 F300.00
G1 X29.9483 Y7.2000 F300.00
G1 X30.0315 Y7.0444 F300.00
G1 X30.0827 Y6.8756 F300.00
G1 X30.1000 Y6.7000 F300.00
G1 X30.0827 Y6.5244 F300.00
M5
G0 X30.0876 Y6.5742
G1 F60.00
M03 S255.0
G1 F300.00
G1 X30.0827 Y6.5244 F300.00
G1 X30.0827 Y6.5244 F300.00
M5
G0 X30.1514 Y6.5108
G1 F60.00
M03 S255.0
G1 F300.00
G1 X30.0962 Y6.3288 F300.00
G1 X30.0065 Y6.1611 F300.00
G1 X29.8859 Y6.0141 F300.00
G1 X29.7389 Y5.8935 F300.00
G1 X29.5712 Y5.8038 F300.00
G1 X29.3892 Y5.7486 F300.00
G1 X29.2000 Y5.7300 F300.00
G1 X29.0108 Y5.7486 F300.00
G1 X28.8288 Y5.8038 F300.00
G1 X28.6611 Y5.8935 F300.00
G1 X28.5141 Y6.0141 F300.00
G1 X28.3935 Y6.1611 F300.00
G1 X28.3038 Y6.3288 F300.00
G1 X28.2486 Y6.5108 F300.00
G1 X28.2300 Y6.7000 F300.00
G1 X28.2486 Y6.8892 F300.00
G1 X28.3038 Y7.0712 F300.00
G1 X28.3935 Y7.2389 F300.00
G1 X28.5141 Y7.3859 F300.00
G1 X28.6611 Y7.5065 F300.00
G1 X28.8288 Y7.5962 F300.00
G1 X29.0108 Y7.6514 F300.00
G1 X29.2000 Y7.6700 F300.00
G1 X29.3892 Y7.6514 F300.00
G1 X29.5712 Y7.5962 F300.00
G1 X29.7389 Y7.5065 F300.00
G1 X29.8859 Y7.3859 F300.00
G1 X30.0065 Y7.2389 F300.00
G1 X30.0962 Y7.0712 F300.00
G1 X30.1514 Y6.8892 F300.00
G1 X30.1700 Y6.7000 F300.00
G1 X30.1514 Y6.5108 F300.00
M5
G0 X30.1563 Y6.5605
G1 F60.00
M03 S255.0
G1 F300.00
G1 X30.1514 Y6.5108 F300.00
G1 X30.1514 Y6.5108 F300.00
M5
G0 X30.2200 Y6.4971
G1 F60.00
M03 S255.0
G1 F300.00
G1 X30.1952 Y6.3981 F300.00
G1 X30.1608 Y6.3020 F300.00
G1 X30.1172 Y6.2097 F300.00
G1 X30.0647 Y6.1222 F300.00
G1 X30.0039 Y6.0402 F300.00
G1 X29.9354 Y5.9646 F300.00
G1 X29.8598 Y5.8961 F300.00
G1 X29.7778 Y5.8353 F300.00
G1 X29.6903 Y5.7828 F300.00
G1 X29.5980 Y5.7392 F300.00
G1 X29.5019 Y5.7048 F300.00
G1 X29.4029 Y5.6800 F300.00
G1 X29.3019 Y5.6650 F300.00
G1 X29.2000 Y5.6600 F300.00
G1 X29.0981 Y5.6650 F300.00
G1 X28.9971 Y5.6800 F300.00
G1 X28.8981 Y5.7048 F300.00
G1 X28.8020 Y5.7392 F300.00
G1 X28.7097 Y5.7828 F300.00
G1 X28.6222 Y5.8353 F300.00
G1 X28.5402 Y5.8961 F300.00
G1 X28.4646 Y5.9646 F300.00
G1 X28.3961 Y6.0402 F300.00
G1 X28.3353 Y6.1222 F300.00
G1 X28.2828 Y6.2097 F300.00
G1 X28.2392 Y6.3020 F300.00
G1 X28.2048 Y6.3981 F300.00
G1 X28.1800 Y6.4971 F300.00
G1 X28.1650 Y6.5981 F300.00
G1 X28.1600 Y6.7000 F300.00
G1 X28.1650 Y6.8019 F300.00
G1 X28.1800 Y6.9029 F300.00
G1 X28.2048 Y7.0019 F300.00
G1 X28.2392 Y7.0980 F300.00
G1 X28.2828 Y7.1903 F300.00
G1 X28.3353 Y7.2778 F300.00
G1 X28.3961 Y7.3598 F300.00
G1 X28.4646 Y7.4354 F300.00
G1 X28.5402 Y7.5039 F300.00
G1 X28.6222 Y7.5647 F300.00
G1 X28.7097 Y7.6172 F300.00
G1 X28.8020 Y7.6608 F300.00
G1 X28.8981 Y7.6952 F300.00
G1 X28.9971 Y7.7200 F300.00
G1 X29.0981 Y7.7350 F300.00
G1 X29.2000 Y7.7400 F300.00
G1 X29.3019 Y7.7350 F300.00
G1 X29.4029 Y7.7200 F300.00
G1 X29.5019 Y7.6952 F300.00
G1 X29.5980 Y7.6608 F300.00
G1 X29.6903 Y7.6172 F300.00
G1 X29.7778 Y7.5647 F300.00
G1 X29.8598 Y7.5039 F300.00
G1 X29.9354 Y7.4354 F300.00
G1 X30.0039 Y7.3598 F300.00
G1 X30.0647 Y7.2778 F300.00
G1 X30.1172 Y7.1903 F300.00
G1 X30.1608 Y7.0980 F300.00
G1 X30.1952 Y7.0019 F300.00
G1 X30.2200 Y6.9029 F300.00
G1 X30.2350 Y6.8019 F300.00
G1 X30.2400 Y6.7000 F300.00
G1 X30.2350 Y6.5981 F300.00
G1 X30.2200 Y6.4971 F300.00
M5
G0 X30.2274 Y6.5466
G1 F60.00
M03 S255.0
G1 F300.00
G1 X30.2200 Y6.4971 F300.00
G1 X30.2200 Y6.4971 F300.00
M5
G0 X32.7221 Y8.1746
G1 F60.00
M03 S255.0
G1 F300.00
G1 X32.6604 Y8.1949 F300.00
G1 X32.6092 Y8.2349 F300.00
G1 X32.5745 Y8.2898 F300.00
G1 X32.5602 Y8.3532 F300.00
G1 X32.5601 Y10.0672 F300.00
G1 X32.5745 Y10.1352 F300.00
G1 X32.6092 Y10.1901 F300.00
G1 X32.6688 Y10.2343 F300.00
G1 X32.7500 Y10.2525 F300.00
G1 X34.4547 Y10.2524 F300.00
G1 X34.5227 Y10.2380 F300.00
G1 X34.5776 Y10.2033 F300.00
G1 X34.6218 Y10.1437 F300.00
G1 X34.6400 Y10.0625 F300.00
G1 X34.6399 Y8.3578 F300.00
G1 X34.6255 Y8.2898 F300.00
G1 X34.5908 Y8.2349 F300.00
G1 X34.5312 Y8.1907 F300.00
G1 X34.4547 Y8.1726 F300.00
G1 X32.7221 Y8.1746 F300.00
M5
G0 X32.7721 Y8.1745
G1 F60.00
M03 S255.0
G1 F300.00
G1 X32.7221 Y8.1746 F300.00
G1 X32.7221 Y8.1746 F300.00
M5
G0 X32.7324 Y8.2438
G1 F60.00
M03 S255.0
G1 F300.00
G1 X32.6934 Y8.2567 F300.00
G1 X32.6611 Y8.2819 F300.00
G1 X32.6391 Y8.3166 F300.00
G1 X32.6301 Y8.3566 F300.00
G1 X32.6300 Y10.0654 F300.00
G1 X32.6391 Y10.1084 F300.00
G1 X32.6611 Y10.1431 F300.00
G1 X32.6987 Y10.1710 F300.00
G1 X32.7500 Y10.1825 F300.00
G1 X34.4529 Y10.1825 F300.00
G1 X34.4959 Y10.1734 F300.00
G1 X34.5306 Y10.1514 F300.00
G1 X34.5585 Y10.1138 F300.00
G1 X34.5700 Y10.0625 F300.00
G1 X34.5700 Y8.3596 F300.00
G1 X34.5609 Y8.3166 F300.00
G1 X34.5389 Y8.2819 F300.00
G1 X34.5013 Y8.2540 F300.00
G1 X34.4529 Y8.2425 F300.00
G1 X32.7324 Y8.2438 F300.00
M5
G0 X32.7824 Y8.2438
G1 F60.00
M03 S255.0
G1 F300.00
G1 X32.7324 Y8.2438 F300.00
G1 X32.6934 Y8.2567 F300.00
G1 X32.7324 Y8.2438 F300.00
M5
G0 X32.7427 Y8.3130
G1 F60.00
M03 S255.0
G1 F300.00
G1 X32.7130 Y8.3289 F300.00
G1 X32.7000 Y8.3613 F300.00
G1 X32.7000 Y10.0625 F300.00
G1 X32.7146 Y10.0979 F300.00
G1 X32.7500 Y10.1125 F300.00
G1 X34.4500 Y10.1125 F300.00
G1 X34.4854 Y10.0979 F300.00
G1 X34.5000 Y10.0625 F300.00
G1 X34.5000 Y8.3625 F300.00
G1 X34.4854 Y8.3271 F300.00
G1 X34.4500 Y8.3125 F300.00
G1 X32.7427 Y8.3130 F300.00
M5
G0 X32.7927 Y8.3130
G1 F60.00
M03 S255.0
G1 F300.00
G1 X32.7427 Y8.3130 F300.00
G1 X32.7130 Y8.3289 F300.00
G1 X32.7427 Y8.3130 F300.00
M5
G0 X34.4831 Y6.4993
G1 F60.00
M03 S255.0
G1 F300.00
G1 X34.4315 Y6.3281 F300.00
G1 X34.3483 Y6.1725 F300.00
G1 X34.2364 Y6.0361 F300.00
G1 X34.1000 Y5.9242 F300.00
G1 X33.9444 Y5.8410 F300.00
G1 X33.7756 Y5.7898 F300.00
G1 X33.6000 Y5.7725 F300.00
G1 X33.4244 Y5.7898 F300.00
G1 X33.2556 Y5.8410 F300.00
G1 X33.1000 Y5.9242 F300.00
G1 X32.9636 Y6.0361 F300.00
G1 X32.8517 Y6.1725 F300.00
G1 X32.7685 Y6.3281 F300.00
G1 X32.7173 Y6.4969 F300.00
G1 X32.7000 Y6.6725 F300.00
G1 X32.7173 Y6.8481 F300.00
G1 X32.7685 Y7.0169 F300.00
G1 X32.8517 Y7.1725 F300.00
G1 X32.9636 Y7.3089 F300.00
G1 X33.1000 Y7.4208 F300.00
G1 X33.2556 Y7.5040 F300.00
G1 X33.4244 Y7.5552 F300.00
G1 X33.6000 Y7.5725 F300.00
G1 X33.7756 Y7.5552 F300.00
G1 X33.9444 Y7.5040 F300.00
G1 X34.1000 Y7.4208 F300.00
G1 X34.2364 Y7.3089 F300.00
G1 X34.3483 Y7.1725 F300.00
G1 X34.4315 Y7.0169 F300.00
G1 X34.4827 Y6.8481 F300.00
G1 X34.5000 Y6.6725 F300.00
G1 X34.4831 Y6.4993 F300.00
M5
G0 X34.4880 Y6.5491
G1 F60.00
M03 S255.0
G1 F300.00
G1 X34.4831 Y6.4993 F300.00
G1 X34.4831 Y6.4993 F300.00
M5
G0 X34.5524 Y6.4891
G1 F60.00
M03 S255.0
G1 F300.00
G1 X34.5282 Y6.3909 F300.00
G1 X34.4962 Y6.3013 F300.00
G1 X34.4065 Y6.1336 F300.00
G1 X34.2859 Y5.9866 F300.00
G1 X34.1389 Y5.8660 F300.00
G1 X33.9712 Y5.7763 F300.00
G1 X33.7892 Y5.7211 F300.00
G1 X33.6000 Y5.7025 F300.00
G1 X33.4108 Y5.7211 F300.00
G1 X33.2288 Y5.7763 F300.00
G1 X33.0611 Y5.8660 F300.00
G1 X32.9141 Y5.9866 F300.00
G1 X32.7935 Y6.1336 F300.00
G1 X32.7038 Y6.3013 F300.00
G1 X32.6486 Y6.4833 F300.00
G1 X32.6300 Y6.6725 F300.00
G1 X32.6486 Y6.8617 F300.00
G1 X32.7038 Y7.0437 F300.00
G1 X32.7935 Y7.2114 F300.00
G1 X32.9141 Y7.3584 F300.00
G1 X33.0611 Y7.4790 F300.00
G1 X33.2288 Y7.5687 F300.00
G1 X33.4108 Y7.6239 F300.00
G1 X33.6000 Y7.6425 F300.00
G1 X33.7892 Y7.6239 F300.00
G1 X33.9712 Y7.5687 F300.00
G1 X34.1389 Y7.4790 F300.00
G1 X34.2859 Y7.3584 F300.00
G1 X34.4065 Y7.2114 F300.00
G1 X34.4962 Y7.0437 F300.00
G1 X34.5514 Y6.8617 F300.00
G1 X34.5700 Y6.6725 F300.00
G1 X34.5524 Y6.4891 F300.00
M5
G0 X34.5572 Y6.5388
G1 F60.00
M03 S255.0
G1 F300.00
G1 X34.5524 Y6.4891 F300.00
G1 X34.5524 Y6.4891 F300.00
M5
G0 X34.6216 Y6.4788
G1 F60.00
M03 S255.0
G1 F300.00
G1 X34.5952 Y6.3706 F300.00
G1 X34.5608 Y6.2745 F300.00
G1 X34.5172 Y6.1822 F300.00
G1 X34.4647 Y6.0947 F300.00
G1 X34.4039 Y6.0127 F300.00
G1 X34.3354 Y5.9371 F300.00
G1 X34.2598 Y5.8686 F300.00
G1 X34.1778 Y5.8078 F300.00
G1 X34.0903 Y5.7553 F300.00
G1 X33.9980 Y5.7117 F300.00
G1 X33.9019 Y5.6773 F300.00
G1 X33.8029 Y5.6525 F300.00
G1 X33.7019 Y5.6375 F300.00
G1 X33.6000 Y5.6325 F300.00
G1 X33.4981 Y5.6375 F300.00
G1 X33.3971 Y5.6525 F300.00
G1 X33.2981 Y5.6773 F300.00
G1 X33.2020 Y5.7117 F300.00
G1 X33.1097 Y5.7553 F300.00
G1 X33.0222 Y5.8078 F300.00
G1 X32.9402 Y5.8686 F300.00
G1 X32.8646 Y5.9371 F300.00
G1 X32.7961 Y6.0127 F300.00
G1 X32.7353 Y6.0947 F300.00
G1 X32.6828 Y6.1822 F300.00
G1 X32.6392 Y6.2745 F300.00
G1 X32.6048 Y6.3706 F300.00
G1 X32.5800 Y6.4696 F300.00
G1 X32.5650 Y6.5706 F300.00
G1 X32.5600 Y6.6725 F300.00
G1 X32.5650 Y6.7744 F300.00
G1 X32.5800 Y6.8754 F300.00
G1 X32.6048 Y6.9744 F300.00
G1 X32.6392 Y7.0705 F300.00
G1 X32.6828 Y7.1628 F300.00
G1 X32.7353 Y7.2503 F300.00
G1 X32.7961 Y7.3323 F300.00
G1 X32.8646 Y7.4079 F300.00
G1 X32.9402 Y7.4764 F300.00
G1 X33.0222 Y7.5372 F300.00
G1 X33.1097 Y7.5897 F300.00
G1 X33.2020 Y7.6333 F300.00
G1 X33.2981 Y7.6677 F300.00
G1 X33.3971 Y7.6925 F300.00
G1 X33.4981 Y7.7075 F300.00
G1 X33.6000 Y7.7125 F300.00
G1 X33.7019 Y7.7075 F300.00
G1 X33.8029 Y7.6925 F300.00
G1 X33.9019 Y7.6677 F300.00
G1 X33.9980 Y7.6333 F300.00
G1 X34.0903 Y7.5897 F300.00
G1 X34.1778 Y7.5372 F300.00
G1 X34.2598 Y7.4764 F300.00
G1 X34.3354 Y7.4079 F300.00
G1 X34.4039 Y7.3323 F300.00
G1 X34.4647 Y7.2503 F300.00
G1 X34.5172 Y7.1628 F300.00
G1 X34.5608 Y7.0705 F300.00
G1 X34.5952 Y6.9744 F300.00
G1 X34.6200 Y6.8754 F300.00
G1 X34.6350 Y6.7744 F300.00
G1 X34.6400 Y6.6725 F300.00
G1 X34.6216 Y6.4788 F300.00
M5
G0 X34.6263 Y6.5286
G1 F60.00
M03 S255.0
G1 F300.00
G1 X34.6216 Y6.4788 F300.00
G1 X34.6216 Y6.4788 F300.00
M5
G0 X33.0890 Y13.7306
G1 F60.00
M03 S255.0
G1 F300.00
G1 X33.0382 Y13.5594 F300.00
G1 X32.9584 Y13.4100 F300.00
G1 X32.8509 Y13.2791 F300.00
G1 X32.7200 Y13.1716 F300.00
G1 X32.5706 Y13.0918 F300.00
G1 X32.4086 Y13.0426 F300.00
G1 X32.2400 Y13.0260 F300.00
G1 X32.0714 Y13.0426 F300.00
G1 X31.9094 Y13.0918 F300.00
G1 X31.7600 Y13.1716 F300.00
G1 X31.6291 Y13.2791 F300.00
G1 X31.5216 Y13.4100 F300.00
G1 X31.4418 Y13.5594 F300.00
G1 X31.3926 Y13.7214 F300.00
G1 X31.3760 Y13.8900 F300.00
G1 X31.3926 Y14.0586 F300.00
G1 X31.4418 Y14.2206 F300.00
G1 X31.5216 Y14.3700 F300.00
G1 X31.6291 Y14.5009 F300.00
G1 X31.7600 Y14.6084 F300.00
G1 X31.9094 Y14.6882 F300.00
G1 X32.0714 Y14.7374 F300.00
G1 X32.2400 Y14.7540 F300.00
G1 X32.4086 Y14.7374 F300.00
G1 X32.5706 Y14.6882 F300.00
G1 X32.7200 Y14.6084 F300.00
G1 X32.8509 Y14.5009 F300.00
G1 X32.9584 Y14.3700 F300.00
G1 X33.0382 Y14.2206 F300.00
G1 X33.0874 Y14.0586 F300.00
G1 X33.1040 Y13.8900 F300.00
G1 X33.0890 Y13.7306 F300.00
M5
G0 X33.0937 Y13.7804
G1 F60.00
M03 S255.0
G1 F300.00
G1 X33.0890 Y13.7306 F300.00
G1 X33.0890 Y13.7306 F300.00
M5
G0 X33.0198 Y13.7409
G1 F60.00
M03 S255.0
G1 F300.00
G1 X32.9736 Y13.5861 F300.00
G1 X32.9002 Y13.4489 F300.00
G1 X32.8014 Y13.3286 F300.00
G1 X32.6811 Y13.2298 F300.00
G1 X32.5439 Y13.1564 F300.00
G1 X32.3949 Y13.1113 F300.00
G1 X32.2400 Y13.0960 F300.00
G1 X32.0851 Y13.1113 F300.00
G1 X31.9361 Y13.1564 F300.00
G1 X31.7989 Y13.2298 F300.00
G1 X31.6786 Y13.3286 F300.00
G1 X31.5798 Y13.4489 F300.00
G1 X31.5064 Y13.5861 F300.00
G1 X31.4613 Y13.7351 F300.00
G1 X31.4460 Y13.8900 F300.00
G1 X31.4613 Y14.0449 F300.00
G1 X31.5064 Y14.1939 F300.00
G1 X31.5798 Y14.3311 F300.00
G1 X31.6786 Y14.4514 F300.00
G1 X31.7989 Y14.5502 F300.00
G1 X31.9361 Y14.6236 F300.00
G1 X32.0851 Y14.6687 F300.00
G1 X32.2400 Y14.6840 F300.00
G1 X32.3949 Y14.6687 F300.00
G1 X32.5439 Y14.6236 F300.00
G1 X32.6811 Y14.5502 F300.00
G1 X32.8014 Y14.4514 F300.00
G1 X32.9002 Y14.3311 F300.00
G1 X32.9736 Y14.1939 F300.00
G1 X33.0187 Y14.0449 F300.00
G1 X33.0340 Y13.8900 F300.00
G1 X33.0198 Y13.7409 F300.00
M5
G0 X33.0245 Y13.7907
G1 F60.00
M03 S255.0
G1 F300.00
G1 X33.0198 Y13.7409 F300.00
G1 X33.0198 Y13.7409 F300.00
M5
G0 X32.9505 Y13.7512
G1 F60.00
M03 S255.0
G1 F300.00
G1 X32.9089 Y13.6129 F300.00
G1 X32.8420 Y13.4878 F300.00
G1 X32.7519 Y13.3781 F300.00
G1 X32.6422 Y13.2880 F300.00
G1 X32.5171 Y13.2211 F300.00
G1 X32.3812 Y13.1799 F300.00
G1 X32.2400 Y13.1660 F300.00
G1 X32.0988 Y13.1799 F300.00
G1 X31.9629 Y13.2211 F300.00
G1 X31.8378 Y13.2880 F300.00
G1 X31.7281 Y13.3781 F300.00
G1 X31.6380 Y13.4878 F300.00
G1 X31.5711 Y13.6129 F300.00
G1 X31.5299 Y13.7488 F300.00
G1 X31.5160 Y13.8900 F300.00
G1 X31.5299 Y14.0312 F300.00
G1 X31.5711 Y14.1671 F300.00
G1 X31.6380 Y14.2922 F300.00
G1 X31.7281 Y14.4019 F300.00
G1 X31.8378 Y14.4920 F300.00
G1 X31.9629 Y14.5589 F300.00
G1 X32.0988 Y14.6001 F300.00
G1 X32.2400 Y14.6140 F300.00
G1 X32.3812 Y14.6001 F300.00
G1 X32.5171 Y14.5589 F300.00
G1 X32.6422 Y14.4920 F300.00
G1 X32.7519 Y14.4019 F300.00
G1 X32.8420 Y14.2922 F300.00
G1 X32.9089 Y14.1671 F300.00
G1 X32.9501 Y14.0312 F300.00
G1 X32.9640 Y13.8900 F300.00
G1 X32.9505 Y13.7512 F300.00
M5
G0 X32.9553 Y13.8009
G1 F60.00
M03 S255.0
G1 F300.00
G1 X32.9505 Y13.7512 F300.00
G1 X32.9505 Y13.7512 F300.00
M5
G0 X30.5474 Y13.7214
G1 F60.00
M03 S255.0
G1 F300.00
G1 X30.4982 Y13.5594 F300.00
G1 X30.4184 Y13.4100 F300.00
G1 X30.3109 Y13.2791 F300.00
G1 X30.1800 Y13.1716 F300.00
G1 X30.0306 Y13.0918 F300.00
G1 X29.8686 Y13.0426 F300.00
G1 X29.7000 Y13.0260 F300.00
G1 X29.5314 Y13.0426 F300.00
G1 X29.3694 Y13.0918 F300.00
G1 X29.2200 Y13.1716 F300.00
G1 X29.0891 Y13.2791 F300.00
G1 X28.9816 Y13.4100 F300.00
G1 X28.9018 Y13.5594 F300.00
G1 X28.8526 Y13.7214 F300.00
G1 X28.8360 Y13.8900 F300.00
G1 X28.8526 Y14.0586 F300.00
G1 X28.9018 Y14.2206 F300.00
G1 X28.9816 Y14.3700 F300.00
G1 X29.0891 Y14.5009 F300.00
G1 X29.2200 Y14.6084 F300.00
G1 X29.3694 Y14.6882 F300.00
G1 X29.5314 Y14.7374 F300.00
G1 X29.7000 Y14.7540 F300.00
G1 X29.8686 Y14.7374 F300.00
G1 X30.0306 Y14.6882 F300.00
G1 X30.1800 Y14.6084 F300.00
G1 X30.3109 Y14.5009 F300.00
G1 X30.4184 Y14.3700 F300.00
G1 X30.4982 Y14.2206 F300.00
G1 X30.5474 Y14.0586 F300.00
G1 X30.5640 Y13.8900 F300.00
G1 X30.5474 Y13.7214 F300.00
M5
G0 X30.5523 Y13.7712
G1 F60.00
M03 S255.0
G1 F300.00
G1 X30.5474 Y13.7214 F300.00
G1 X30.5474 Y13.7214 F300.00
M5
G0 X30.4787 Y13.7351
G1 F60.00
M03 S255.0
G1 F300.00
G1 X30.4336 Y13.5861 F300.00
G1 X30.3602 Y13.4489 F300.00
G1 X30.2614 Y13.3286 F300.00
G1 X30.1411 Y13.2298 F300.00
G1 X30.0039 Y13.1564 F300.00
G1 X29.8549 Y13.1113 F300.00
G1 X29.7000 Y13.0960 F300.00
G1 X29.5451 Y13.1113 F300.00
G1 X29.3961 Y13.1564 F300.00
G1 X29.2589 Y13.2298 F300.00
G1 X29.1386 Y13.3286 F300.00
G1 X29.0398 Y13.4489 F300.00
G1 X28.9664 Y13.5861 F300.00
G1 X28.9213 Y13.7351 F300.00
G1 X28.9060 Y13.8900 F300.00
G1 X28.9213 Y14.0449 F300.00
G1 X28.9664 Y14.1939 F300.00
G1 X29.0398 Y14.3311 F300.00
G1 X29.1386 Y14.4514 F300.00
G1 X29.2589 Y14.5502 F300.00
G1 X29.3961 Y14.6236 F300.00
G1 X29.5451 Y14.6687 F300.00
G1 X29.7000 Y14.6840 F300.00
G1 X29.8549 Y14.6687 F300.00
G1 X30.0039 Y14.6236 F300.00
G1 X30.1411 Y14.5502 F300.00
G1 X30.2614 Y14.4514 F300.00
G1 X30.3602 Y14.3311 F300.00
G1 X30.4336 Y14.1939 F300.00
G1 X30.4787 Y14.0449 F300.00
G1 X30.4940 Y13.8900 F300.00
G1 X30.4787 Y13.7351 F300.00
M5
G0 X30.4836 Y13.7849
G1 F60.00
M03 S255.0
G1 F300.00
G1 X30.4787 Y13.7351 F300.00
G1 X30.4787 Y13.7351 F300.00
M5
G0 X30.4101 Y13.7488
G1 F60.00
M03 S255.0
G1 F300.00
G1 X30.3689 Y13.6129 F300.00
G1 X30.3020 Y13.4878 F300.00
G1 X30.2119 Y13.3781 F300.00
G1 X30.1022 Y13.2880 F300.00
G1 X29.9771 Y13.2211 F300.00
G1 X29.8412 Y13.1799 F300.00
G1 X29.7000 Y13.1660 F300.00
G1 X29.5588 Y13.1799 F300.00
G1 X29.4229 Y13.2211 F300.00
G1 X29.2978 Y13.2880 F300.00
G1 X29.1881 Y13.3781 F300.00
G1 X29.0980 Y13.4878 F300.00
G1 X29.0311 Y13.6129 F300.00
G1 X28.9899 Y13.7488 F300.00
G1 X28.9760 Y13.8900 F300.00
G1 X28.9899 Y14.0312 F300.00
G1 X29.0311 Y14.1671 F300.00
G1 X29.0980 Y14.2922 F300.00
G1 X29.1881 Y14.4019 F300.00
G1 X29.2978 Y14.4920 F300.00
G1 X29.4229 Y14.5589 F300.00
G1 X29.5588 Y14.6001 F300.00
G1 X29.7000 Y14.6140 F300.00
G1 X29.8412 Y14.6001 F300.00
G1 X29.9771 Y14.5589 F300.00
G1 X30.1022 Y14.4920 F300.00
G1 X30.2119 Y14.4019 F300.00
G1 X30.3020 Y14.2922 F300.00
G1 X30.3689 Y14.1671 F300.00
G1 X30.4101 Y14.0312 F300.00
G1 X30.4240 Y13.8900 F300.00
G1 X30.4101 Y13.7488 F300.00
M5
G0 X30.4150 Y13.7985
G1 F60.00
M03 S255.0
G1 F300.00
G1 X30.4101 Y13.7488 F300.00
G1 X30.4101 Y13.7488 F300.00
M5
G0 X28.0074 Y13.7214
G1 F60.00
M03 S255.0
G1 F300.00
G1 X27.9582 Y13.5594 F300.00
G1 X27.8784 Y13.4100 F300.00
G1 X27.7709 Y13.2791 F300.00
G1 X27.6400 Y13.1716 F300.00
G1 X27.4906 Y13.0918 F300.00
G1 X27.3286 Y13.0426 F300.00
G1 X27.1600 Y13.0260 F300.00
G1 X26.9914 Y13.0426 F300.00
G1 X26.8294 Y13.0918 F300.00
G1 X26.6800 Y13.1716 F300.00
G1 X26.5491 Y13.2791 F300.00
G1 X26.4416 Y13.4100 F300.00
G1 X26.3618 Y13.5594 F300.00
G1 X26.3126 Y13.7214 F300.00
G1 X26.2960 Y13.8900 F300.00
G1 X26.3126 Y14.0586 F300.00
G1 X26.3618 Y14.2206 F300.00
G1 X26.4416 Y14.3700 F300.00
G1 X26.5491 Y14.5009 F300.00
G1 X26.6800 Y14.6084 F300.00
G1 X26.8294 Y14.6882 F300.00
G1 X26.9914 Y14.7374 F300.00
G1 X27.1600 Y14.7540 F300.00
G1 X27.3286 Y14.7374 F300.00
G1 X27.4906 Y14.6882 F300.00
G1 X27.6400 Y14.6084 F300.00
G1 X27.7709 Y14.5009 F300.00
G1 X27.8784 Y14.3700 F300.00
G1 X27.9582 Y14.2206 F300.00
G1 X28.0074 Y14.0586 F300.00
G1 X28.0240 Y13.8900 F300.00
G1 X28.0074 Y13.7214 F300.00
M5
G0 X28.0123 Y13.7712
G1 F60.00
M03 S255.0
G1 F300.00
G1 X28.0074 Y13.7214 F300.00
G1 X28.0074 Y13.7214 F300.00
M5
G0 X27.9387 Y13.7351
G1 F60.00
M03 S255.0
G1 F300.00
G1 X27.8936 Y13.5861 F300.00
G1 X27.8202 Y13.4489 F300.00
G1 X27.7214 Y13.3286 F300.00
G1 X27.6011 Y13.2298 F300.00
G1 X27.4639 Y13.1564 F300.00
G1 X27.3149 Y13.1113 F300.00
G1 X27.1600 Y13.0960 F300.00
G1 X27.0051 Y13.1113 F300.00
G1 X26.8561 Y13.1564 F300.00
G1 X26.7189 Y13.2298 F300.00
G1 X26.5986 Y13.3286 F300.00
G1 X26.4998 Y13.4489 F300.00
G1 X26.4264 Y13.5861 F300.00
G1 X26.3813 Y13.7351 F300.00
G1 X26.3660 Y13.8900 F300.00
G1 X26.3813 Y14.0449 F300.00
G1 X26.4264 Y14.1939 F300.00
G1 X26.4998 Y14.3311 F300.00
G1 X26.5986 Y14.4514 F300.00
G1 X26.7189 Y14.5502 F300.00
G1 X26.8561 Y14.6236 F300.00
G1 X27.0051 Y14.6687 F300.00
G1 X27.1600 Y14.6840 F300.00
G1 X27.3149 Y14.6687 F300.00
G1 X27.4639 Y14.6236 F300.00
G1 X27.6011 Y14.5502 F300.00
G1 X27.7214 Y14.4514 F300.00
G1 X27.8202 Y14.3311 F300.00
G1 X27.8936 Y14.1939 F300.00
G1 X27.9387 Y14.0449 F300.00
G1 X27.9540 Y13.8900 F300.00
G1 X27.9387 Y13.7351 F300.00
M5
G0 X27.9436 Y13.7849
G1 F60.00
M03 S255.0
G1 F300.00
G1 X27.9387 Y13.7351 F300.00
G1 X27.9387 Y13.7351 F300.00
M5
G0 X27.8701 Y13.7488
G1 F60.00
M03 S255.0
G1 F300.00
G1 X27.8289 Y13.6129 F300.00
G1 X27.7620 Y13.4878 F300.00
G1 X27.6719 Y13.3781 F300.00
G1 X27.5622 Y13.2880 F300.00
G1 X27.4371 Y13.2211 F300.00
G1 X27.3012 Y13.1799 F300.00
G1 X27.1600 Y13.1660 F300.00
G1 X27.0188 Y13.1799 F300.00
G1 X26.8829 Y13.2211 F300.00
G1 X26.7578 Y13.2880 F300.00
G1 X26.6481 Y13.3781 F300.00
G1 X26.5580 Y13.4878 F300.00
G1 X26.4911 Y13.6129 F300.00
G1 X26.4499 Y13.7488 F300.00
G1 X26.4360 Y13.8900 F300.00
G1 X26.4499 Y14.0312 F300.00
G1 X26.4911 Y14.1671 F300.00
G1 X26.5580 Y14.2922 F300.00
G1 X26.6481 Y14.4019 F300.00
G1 X26.7578 Y14.4920 F300.00
G1 X26.8829 Y14.5589 F300.00
G1 X27.0188 Y14.6001 F300.00
G1 X27.1600 Y14.6140 F300.00
G1 X27.3012 Y14.6001 F300.00
G1 X27.4371 Y14.5589 F300.00
G1 X27.5622 Y14.4920 F300.00
G1 X27.6719 Y14.4019 F300.00
G1 X27.7620 Y14.2922 F300.00
G1 X27.8289 Y14.1671 F300.00
G1 X27.8701 Y14.0312 F300.00
G1 X27.8840 Y13.8900 F300.00
G1 X27.8701 Y13.7488 F300.00
M5
G0 X27.8750 Y13.7985
G1 F60.00
M03 S255.0
G1 F300.00
G1 X27.8701 Y13.7488 F300.00
G1 X27.8701 Y13.7488 F300.00
M5
G0 X25.4690 Y13.7306
G1 F60.00
M03 S255.0
G1 F300.00
G1 X25.4182 Y13.5594 F300.00
G1 X25.3384 Y13.4100 F300.00
G1 X25.2309 Y13.2791 F300.00
G1 X25.1000 Y13.1716 F300.00
G1 X24.9506 Y13.0918 F300.00
G1 X24.7886 Y13.0426 F300.00
G1 X24.6200 Y13.0260 F300.00
G1 X24.4514 Y13.0426 F300.00
G1 X24.2894 Y13.0918 F300.00
G1 X24.1400 Y13.1716 F300.00
G1 X24.0091 Y13.2791 F300.00
G1 X23.9016 Y13.4100 F300.00
G1 X23.8218 Y13.5594 F300.00
G1 X23.7726 Y13.7214 F300.00
G1 X23.7560 Y13.8900 F300.00
G1 X23.7726 Y14.0586 F300.00
G1 X23.8218 Y14.2206 F300.00
G1 X23.9016 Y14.3700 F300.00
G1 X24.0091 Y14.5009 F300.00
G1 X24.1400 Y14.6084 F300.00
G1 X24.2894 Y14.6882 F300.00
G1 X24.4514 Y14.7374 F300.00
G1 X24.6200 Y14.7540 F300.00
G1 X24.7886 Y14.7374 F300.00
G1 X24.9506 Y14.6882 F300.00
G1 X25.1000 Y14.6084 F300.00
G1 X25.2309 Y14.5009 F300.00
G1 X25.3384 Y14.3700 F300.00
G1 X25.4182 Y14.2206 F300.00
G1 X25.4674 Y14.0586 F300.00
G1 X25.4840 Y13.8900 F300.00
G1 X25.4690 Y13.7306 F300.00
M5
G0 X25.4737 Y13.7804
G1 F60.00
M03 S255.0
G1 F300.00
G1 X25.4690 Y13.7306 F300.00
G1 X25.4690 Y13.7306 F300.00
M5
G0 X25.3998 Y13.7409
G1 F60.00
M03 S255.0
G1 F300.00
G1 X25.3536 Y13.5861 F300.00
G1 X25.2802 Y13.4489 F300.00
G1 X25.1814 Y13.3286 F300.00
G1 X25.0611 Y13.2298 F300.00
G1 X24.9239 Y13.1564 F300.00
G1 X24.7749 Y13.1113 F300.00
G1 X24.6200 Y13.0960 F300.00
G1 X24.4651 Y13.1113 F300.00
G1 X24.3161 Y13.1564 F300.00
G1 X24.1789 Y13.2298 F300.00
G1 X24.0586 Y13.3286 F300.00
G1 X23.9598 Y13.4489 F300.00
G1 X23.8864 Y13.5861 F300.00
G1 X23.8413 Y13.7351 F300.00
G1 X23.8260 Y13.8900 F300.00
G1 X23.8413 Y14.0449 F300.00
G1 X23.8864 Y14.1939 F300.00
G1 X23.9598 Y14.3311 F300.00
G1 X24.0586 Y14.4514 F300.00
G1 X24.1789 Y14.5502 F300.00
G1 X24.3161 Y14.6236 F300.00
G1 X24.4651 Y14.6687 F300.00
G1 X24.6200 Y14.6840 F300.00
G1 X24.7749 Y14.6687 F300.00
G1 X24.9239 Y14.6236 F300.00
G1 X25.0611 Y14.5502 F300.00
G1 X25.1814 Y14.4514 F300.00
G1 X25.2802 Y14.3311 F300.00
G1 X25.3536 Y14.1939 F300.00
G1 X25.3987 Y14.0449 F300.00
G1 X25.4140 Y13.8900 F300.00
G1 X25.3998 Y13.7409 F300.00
M5
G0 X25.4045 Y13.7907
G1 F60.00
M03 S255.0
G1 F300.00
G1 X25.3998 Y13.7409 F300.00
G1 X25.3998 Y13.7409 F300.00
M5
G0 X25.3305 Y13.7512
G1 F60.00
M03 S255.0
G1 F300.00
G1 X25.2889 Y13.6129 F300.00
G1 X25.2220 Y13.4878 F300.00
G1 X25.1319 Y13.3781 F300.00
G1 X25.0222 Y13.2880 F300.00
G1 X24.8971 Y13.2211 F300.00
G1 X24.7612 Y13.1799 F300.00
G1 X24.6200 Y13.1660 F300.00
G1 X24.4788 Y13.1799 F300.00
G1 X24.3429 Y13.2211 F300.00
G1 X24.2178 Y13.2880 F300.00
G1 X24.1081 Y13.3781 F300.00
G1 X24.0180 Y13.4878 F300.00
G1 X23.9511 Y13.6129 F300.00
G1 X23.9099 Y13.7488 F300.00
G1 X23.8960 Y13.8900 F300.00
G1 X23.9099 Y14.0312 F300.00
G1 X23.9511 Y14.1671 F300.00
G1 X24.0180 Y14.2922 F300.00
G1 X24.1081 Y14.4019 F300.00
G1 X24.2178 Y14.4920 F300.00
G1 X24.3429 Y14.5589 F300.00
G1 X24.4788 Y14.6001 F300.00
G1 X24.6200 Y14.6140 F300.00
G1 X24.7612 Y14.6001 F300.00
G1 X24.8971 Y14.5589 F300.00
G1 X25.0222 Y14.4920 F300.00
G1 X25.1319 Y14.4019 F300.00
G1 X25.2220 Y14.2922 F300.00
G1 X25.2889 Y14.1671 F300.00
G1 X25.3301 Y14.0312 F300.00
G1 X25.3440 Y13.8900 F300.00
G1 X25.3305 Y13.7512 F300.00
M5
G0 X25.3353 Y13.8009
G1 F60.00
M03 S255.0
G1 F300.00
G1 X25.3305 Y13.7512 F300.00
G1 X25.3305 Y13.7512 F300.00
M5
G0 X22.9274 Y13.7214
G1 F60.00
M03 S255.0
G1 F300.00
G1 X22.8782 Y13.5594 F300.00
G1 X22.7984 Y13.4100 F300.00
G1 X22.6909 Y13.2791 F300.00
G1 X22.5600 Y13.1716 F300.00
G1 X22.4106 Y13.0918 F300.00
G1 X22.2486 Y13.0426 F300.00
G1 X22.0800 Y13.0260 F300.00
G1 X21.9114 Y13.0426 F300.00
G1 X21.7494 Y13.0918 F300.00
G1 X21.6000 Y13.1716 F300.00
G1 X21.4691 Y13.2791 F300.00
G1 X21.3616 Y13.4100 F300.00
G1 X21.2818 Y13.5594 F300.00
G1 X21.2326 Y13.7214 F300.00
G1 X21.2160 Y13.8900 F300.00
G1 X21.2326 Y14.0586 F300.00
G1 X21.2818 Y14.2206 F300.00
G1 X21.3616 Y14.3700 F300.00
G1 X21.4691 Y14.5009 F300.00
G1 X21.6000 Y14.6084 F300.00
G1 X21.7494 Y14.6882 F300.00
G1 X21.9114 Y14.7374 F300.00
G1 X22.0800 Y14.7540 F300.00
G1 X22.2486 Y14.7374 F300.00
G1 X22.4106 Y14.6882 F300.00
G1 X22.5600 Y14.6084 F300.00
G1 X22.6909 Y14.5009 F300.00
G1 X22.7984 Y14.3700 F300.00
G1 X22.8782 Y14.2206 F300.00
G1 X22.9274 Y14.0586 F300.00
G1 X22.9440 Y13.8900 F300.00
G1 X22.9274 Y13.7214 F300.00
M5
G0 X22.9323 Y13.7712
G1 F60.00
M03 S255.0
G1 F300.00
G1 X22.9274 Y13.7214 F300.00
G1 X22.9274 Y13.7214 F300.00
M5
G0 X22.8587 Y13.7351
G1 F60.00
M03 S255.0
G1 F300.00
G1 X22.8136 Y13.5861 F300.00
G1 X22.7402 Y13.4489 F300.00
G1 X22.6414 Y13.3286 F300.00
G1 X22.5211 Y13.2298 F300.00
G1 X22.3839 Y13.1564 F300.00
G1 X22.2349 Y13.1113 F300.00
G1 X22.0800 Y13.0960 F300.00
G1 X21.9251 Y13.1113 F300.00
G1 X21.7761 Y13.1564 F300.00
G1 X21.6389 Y13.2298 F300.00
G1 X21.5186 Y13.3286 F300.00
G1 X21.4198 Y13.4489 F300.00
G1 X21.3464 Y13.5861 F300.00
G1 X21.3013 Y13.7351 F300.00
G1 X21.2860 Y13.8900 F300.00
G1 X21.3013 Y14.0449 F300.00
G1 X21.3464 Y14.1939 F300.00
G1 X21.4198 Y14.3311 F300.00
G1 X21.5186 Y14.4514 F300.00
G1 X21.6389 Y14.5502 F300.00
G1 X21.7761 Y14.6236 F300.00
G1 X21.9251 Y14.6687 F300.00
G1 X22.0800 Y14.6840 F300.00
G1 X22.2349 Y14.6687 F300.00
G1 X22.3839 Y14.6236 F300.00
G1 X22.5211 Y14.5502 F300.00
G1 X22.6414 Y14.4514 F300.00
G1 X22.7402 Y14.3311 F300.00
G1 X22.8136 Y14.1939 F300.00
G1 X22.8587 Y14.0449 F300.00
G1 X22.8740 Y13.8900 F300.00
G1 X22.8587 Y13.7351 F300.00
M5
G0 X22.8636 Y13.7849
G1 F60.00
M03 S255.0
G1 F300.00
G1 X22.8587 Y13.7351 F300.00
G1 X22.8587 Y13.7351 F300.00
M5
G0 X22.7901 Y13.7488
G1 F60.00
M03 S255.0
G1 F300.00
G1 X22.7489 Y13.6129 F300.00
G1 X22.6820 Y13.4878 F300.00
G1 X22.5919 Y13.3781 F300.00
G1 X22.4822 Y13.2880 F300.00
G1 X22.3571 Y13.2211 F300.00
G1 X22.2212 Y13.1799 F300.00
G1 X22.0800 Y13.1660 F300.00
G1 X21.9388 Y13.1799 F300.00
G1 X21.8029 Y13.2211 F300.00
G1 X21.6778 Y13.2880 F300.00
G1 X21.5681 Y13.3781 F300.00
G1 X21.4780 Y13.4878 F300.00
G1 X21.4111 Y13.6129 F300.00
G1 X21.3699 Y13.7488 F300.00
G1 X21.3560 Y13.8900 F300.00
G1 X21.3699 Y14.0312 F300.00
G1 X21.4111 Y14.1671 F300.00
G1 X21.4780 Y14.2922 F300.00
G1 X21.5681 Y14.4019 F300.00
G1 X21.6778 Y14.4920 F300.00
G1 X21.8029 Y14.5589 F300.00
G1 X21.9388 Y14.6001 F300.00
G1 X22.0800 Y14.6140 F300.00
G1 X22.2212 Y14.6001 F300.00
G1 X22.3571 Y14.5589 F300.00
G1 X22.4822 Y14.4920 F300.00
G1 X22.5919 Y14.4019 F300.00
G1 X22.6820 Y14.2922 F300.00
G1 X22.7489 Y14.1671 F300.00
G1 X22.7901 Y14.0312 F300.00
G1 X22.8040 Y13.8900 F300.00
G1 X22.7901 Y13.7488 F300.00
M5
G0 X22.7950 Y13.7985
G1 F60.00
M03 S255.0
G1 F300.00
G1 X22.7901 Y13.7488 F300.00
G1 X22.7901 Y13.7488 F300.00
M5
G0 X20.3874 Y13.7214
G1 F60.00
M03 S255.0
G1 F300.00
G1 X20.3382 Y13.5594 F300.00
G1 X20.2584 Y13.4100 F300.00
G1 X20.1509 Y13.2791 F300.00
G1 X20.0200 Y13.1716 F300.00
G1 X19.8706 Y13.0918 F300.00
G1 X19.7086 Y13.0426 F300.00
G1 X19.5400 Y13.0260 F300.00
G1 X19.3714 Y13.0426 F300.00
G1 X19.2094 Y13.0918 F300.00
G1 X19.0600 Y13.1716 F300.00
G1 X18.9291 Y13.2791 F300.00
G1 X18.8216 Y13.4100 F300.00
G1 X18.7418 Y13.5594 F300.00
G1 X18.6926 Y13.7214 F300.00
G1 X18.6760 Y13.8900 F300.00
G1 X18.6926 Y14.0586 F300.00
G1 X18.7418 Y14.2206 F300.00
G1 X18.8216 Y14.3700 F300.00
G1 X18.9291 Y14.5009 F300.00
G1 X19.0600 Y14.6084 F300.00
G1 X19.2094 Y14.6882 F300.00
G1 X19.3714 Y14.7374 F300.00
G1 X19.5400 Y14.7540 F300.00
G1 X19.7086 Y14.7374 F300.00
G1 X19.8706 Y14.6882 F300.00
G1 X20.0200 Y14.6084 F300.00
G1 X20.1509 Y14.5009 F300.00
G1 X20.2584 Y14.3700 F300.00
G1 X20.3382 Y14.2206 F300.00
G1 X20.3874 Y14.0586 F300.00
G1 X20.4040 Y13.8900 F300.00
G1 X20.3874 Y13.7214 F300.00
M5
G0 X20.3923 Y13.7712
G1 F60.00
M03 S255.0
G1 F300.00
G1 X20.3874 Y13.7214 F300.00
G1 X20.3874 Y13.7214 F300.00
M5
G0 X20.3187 Y13.7351
G1 F60.00
M03 S255.0
G1 F300.00
G1 X20.2736 Y13.5861 F300.00
G1 X20.2002 Y13.4489 F300.00
G1 X20.1014 Y13.3286 F300.00
G1 X19.9811 Y13.2298 F300.00
G1 X19.8439 Y13.1564 F300.00
G1 X19.6949 Y13.1113 F300.00
G1 X19.5400 Y13.0960 F300.00
G1 X19.3851 Y13.1113 F300.00
G1 X19.2361 Y13.1564 F300.00
G1 X19.0989 Y13.2298 F300.00
G1 X18.9786 Y13.3286 F300.00
G1 X18.8798 Y13.4489 F300.00
G1 X18.8064 Y13.5861 F300.00
G1 X18.7613 Y13.7351 F300.00
G1 X18.7460 Y13.8900 F300.00
G1 X18.7613 Y14.0449 F300.00
G1 X18.8064 Y14.1939 F300.00
G1 X18.8798 Y14.3311 F300.00
G1 X18.9786 Y14.4514 F300.00
G1 X19.0989 Y14.5502 F300.00
G1 X19.2361 Y14.6236 F300.00
G1 X19.3851 Y14.6687 F300.00
G1 X19.5400 Y14.6840 F300.00
G1 X19.6949 Y14.6687 F300.00
G1 X19.8439 Y14.6236 F300.00
G1 X19.9811 Y14.5502 F300.00
G1 X20.1014 Y14.4514 F300.00
G1 X20.2002 Y14.3311 F300.00
G1 X20.2736 Y14.1939 F300.00
G1 X20.3187 Y14.0449 F300.00
G1 X20.3340 Y13.8900 F300.00
G1 X20.3187 Y13.7351 F300.00
M5
G0 X20.3236 Y13.7849
G1 F60.00
M03 S255.0
G1 F300.00
G1 X20.3187 Y13.7351 F300.00
G1 X20.3187 Y13.7351 F300.00
M5
G0 X20.2501 Y13.7488
G1 F60.00
M03 S255.0
G1 F300.00
G1 X20.2089 Y13.6129 F300.00
G1 X20.1420 Y13.4878 F300.00
G1 X20.0519 Y13.3781 F300.00
G1 X19.9422 Y13.2880 F300.00
G1 X19.8171 Y13.2211 F300.00
G1 X19.6812 Y13.1799 F300.00
G1 X19.5400 Y13.1660 F300.00
G1 X19.3988 Y13.1799 F300.00
G1 X19.2629 Y13.2211 F300.00
G1 X19.1378 Y13.2880 F300.00
G1 X19.0281 Y13.3781 F300.00
G1 X18.9380 Y13.4878 F300.00
G1 X18.8711 Y13.6129 F300.00
G1 X18.8299 Y13.7488 F300.00
G1 X18.8160 Y13.8900 F300.00
G1 X18.8299 Y14.0312 F300.00
G1 X18.8711 Y14.1671 F300.00
G1 X18.9380 Y14.2922 F300.00
G1 X19.0281 Y14.4019 F300.00
G1 X19.1378 Y14.4920 F300.00
G1 X19.2629 Y14.5589 F300.00
G1 X19.3988 Y14.6001 F300.00
G1 X19.5400 Y14.6140 F300.00
G1 X19.6812 Y14.6001 F300.00
G1 X19.8171 Y14.5589 F300.00
G1 X19.9422 Y14.4920 F300.00
G1 X20.0519 Y14.4019 F300.00
G1 X20.1420 Y14.2922 F300.00
G1 X20.2089 Y14.1671 F300.00
G1 X20.2501 Y14.0312 F300.00
G1 X20.2640 Y13.8900 F300.00
G1 X20.2501 Y13.7488 F300.00
M5
G0 X20.2550 Y13.7985
G1 F60.00
M03 S255.0
G1 F300.00
G1 X20.2501 Y13.7488 F300.00
G1 X20.2501 Y13.7488 F300.00
M5
G0 X17.8490 Y13.7306
G1 F60.00
M03 S255.0
G1 F300.00
G1 X17.7982 Y13.5594 F300.00
G1 X17.7184 Y13.4100 F300.00
G1 X17.6109 Y13.2791 F300.00
G1 X17.4800 Y13.1716 F300.00
G1 X17.3306 Y13.0918 F300.00
G1 X17.1686 Y13.0426 F300.00
G1 X17.0000 Y13.0260 F300.00
G1 X16.8314 Y13.0426 F300.00
G1 X16.6694 Y13.0918 F300.00
G1 X16.5200 Y13.1716 F300.00
G1 X16.3891 Y13.2791 F300.00
G1 X16.2816 Y13.4100 F300.00
G1 X16.2018 Y13.5594 F300.00
G1 X16.1526 Y13.7214 F300.00
G1 X16.1360 Y13.8900 F300.00
G1 X16.1526 Y14.0586 F300.00
G1 X16.2018 Y14.2206 F300.00
G1 X16.2816 Y14.3700 F300.00
G1 X16.3891 Y14.5009 F300.00
G1 X16.5200 Y14.6084 F300.00
G1 X16.6694 Y14.6882 F300.00
G1 X16.8314 Y14.7374 F300.00
G1 X17.0000 Y14.7540 F300.00
G1 X17.1686 Y14.7374 F300.00
G1 X17.3306 Y14.6882 F300.00
G1 X17.4800 Y14.6084 F300.00
G1 X17.6109 Y14.5009 F300.00
G1 X17.7184 Y14.3700 F300.00
G1 X17.7982 Y14.2206 F300.00
G1 X17.8474 Y14.0586 F300.00
G1 X17.8640 Y13.8900 F300.00
G1 X17.8490 Y13.7306 F300.00
M5
G0 X17.8537 Y13.7804
G1 F60.00
M03 S255.0
G1 F300.00
G1 X17.8490 Y13.7306 F300.00
G1 X17.8490 Y13.7306 F300.00
M5
G0 X17.7798 Y13.7409
G1 F60.00
M03 S255.0
G1 F300.00
G1 X17.7336 Y13.5861 F300.00
G1 X17.6602 Y13.4489 F300.00
G1 X17.5614 Y13.3286 F300.00
G1 X17.4411 Y13.2298 F300.00
G1 X17.3039 Y13.1564 F300.00
G1 X17.1549 Y13.1113 F300.00
G1 X17.0000 Y13.0960 F300.00
G1 X16.8451 Y13.1113 F300.00
G1 X16.6961 Y13.1564 F300.00
G1 X16.5589 Y13.2298 F300.00
G1 X16.4386 Y13.3286 F300.00
G1 X16.3398 Y13.4489 F300.00
G1 X16.2664 Y13.5861 F300.00
G1 X16.2213 Y13.7351 F300.00
G1 X16.2060 Y13.8900 F300.00
G1 X16.2213 Y14.0449 F300.00
G1 X16.2664 Y14.1939 F300.00
G1 X16.3398 Y14.3311 F300.00
G1 X16.4386 Y14.4514 F300.00
G1 X16.5589 Y14.5502 F300.00
G1 X16.6961 Y14.6236 F300.00
G1 X16.8451 Y14.6687 F300.00
G1 X17.0000 Y14.6840 F300.00
G1 X17.1549 Y14.6687 F300.00
G1 X17.3039 Y14.6236 F300.00
G1 X17.4411 Y14.5502 F300.00
G1 X17.5614 Y14.4514 F300.00
G1 X17.6602 Y14.3311 F300.00
G1 X17.7336 Y14.1939 F300.00
G1 X17.7787 Y14.0449 F300.00
G1 X17.7940 Y13.8900 F300.00
G1 X17.7798 Y13.7409 F300.00
M5
G0 X17.7845 Y13.7907
G1 F60.00
M03 S255.0
G1 F300.00
G1 X17.7798 Y13.7409 F300.00
G1 X17.7798 Y13.7409 F300.00
M5
G0 X17.7105 Y13.7512
G1 F60.00
M03 S255.0
G1 F300.00
G1 X17.6689 Y13.6129 F300.00
G1 X17.6020 Y13.4878 F300.00
G1 X17.5119 Y13.3781 F300.00
G1 X17.4022 Y13.2880 F300.00
G1 X17.2771 Y13.2211 F300.00
G1 X17.1412 Y13.1799 F300.00
G1 X17.0000 Y13.1660 F300.00
G1 X16.8588 Y13.1799 F300.00
G1 X16.7229 Y13.2211 F300.00
G1 X16.5978 Y13.2880 F300.00
G1 X16.4881 Y13.3781 F300.00
G1 X16.3980 Y13.4878 F300.00
G1 X16.3311 Y13.6129 F300.00
G1 X16.2899 Y13.7488 F300.00
G1 X16.2760 Y13.8900 F300.00
G1 X16.2899 Y14.0312 F300.00
G1 X16.3311 Y14.1671 F300.00
G1 X16.3980 Y14.2922 F300.00
G1 X16.4881 Y14.4019 F300.00
G1 X16.5978 Y14.4920 F300.00
G1 X16.7229 Y14.5589 F300.00
G1 X16.8588 Y14.6001 F300.00
G1 X17.0000 Y14.6140 F300.00
G1 X17.1412 Y14.6001 F300.00
G1 X17.2771 Y14.5589 F300.00
G1 X17.4022 Y14.4920 F300.00
G1 X17.5119 Y14.4019 F300.00
G1 X17.6020 Y14.2922 F300.00
G1 X17.6689 Y14.1671 F300.00
G1 X17.7101 Y14.0312 F300.00
G1 X17.7240 Y13.8900 F300.00
G1 X17.7105 Y13.7512 F300.00
M5
G0 X17.7153 Y13.8009
G1 F60.00
M03 S255.0
G1 F300.00
G1 X17.7105 Y13.7512 F300.00
G1 X17.7105 Y13.7512 F300.00
M5
G0 X15.3074 Y13.7214
G1 F60.00
M03 S255.0
G1 F300.00
G1 X15.2582 Y13.5594 F300.00
G1 X15.1784 Y13.4100 F300.00
G1 X15.0709 Y13.2791 F300.00
G1 X14.9400 Y13.1716 F300.00
G1 X14.7906 Y13.0918 F300.00
G1 X14.6286 Y13.0426 F300.00
G1 X14.4600 Y13.0260 F300.00
G1 X14.2914 Y13.0426 F300.00
G1 X14.1294 Y13.0918 F300.00
G1 X13.9800 Y13.1716 F300.00
G1 X13.8491 Y13.2791 F300.00
G1 X13.7416 Y13.4100 F300.00
G1 X13.6618 Y13.5594 F300.00
G1 X13.6126 Y13.7214 F300.00
G1 X13.5960 Y13.8900 F300.00
G1 X13.6126 Y14.0586 F300.00
G1 X13.6618 Y14.2206 F300.00
G1 X13.7416 Y14.3700 F300.00
G1 X13.8491 Y14.5009 F300.00
G1 X13.9800 Y14.6084 F300.00
G1 X14.1294 Y14.6882 F300.00
G1 X14.2914 Y14.7374 F300.00
G1 X14.4600 Y14.7540 F300.00
G1 X14.6286 Y14.7374 F300.00
G1 X14.7906 Y14.6882 F300.00
G1 X14.9400 Y14.6084 F300.00
G1 X15.0709 Y14.5009 F300.00
G1 X15.1784 Y14.3700 F300.00
G1 X15.2582 Y14.2206 F300.00
G1 X15.3074 Y14.0586 F300.00
G1 X15.3240 Y13.8900 F300.00
G1 X15.3074 Y13.7214 F300.00
M5
G0 X15.3123 Y13.7712
G1 F60.00
M03 S255.0
G1 F300.00
G1 X15.3074 Y13.7214 F300.00
G1 X15.3074 Y13.7214 F300.00
M5
G0 X15.2387 Y13.7351
G1 F60.00
M03 S255.0
G1 F300.00
G1 X15.1936 Y13.5861 F300.00
G1 X15.1202 Y13.4489 F300.00
G1 X15.0214 Y13.3286 F300.00
G1 X14.9011 Y13.2298 F300.00
G1 X14.7639 Y13.1564 F300.00
G1 X14.6149 Y13.1113 F300.00
G1 X14.4600 Y13.0960 F300.00
G1 X14.3051 Y13.1113 F300.00
G1 X14.1561 Y13.1564 F300.00
G1 X14.0189 Y13.2298 F300.00
G1 X13.8986 Y13.3286 F300.00
G1 X13.7998 Y13.4489 F300.00
G1 X13.7264 Y13.5861 F300.00
G1 X13.6813 Y13.7351 F300.00
G1 X13.6660 Y13.8900 F300.00
G1 X13.6813 Y14.0449 F300.00
G1 X13.7264 Y14.1939 F300.00
G1 X13.7998 Y14.3311 F300.00
G1 X13.8986 Y14.4514 F300.00
G1 X14.0189 Y14.5502 F300.00
G1 X14.1561 Y14.6236 F300.00
G1 X14.3051 Y14.6687 F300.00
G1 X14.4600 Y14.6840 F300.00
G1 X14.6149 Y14.6687 F300.00
G1 X14.7639 Y14.6236 F300.00
G1 X14.9011 Y14.5502 F300.00
G1 X15.0214 Y14.4514 F300.00
G1 X15.1202 Y14.3311 F300.00
G1 X15.1936 Y14.1939 F300.00
G1 X15.2387 Y14.0449 F300.00
G1 X15.2540 Y13.8900 F300.00
G1 X15.2387 Y13.7351 F300.00
M5
G0 X15.2436 Y13.7849
G1 F60.00
M03 S255.0
G1 F300.00
G1 X15.2387 Y13.7351 F300.00
G1 X15.2387 Y13.7351 F300.00
M5
G0 X15.1701 Y13.7488
G1 F60.00
M03 S255.0
G1 F300.00
G1 X15.1289 Y13.6129 F300.00
G1 X15.0620 Y13.4878 F300.00
G1 X14.9719 Y13.3781 F300.00
G1 X14.8622 Y13.2880 F300.00
G1 X14.7371 Y13.2211 F300.00
G1 X14.6012 Y13.1799 F300.00
G1 X14.4600 Y13.1660 F300.00
G1 X14.3188 Y13.1799 F300.00
G1 X14.1829 Y13.2211 F300.00
G1 X14.0578 Y13.2880 F300.00
G1 X13.9481 Y13.3781 F300.00
G1 X13.8580 Y13.4878 F300.00
G1 X13.7911 Y13.6129 F300.00
G1 X13.7499 Y13.7488 F300.00
G1 X13.7360 Y13.8900 F300.00
G1 X13.7499 Y14.0312 F300.00
G1 X13.7911 Y14.1671 F300.00
G1 X13.8580 Y14.2922 F300.00
G1 X13.9481 Y14.4019 F300.00
G1 X14.0578 Y14.4920 F300.00
G1 X14.1829 Y14.5589 F300.00
G1 X14.3188 Y14.6001 F300.00
G1 X14.4600 Y14.6140 F300.00
G1 X14.6012 Y14.6001 F300.00
G1 X14.7371 Y14.5589 F300.00
G1 X14.8622 Y14.4920 F300.00
G1 X14.9719 Y14.4019 F300.00
G1 X15.0620 Y14.2922 F300.00
G1 X15.1289 Y14.1671 F300.00
G1 X15.1701 Y14.0312 F300.00
G1 X15.1840 Y13.8900 F300.00
G1 X15.1701 Y13.7488 F300.00
M5
G0 X15.1750 Y13.7985
G1 F60.00
M03 S255.0
G1 F300.00
G1 X15.1701 Y13.7488 F300.00
G1 X15.1701 Y13.7488 F300.00
M5
G0 X6.4221 Y16.7821
G1 F60.00
M03 S255.0
G1 F300.00
G1 X6.3604 Y16.8024 F300.00
G1 X6.3092 Y16.8424 F300.00
G1 X6.2745 Y16.8973 F300.00
G1 X6.2602 Y16.9607 F300.00
G1 X6.2601 Y18.6747 F300.00
G1 X6.2745 Y18.7427 F300.00
G1 X6.3092 Y18.7976 F300.00
G1 X6.3688 Y18.8418 F300.00
G1 X6.4500 Y18.8600 F300.00
G1 X8.1547 Y18.8599 F300.00
G1 X8.2227 Y18.8455 F300.00
G1 X8.2776 Y18.8108 F300.00
G1 X8.3255 Y18.7427 F300.00
G1 X8.3400 Y18.6700 F300.00
G1 X8.3399 Y16.9653 F300.00
G1 X8.3255 Y16.8973 F300.00
G1 X8.2908 Y16.8424 F300.00
G1 X8.2312 Y16.7982 F300.00
G1 X8.1547 Y16.7801 F300.00
G1 X6.4221 Y16.7821 F300.00
M5
G0 X6.4721 Y16.7820
G1 F60.00
M03 S255.0
G1 F300.00
G1 X6.4221 Y16.7821 F300.00
G1 X6.4221 Y16.7821 F300.00
M5
G0 X6.4324 Y16.8513
G1 F60.00
M03 S255.0
G1 F300.00
G1 X6.3934 Y16.8642 F300.00
G1 X6.3611 Y16.8894 F300.00
G1 X6.3391 Y16.9241 F300.00
G1 X6.3301 Y16.9641 F300.00
G1 X6.3300 Y18.6729 F300.00
G1 X6.3391 Y18.7159 F300.00
G1 X6.3611 Y18.7506 F300.00
G1 X6.3987 Y18.7785 F300.00
G1 X6.4500 Y18.7900 F300.00
G1 X8.1529 Y18.7900 F300.00
G1 X8.1959 Y18.7809 F300.00
G1 X8.2306 Y18.7589 F300.00
G1 X8.2609 Y18.7159 F300.00
G1 X8.2700 Y18.6700 F300.00
G1 X8.2700 Y16.9671 F300.00
G1 X8.2609 Y16.9241 F300.00
G1 X8.2389 Y16.8894 F300.00
G1 X8.2013 Y16.8615 F300.00
G1 X8.1529 Y16.8500 F300.00
G1 X6.4324 Y16.8513 F300.00
M5
G0 X6.4824 Y16.8513
G1 F60.00
M03 S255.0
G1 F300.00
G1 X6.4324 Y16.8513 F300.00
G1 X6.3934 Y16.8642 F300.00
G1 X6.4324 Y16.8513 F300.00
M5
G0 X6.4427 Y16.9205
G1 F60.00
M03 S255.0
G1 F300.00
G1 X6.4130 Y16.9364 F300.00
G1 X6.4000 Y16.9688 F300.00
G1 X6.4000 Y18.6700 F300.00
G1 X6.4146 Y18.7054 F300.00
G1 X6.4500 Y18.7200 F300.00
G1 X8.1500 Y18.7200 F300.00
G1 X8.1854 Y18.7054 F300.00
G1 X8.2000 Y18.6700 F300.00
G1 X8.2000 Y16.9700 F300.00
G1 X8.1854 Y16.9346 F300.00
G1 X8.1500 Y16.9200 F300.00
G1 X6.4427 Y16.9205 F300.00
M5
G0 X6.4927 Y16.9205
G1 F60.00
M03 S255.0
G1 F300.00
G1 X6.4427 Y16.9205 F300.00
G1 X6.4130 Y16.9364 F300.00
G1 X6.4427 Y16.9205 F300.00
M5
G0 X8.1831 Y20.1868
G1 F60.00
M03 S255.0
G1 F300.00
G1 X8.1315 Y20.0156 F300.00
G1 X8.0483 Y19.8600 F300.00
G1 X7.9364 Y19.7236 F300.00
G1 X7.8000 Y19.6117 F300.00
G1 X7.6444 Y19.5285 F300.00
G1 X7.4756 Y19.4773 F300.00
G1 X7.3000 Y19.4600 F300.00
G1 X7.1244 Y19.4773 F300.00
G1 X6.9556 Y19.5285 F300.00
G1 X6.8000 Y19.6117 F300.00
G1 X6.6636 Y19.7236 F300.00
G1 X6.5517 Y19.8600 F300.00
G1 X6.4685 Y20.0156 F300.00
G1 X6.4173 Y20.1844 F300.00
G1 X6.4000 Y20.3600 F300.00
G1 X6.4173 Y20.5356 F300.00
G1 X6.4685 Y20.7044 F300.00
G1 X6.5517 Y20.8600 F300.00
G1 X6.6636 Y20.9964 F300.00
G1 X6.8000 Y21.1083 F300.00
G1 X6.9556 Y21.1915 F300.00
G1 X7.1244 Y21.2427 F300.00
G1 X7.3000 Y21.2600 F300.00
G1 X7.4756 Y21.2427 F300.00
G1 X7.6444 Y21.1915 F300.00
G1 X7.8000 Y21.1083 F300.00
G1 X7.9364 Y20.9964 F300.00
G1 X8.0483 Y20.8600 F300.00
G1 X8.1315 Y20.7044 F300.00
G1 X8.1827 Y20.5356 F300.00
G1 X8.2000 Y20.3600 F300.00
G1 X8.1831 Y20.1868 F300.00
M5
G0 X8.1880 Y20.2366
G1 F60.00
M03 S255.0
G1 F300.00
G1 X8.1831 Y20.1868 F300.00
G1 X8.1831 Y20.1868 F300.00
M5
G0 X8.2524 Y20.1766
G1 F60.00
M03 S255.0
G1 F300.00
G1 X8.2282 Y20.0784 F300.00
G1 X8.1962 Y19.9888 F300.00
G1 X8.1065 Y19.8211 F300.00
G1 X7.9859 Y19.6741 F300.00
G1 X7.8389 Y19.5535 F300.00
G1 X7.6712 Y19.4638 F300.00
G1 X7.4892 Y19.4086 F300.00
G1 X7.3000 Y19.3900 F300.00
G1 X7.1108 Y19.4086 F300.00
G1 X6.9288 Y19.4638 F300.00
G1 X6.7611 Y19.5535 F300.00
G1 X6.6141 Y19.6741 F300.00
G1 X6.4935 Y19.8211 F300.00
G1 X6.4038 Y19.9888 F300.00
G1 X6.3486 Y20.1708 F300.00
G1 X6.3300 Y20.3600 F300.00
G1 X6.3486 Y20.5492 F300.00
G1 X6.4038 Y20.7312 F300.00
G1 X6.4935 Y20.8989 F300.00
G1 X6.6141 Y21.0459 F300.00
G1 X6.7611 Y21.1665 F300.00
G1 X6.9288 Y21.2562 F300.00
G1 X7.1108 Y21.3114 F300.00
G1 X7.3000 Y21.3300 F300.00
G1 X7.4892 Y21.3114 F300.00
G1 X7.6712 Y21.2562 F300.00
G1 X7.8389 Y21.1665 F300.00
G1 X7.9859 Y21.0459 F300.00
G1 X8.1065 Y20.8989 F300.00
G1 X8.1962 Y20.7312 F300.00
G1 X8.2514 Y20.5492 F300.00
G1 X8.2700 Y20.3600 F300.00
G1 X8.2524 Y20.1766 F300.00
M5
G0 X8.2572 Y20.2263
G1 F60.00
M03 S255.0
G1 F300.00
G1 X8.2524 Y20.1766 F300.00
G1 X8.2524 Y20.1766 F300.00
M5
G0 X8.3216 Y20.1663
G1 F60.00
M03 S255.0
G1 F300.00
G1 X8.2952 Y20.0581 F300.00
G1 X8.2608 Y19.9620 F300.00
G1 X8.2172 Y19.8697 F300.00
G1 X8.1647 Y19.7822 F300.00
G1 X8.1039 Y19.7002 F300.00
G1 X8.0354 Y19.6246 F300.00
G1 X7.9598 Y19.5561 F300.00
G1 X7.8778 Y19.4953 F300.00
G1 X7.7903 Y19.4428 F300.00
G1 X7.6980 Y19.3992 F300.00
G1 X7.6019 Y19.3648 F300.00
G1 X7.5029 Y19.3400 F300.00
G1 X7.4019 Y19.3250 F300.00
G1 X7.3000 Y19.3200 F300.00
G1 X7.1981 Y19.3250 F300.00
G1 X7.0971 Y19.3400 F300.00
G1 X6.9981 Y19.3648 F300.00
G1 X6.9020 Y19.3992 F300.00
G1 X6.8097 Y19.4428 F300.00
G1 X6.7222 Y19.4953 F300.00
G1 X6.6402 Y19.5561 F300.00
G1 X6.5646 Y19.6246 F300.00
G1 X6.4961 Y19.7002 F300.00
G1 X6.4353 Y19.7822 F300.00
G1 X6.3828 Y19.8697 F300.00
G1 X6.3392 Y19.9620 F300.00
G1 X6.3048 Y20.0581 F300.00
G1 X6.2800 Y20.1571 F300.00
G1 X6.2650 Y20.2581 F300.00
G1 X6.2600 Y20.3600 F300.00
G1 X6.2650 Y20.4619 F300.00
G1 X6.2800 Y20.5629 F300.00
G1 X6.3048 Y20.6619 F300.00
G1 X6.3392 Y20.7580 F300.00
G1 X6.3828 Y20.8503 F300.00
G1 X6.4353 Y20.9378 F300.00
G1 X6.4961 Y21.0198 F300.00
G1 X6.5646 Y21.0954 F300.00
G1 X6.6402 Y21.1639 F300.00
G1 X6.7222 Y21.2247 F300.00
G1 X6.8097 Y21.2772 F300.00
G1 X6.9020 Y21.3208 F300.00
G1 X6.9981 Y21.3552 F300.00
G1 X7.0971 Y21.3800 F300.00
G1 X7.1981 Y21.3950 F300.00
G1 X7.3000 Y21.4000 F300.00
G1 X7.4019 Y21.3950 F300.00
G1 X7.5029 Y21.3800 F300.00
G1 X7.6019 Y21.3552 F300.00
G1 X7.6980 Y21.3208 F300.00
G1 X7.7903 Y21.2772 F300.00
G1 X7.8778 Y21.2247 F300.00
G1 X7.9598 Y21.1639 F300.00
G1 X8.0354 Y21.0954 F300.00
G1 X8.1039 Y21.0198 F300.00
G1 X8.1647 Y20.9378 F300.00
G1 X8.2172 Y20.8503 F300.00
G1 X8.2608 Y20.7580 F300.00
G1 X8.2952 Y20.6619 F300.00
G1 X8.3200 Y20.5629 F300.00
G1 X8.3350 Y20.4619 F300.00
G1 X8.3400 Y20.3600 F300.00
G1 X8.3216 Y20.1663 F300.00
M5
G0 X8.3263 Y20.2161
G1 F60.00
M03 S255.0
G1 F300.00
G1 X8.3216 Y20.1663 F300.00
G1 X8.3216 Y20.1663 F300.00
M5
G0 X8.3200 Y22.6971
G1 F60.00
M03 S255.0
G1 F300.00
G1 X8.2952 Y22.5981 F300.00
G1 X8.2608 Y22.5020 F300.00
G1 X8.2172 Y22.4097 F300.00
G1 X8.1647 Y22.3222 F300.00
G1 X8.1039 Y22.2402 F300.00
G1 X8.0354 Y22.1646 F300.00
G1 X7.9598 Y22.0961 F300.00
G1 X7.8778 Y22.0353 F300.00
G1 X7.7903 Y21.9828 F300.00
G1 X7.6980 Y21.9392 F300.00
G1 X7.6019 Y21.9048 F300.00
G1 X7.5029 Y21.8800 F300.00
G1 X7.4019 Y21.8650 F300.00
G1 X7.3000 Y21.8600 F300.00
G1 X7.1981 Y21.8650 F300.00
G1 X7.0971 Y21.8800 F300.00
G1 X6.9981 Y21.9048 F300.00
G1 X6.9020 Y21.9392 F300.00
G1 X6.8097 Y21.9828 F300.00
G1 X6.7222 Y22.0353 F300.00
G1 X6.6402 Y22.0961 F300.00
G1 X6.5646 Y22.1646 F300.00
G1 X6.4961 Y22.2402 F300.00
G1 X6.4353 Y22.3222 F300.00
G1 X6.3828 Y22.4097 F300.00
G1 X6.3392 Y22.5020 F300.00
G1 X6.3048 Y22.5981 F300.00
G1 X6.2800 Y22.6971 F300.00
G1 X6.2650 Y22.7981 F300.00
G1 X6.2600 Y22.9000 F300.00
G1 X6.2650 Y23.0019 F300.00
G1 X6.2800 Y23.1029 F300.00
G1 X6.3048 Y23.2019 F300.00
G1 X6.3392 Y23.2980 F300.00
G1 X6.3828 Y23.3903 F300.00
G1 X6.4353 Y23.4778 F300.00
G1 X6.4961 Y23.5598 F300.00
G1 X6.5646 Y23.6354 F300.00
G1 X6.6402 Y23.7039 F300.00
G1 X6.7222 Y23.7647 F300.00
G1 X6.8097 Y23.8172 F300.00
G1 X6.9020 Y23.8608 F300.00
G1 X6.9981 Y23.8952 F300.00
G1 X7.0971 Y23.9200 F300.00
G1 X7.1981 Y23.9350 F300.00
G1 X7.3000 Y23.9400 F300.00
G1 X7.4019 Y23.9350 F300.00
G1 X7.5029 Y23.9200 F300.00
G1 X7.6019 Y23.8952 F300.00
G1 X7.6980 Y23.8608 F300.00
G1 X7.7903 Y23.8172 F300.00
G1 X7.8778 Y23.7647 F300.00
G1 X7.9598 Y23.7039 F300.00
G1 X8.0354 Y23.6354 F300.00
G1 X8.1039 Y23.5598 F300.00
G1 X8.1647 Y23.4778 F300.00
G1 X8.2172 Y23.3903 F300.00
G1 X8.2608 Y23.2980 F300.00
G1 X8.2952 Y23.2019 F300.00
G1 X8.3200 Y23.1029 F300.00
G1 X8.3350 Y23.0019 F300.00
G1 X8.3400 Y22.9000 F300.00
G1 X8.3350 Y22.7981 F300.00
G1 X8.3200 Y22.6971 F300.00
M5
G0 X8.3274 Y22.7466
G1 F60.00
M03 S255.0
G1 F300.00
G1 X8.3200 Y22.6971 F300.00
G1 X8.3200 Y22.6971 F300.00
M5
G0 X8.2514 Y22.7108
G1 F60.00
M03 S255.0
G1 F300.00
G1 X8.1962 Y22.5288 F300.00
G1 X8.1065 Y22.3611 F300.00
G1 X7.9859 Y22.2141 F300.00
G1 X7.8389 Y22.0935 F300.00
G1 X7.6712 Y22.0038 F300.00
G1 X7.4892 Y21.9486 F300.00
G1 X7.3000 Y21.9300 F300.00
G1 X7.1108 Y21.9486 F300.00
G1 X6.9288 Y22.0038 F300.00
G1 X6.7611 Y22.0935 F300.00
G1 X6.6141 Y22.2141 F300.00
G1 X6.4935 Y22.3611 F300.00
G1 X6.4038 Y22.5288 F300.00
G1 X6.3486 Y22.7108 F300.00
G1 X6.3300 Y22.9000 F300.00
G1 X6.3486 Y23.0892 F300.00
G1 X6.4038 Y23.2712 F300.00
G1 X6.4935 Y23.4389 F300.00
G1 X6.6141 Y23.5859 F300.00
G1 X6.7611 Y23.7065 F300.00
G1 X6.9288 Y23.7962 F300.00
G1 X7.1108 Y23.8514 F300.00
G1 X7.3000 Y23.8700 F300.00
G1 X7.4892 Y23.8514 F300.00
G1 X7.6712 Y23.7962 F300.00
G1 X7.8389 Y23.7065 F300.00
G1 X7.9859 Y23.5859 F300.00
G1 X8.1065 Y23.4389 F300.00
G1 X8.1962 Y23.2712 F300.00
G1 X8.2514 Y23.0892 F300.00
G1 X8.2700 Y22.9000 F300.00
G1 X8.2514 Y22.7108 F300.00
M5
G0 X8.2563 Y22.7605
G1 F60.00
M03 S255.0
G1 F300.00
G1 X8.2514 Y22.7108 F300.00
G1 X8.2514 Y22.7108 F300.00
M5
G0 X8.1827 Y22.7244
G1 F60.00
M03 S255.0
G1 F300.00
G1 X8.1315 Y22.5556 F300.00
G1 X8.0483 Y22.4000 F300.00
G1 X7.9364 Y22.2636 F300.00
G1 X7.8000 Y22.1517 F300.00
G1 X7.6444 Y22.0685 F300.00
G1 X7.4756 Y22.0173 F300.00
G1 X7.3000 Y22.0000 F300.00
G1 X7.1244 Y22.0173 F300.00
G1 X6.9556 Y22.0685 F300.00
G1 X6.8000 Y22.1517 F300.00
G1 X6.6636 Y22.2636 F300.00
G1 X6.5517 Y22.4000 F300.00
G1 X6.4685 Y22.5556 F300.00
G1 X6.4173 Y22.7244 F300.00
G1 X6.4000 Y22.9000 F300.00
G1 X6.4173 Y23.0756 F300.00
G1 X6.4685 Y23.2444 F300.00
G1 X6.5517 Y23.4000 F300.00
G1 X6.6636 Y23.5364 F300.00
G1 X6.8000 Y23.6483 F300.00
G1 X6.9556 Y23.7315 F300.00
G1 X7.1244 Y23.7827 F300.00
G1 X7.3000 Y23.8000 F300.00
G1 X7.4756 Y23.7827 F300.00
G1 X7.6444 Y23.7315 F300.00
G1 X7.8000 Y23.6483 F300.00
G1 X7.9364 Y23.5364 F300.00
G1 X8.0483 Y23.4000 F300.00
G1 X8.1315 Y23.2444 F300.00
G1 X8.1827 Y23.0756 F300.00
G1 X8.2000 Y22.9000 F300.00
G1 X8.1827 Y22.7244 F300.00
M5
G0 X8.1876 Y22.7742
G1 F60.00
M03 S255.0
G1 F300.00
G1 X8.1827 Y22.7244 F300.00
G1 X8.1827 Y22.7244 F300.00
M5
G0 X8.3200 Y25.2371
G1 F60.00
M03 S255.0
G1 F300.00
G1 X8.2952 Y25.1381 F300.00
G1 X8.2608 Y25.0420 F300.00
G1 X8.2172 Y24.9497 F300.00
G1 X8.1647 Y24.8622 F300.00
G1 X8.1039 Y24.7802 F300.00
G1 X8.0354 Y24.7046 F300.00
G1 X7.9598 Y24.6361 F300.00
G1 X7.8778 Y24.5753 F300.00
G1 X7.7903 Y24.5228 F300.00
G1 X7.6980 Y24.4792 F300.00
G1 X7.6019 Y24.4448 F300.00
G1 X7.5029 Y24.4200 F300.00
G1 X7.4019 Y24.4050 F300.00
G1 X7.3000 Y24.4000 F300.00
G1 X7.1981 Y24.4050 F300.00
G1 X7.0971 Y24.4200 F300.00
G1 X6.9981 Y24.4448 F300.00
G1 X6.9020 Y24.4792 F300.00
G1 X6.8097 Y24.5228 F300.00
G1 X6.7222 Y24.5753 F300.00
G1 X6.6402 Y24.6361 F300.00
G1 X6.5646 Y24.7046 F300.00
G1 X6.4961 Y24.7802 F300.00
G1 X6.4353 Y24.8622 F300.00
G1 X6.3828 Y24.9497 F300.00
G1 X6.3392 Y25.0420 F300.00
G1 X6.3048 Y25.1381 F300.00
G1 X6.2800 Y25.2371 F300.00
G1 X6.2650 Y25.3381 F300.00
G1 X6.2600 Y25.4400 F300.00
G1 X6.2650 Y25.5419 F300.00
G1 X6.2800 Y25.6429 F300.00
G1 X6.3048 Y25.7419 F300.00
G1 X6.3392 Y25.8380 F300.00
G1 X6.3828 Y25.9303 F300.00
G1 X6.4353 Y26.0178 F300.00
G1 X6.4961 Y26.0998 F300.00
G1 X6.5646 Y26.1754 F300.00
G1 X6.6402 Y26.2439 F300.00
G1 X6.7222 Y26.3047 F300.00
G1 X6.8097 Y26.3572 F300.00
G1 X6.9020 Y26.4008 F300.00
G1 X6.9981 Y26.4352 F300.00
G1 X7.0971 Y26.4600 F300.00
G1 X7.1981 Y26.4750 F300.00
G1 X7.3000 Y26.4800 F300.00
G1 X7.4019 Y26.4750 F300.00
G1 X7.5029 Y26.4600 F300.00
G1 X7.6019 Y26.4352 F300.00
G1 X7.6980 Y26.4008 F300.00
G1 X7.7903 Y26.3572 F300.00
G1 X7.8778 Y26.3047 F300.00
G1 X7.9598 Y26.2439 F300.00
G1 X8.0354 Y26.1754 F300.00
G1 X8.1039 Y26.0998 F300.00
G1 X8.1647 Y26.0178 F300.00
G1 X8.2172 Y25.9303 F300.00
G1 X8.2608 Y25.8380 F300.00
G1 X8.2952 Y25.7419 F300.00
G1 X8.3200 Y25.6429 F300.00
G1 X8.3350 Y25.5419 F300.00
G1 X8.3400 Y25.4400 F300.00
G1 X8.3350 Y25.3381 F300.00
G1 X8.3200 Y25.2371 F300.00
M5
G0 X8.3274 Y25.2866
G1 F60.00
M03 S255.0
G1 F300.00
G1 X8.3200 Y25.2371 F300.00
G1 X8.3200 Y25.2371 F300.00
M5
G0 X8.2514 Y25.2508
G1 F60.00
M03 S255.0
G1 F300.00
G1 X8.1962 Y25.0688 F300.00
G1 X8.1065 Y24.9011 F300.00
G1 X7.9859 Y24.7541 F300.00
G1 X7.8389 Y24.6335 F300.00
G1 X7.6712 Y24.5438 F300.00
G1 X7.4892 Y24.4886 F300.00
G1 X7.3000 Y24.4700 F300.00
G1 X7.1108 Y24.4886 F300.00
G1 X6.9288 Y24.5438 F300.00
G1 X6.7611 Y24.6335 F300.00
G1 X6.6141 Y24.7541 F300.00
G1 X6.4935 Y24.9011 F300.00
G1 X6.4038 Y25.0688 F300.00
G1 X6.3486 Y25.2508 F300.00
G1 X6.3300 Y25.4400 F300.00
G1 X6.3486 Y25.6292 F300.00
G1 X6.4038 Y25.8112 F300.00
G1 X6.4935 Y25.9789 F300.00
G1 X6.6141 Y26.1259 F300.00
G1 X6.7611 Y26.2465 F300.00
G1 X6.9288 Y26.3362 F300.00
G1 X7.1108 Y26.3914 F300.00
G1 X7.3000 Y26.4100 F300.00
G1 X7.4892 Y26.3914 F300.00
G1 X7.6712 Y26.3362 F300.00
G1 X7.8389 Y26.2465 F300.00
G1 X7.9859 Y26.1259 F300.00
G1 X8.1065 Y25.9789 F300.00
G1 X8.1962 Y25.8112 F300.00
G1 X8.2514 Y25.6292 F300.00
G1 X8.2700 Y25.4400 F300.00
G1 X8.2514 Y25.2508 F300.00
M5
G0 X8.2563 Y25.3005
G1 F60.00
M03 S255.0
G1 F300.00
G1 X8.2514 Y25.2508 F300.00
G1 X8.2514 Y25.2508 F300.00
M5
G0 X8.1827 Y25.2644
G1 F60.00
M03 S255.0
G1 F300.00
G1 X8.1315 Y25.0956 F300.00
G1 X8.0483 Y24.9400 F300.00
G1 X7.9364 Y24.8036 F300.00
G1 X7.8000 Y24.6917 F300.00
G1 X7.6444 Y24.6085 F300.00
G1 X7.4756 Y24.5573 F300.00
G1 X7.3000 Y24.5400 F300.00
G1 X7.1244 Y24.5573 F300.00
G1 X6.9556 Y24.6085 F300.00
G1 X6.8000 Y24.6917 F300.00
G1 X6.6636 Y24.8036 F300.00
G1 X6.5517 Y24.9400 F300.00
G1 X6.4685 Y25.0956 F300.00
G1 X6.4173 Y25.2644 F300.00
G1 X6.4000 Y25.4400 F300.00
G1 X6.4173 Y25.6156 F300.00
G1 X6.4685 Y25.7844 F300.00
G1 X6.5517 Y25.9400 F300.00
G1 X6.6636 Y26.0764 F300.00
G1 X6.8000 Y26.1883 F300.00
G1 X6.9556 Y26.2715 F300.00
G1 X7.1244 Y26.3227 F300.00
G1 X7.3000 Y26.3400 F300.00
G1 X7.4756 Y26.3227 F300.00
G1 X7.6444 Y26.2715 F300.00
G1 X7.8000 Y26.1883 F300.00
G1 X7.9364 Y26.0764 F300.00
G1 X8.0483 Y25.9400 F300.00
G1 X8.1315 Y25.7844 F300.00
G1 X8.1827 Y25.6156 F300.00
G1 X8.2000 Y25.4400 F300.00
G1 X8.1827 Y25.2644 F300.00
M5
G0 X8.1876 Y25.3142
G1 F60.00
M03 S255.0
G1 F300.00
G1 X8.1827 Y25.2644 F300.00
G1 X8.1827 Y25.2644 F300.00
M5
G0 X15.1705 Y28.9912
G1 F60.00
M03 S255.0
G1 F300.00
G1 X15.1289 Y28.8529 F300.00
G1 X15.0620 Y28.7278 F300.00
G1 X14.9719 Y28.6181 F300.00
G1 X14.8622 Y28.5280 F300.00
G1 X14.7371 Y28.4611 F300.00
G1 X14.6012 Y28.4199 F300.00
G1 X14.4600 Y28.4060 F300.00
G1 X14.3188 Y28.4199 F300.00
G1 X14.1829 Y28.4611 F300.00
G1 X14.0578 Y28.5280 F300.00
G1 X13.9481 Y28.6181 F300.00
G1 X13.8580 Y28.7278 F300.00
G1 X13.7911 Y28.8529 F300.00
G1 X13.7499 Y28.9888 F300.00
G1 X13.7360 Y29.1300 F300.00
G1 X13.7499 Y29.2712 F300.00
G1 X13.7911 Y29.4071 F300.00
G1 X13.8580 Y29.5322 F300.00
G1 X13.9481 Y29.6419 F300.00
G1 X14.0578 Y29.7320 F300.00
G1 X14.1829 Y29.7989 F300.00
G1 X14.3188 Y29.8401 F300.00
G1 X14.4600 Y29.8540 F300.00
G1 X14.6012 Y29.8401 F300.00
G1 X14.7371 Y29.7989 F300.00
G1 X14.8622 Y29.7320 F300.00
G1 X14.9719 Y29.6419 F300.00
G1 X15.0620 Y29.5322 F300.00
G1 X15.1289 Y29.4071 F300.00
G1 X15.1701 Y29.2712 F300.00
G1 X15.1840 Y29.1300 F300.00
G1 X15.1705 Y28.9912 F300.00
M5
G0 X15.1753 Y29.0409
G1 F60.00
M03 S255.0
G1 F300.00
G1 X15.1705 Y28.9912 F300.00
G1 X15.1705 Y28.9912 F300.00
M5
G0 X15.2398 Y28.9809
G1 F60.00
M03 S255.0
G1 F300.00
G1 X15.1936 Y28.8261 F300.00
G1 X15.1202 Y28.6889 F300.00
G1 X15.0214 Y28.5686 F300.00
G1 X14.9011 Y28.4698 F300.00
G1 X14.7639 Y28.3964 F300.00
G1 X14.6149 Y28.3513 F300.00
G1 X14.4600 Y28.3360 F300.00
G1 X14.3051 Y28.3513 F300.00
G1 X14.1561 Y28.3964 F300.00
G1 X14.0189 Y28.4698 F300.00
G1 X13.8986 Y28.5686 F300.00
G1 X13.7998 Y28.6889 F300.00
G1 X13.7264 Y28.8261 F300.00
G1 X13.6813 Y28.9751 F300.00
G1 X13.6660 Y29.1300 F300.00
G1 X13.6813 Y29.2849 F300.00
G1 X13.7264 Y29.4339 F300.00
G1 X13.7998 Y29.5711 F300.00
G1 X13.8986 Y29.6914 F300.00
G1 X14.0189 Y29.7902 F300.00
G1 X14.1561 Y29.8636 F300.00
G1 X14.3051 Y29.9087 F300.00
G1 X14.4600 Y29.9240 F300.00
G1 X14.6149 Y29.9087 F300.00
G1 X14.7639 Y29.8636 F300.00
G1 X14.9011 Y29.7902 F300.00
G1 X15.0214 Y29.6914 F300.00
G1 X15.1202 Y29.5711 F300.00
G1 X15.1936 Y29.4339 F300.00
G1 X15.2387 Y29.2849 F300.00
G1 X15.2540 Y29.1300 F300.00
G1 X15.2398 Y28.9809 F300.00
M5
G0 X15.2445 Y29.0307
G1 F60.00
M03 S255.0
G1 F300.00
G1 X15.2398 Y28.9809 F300.00
G1 X15.2398 Y28.9809 F300.00
M5
G0 X15.3090 Y28.9706
G1 F60.00
M03 S255.0
G1 F300.00
G1 X15.2582 Y28.7994 F300.00
G1 X15.1784 Y28.6500 F300.00
G1 X15.0709 Y28.5191 F300.00
G1 X14.9400 Y28.4116 F300.00
G1 X14.7906 Y28.3318 F300.00
G1 X14.6286 Y28.2826 F300.00
G1 X14.4600 Y28.2660 F300.00
G1 X14.2914 Y28.2826 F300.00
G1 X14.1294 Y28.3318 F300.00
G1 X13.9800 Y28.4116 F300.00
G1 X13.8491 Y28.5191 F300.00
G1 X13.7416 Y28.6500 F300.00
G1 X13.6618 Y28.7994 F300.00
G1 X13.6126 Y28.9614 F300.00
G1 X13.5960 Y29.1300 F300.00
G1 X13.6126 Y29.2986 F300.00
G1 X13.6618 Y29.4606 F300.00
G1 X13.7416 Y29.6100 F300.00
G1 X13.8491 Y29.7409 F300.00
G1 X13.9800 Y29.8484 F300.00
G1 X14.1294 Y29.9282 F300.00
G1 X14.2914 Y29.9774 F300.00
G1 X14.4600 Y29.9940 F300.00
G1 X14.6286 Y29.9774 F300.00
G1 X14.7906 Y29.9282 F300.00
G1 X14.9400 Y29.8484 F300.00
G1 X15.0709 Y29.7409 F300.00
G1 X15.1784 Y29.6100 F300.00
G1 X15.2582 Y29.4606 F300.00
G1 X15.3074 Y29.2986 F300.00
G1 X15.3240 Y29.1300 F300.00
G1 X15.3090 Y28.9706 F300.00
M5
G0 X15.3137 Y29.0204
G1 F60.00
M03 S255.0
G1 F300.00
G1 X15.3090 Y28.9706 F300.00
G1 X15.3090 Y28.9706 F300.00
M5
G0 X17.7101 Y28.9888
G1 F60.00
M03 S255.0
G1 F300.00
G1 X17.6689 Y28.8529 F300.00
G1 X17.6020 Y28.7278 F300.00
G1 X17.5119 Y28.6181 F300.00
G1 X17.4022 Y28.5280 F300.00
G1 X17.2771 Y28.4611 F300.00
G1 X17.1412 Y28.4199 F300.00
G1 X17.0000 Y28.4060 F300.00
G1 X16.8588 Y28.4199 F300.00
G1 X16.7229 Y28.4611 F300.00
G1 X16.5978 Y28.5280 F300.00
G1 X16.4881 Y28.6181 F300.00
G1 X16.3980 Y28.7278 F300.00
G1 X16.3311 Y28.8529 F300.00
G1 X16.2899 Y28.9888 F300.00
G1 X16.2760 Y29.1300 F300.00
G1 X16.2899 Y29.2712 F300.00
G1 X16.3311 Y29.4071 F300.00
G1 X16.3980 Y29.5322 F300.00
G1 X16.4881 Y29.6419 F300.00
G1 X16.5978 Y29.7320 F300.00
G1 X16.7229 Y29.7989 F300.00
G1 X16.8588 Y29.8401 F300.00
G1 X17.0000 Y29.8540 F300.00
G1 X17.1412 Y29.8401 F300.00
G1 X17.2771 Y29.7989 F300.00
G1 X17.4022 Y29.7320 F300.00
G1 X17.5119 Y29.6419 F300.00
G1 X17.6020 Y29.5322 F300.00
G1 X17.6689 Y29.4071 F300.00
G1 X17.7101 Y29.2712 F300.00
G1 X17.7240 Y29.1300 F300.00
G1 X17.7101 Y28.9888 F300.00
M5
G0 X17.7150 Y29.0385
G1 F60.00
M03 S255.0
G1 F300.00
G1 X17.7101 Y28.9888 F300.00
G1 X17.7101 Y28.9888 F300.00
M5
G0 X17.7787 Y28.9751
G1 F60.00
M03 S255.0
G1 F300.00
G1 X17.7336 Y28.8261 F300.00
G1 X17.6602 Y28.6889 F300.00
G1 X17.5614 Y28.5686 F300.00
G1 X17.4411 Y28.4698 F300.00
G1 X17.3039 Y28.3964 F300.00
G1 X17.1549 Y28.3513 F300.00
G1 X17.0000 Y28.3360 F300.00
G1 X16.8451 Y28.3513 F300.00
G1 X16.6961 Y28.3964 F300.00
G1 X16.5589 Y28.4698 F300.00
G1 X16.4386 Y28.5686 F300.00
G1 X16.3398 Y28.6889 F300.00
G1 X16.2664 Y28.8261 F300.00
G1 X16.2213 Y28.9751 F300.00
G1 X16.2060 Y29.1300 F300.00
G1 X16.2213 Y29.2849 F300.00
G1 X16.2664 Y29.4339 F300.00
G1 X16.3398 Y29.5711 F300.00
G1 X16.4386 Y29.6914 F300.00
G1 X16.5589 Y29.7902 F300.00
G1 X16.6961 Y29.8636 F300.00
G1 X16.8451 Y29.9087 F300.00
G1 X17.0000 Y29.9240 F300.00
G1 X17.1549 Y29.9087 F300.00
G1 X17.3039 Y29.8636 F300.00
G1 X17.4411 Y29.7902 F300.00
G1 X17.5614 Y29.6914 F300.00
G1 X17.6602 Y29.5711 F300.00
G1 X17.7336 Y29.4339 F300.00
G1 X17.7787 Y29.2849 F300.00
G1 X17.7940 Y29.1300 F300.00
G1 X17.7787 Y28.9751 F300.00
M5
G0 X17.7836 Y29.0249
G1 F60.00
M03 S255.0
G1 F300.00
G1 X17.7787 Y28.9751 F300.00
G1 X17.7787 Y28.9751 F300.00
M5
G0 X17.8474 Y28.9614
G1 F60.00
M03 S255.0
G1 F300.00
G1 X17.7982 Y28.7994 F300.00
G1 X17.7184 Y28.6500 F300.00
G1 X17.6109 Y28.5191 F300.00
G1 X17.4800 Y28.4116 F300.00
G1 X17.3306 Y28.3318 F300.00
G1 X17.1686 Y28.2826 F300.00
G1 X17.0000 Y28.2660 F300.00
G1 X16.8314 Y28.2826 F300.00
G1 X16.6694 Y28.3318 F300.00
G1 X16.5200 Y28.4116 F300.00
G1 X16.3891 Y28.5191 F300.00
G1 X16.2816 Y28.6500 F300.00
G1 X16.2018 Y28.7994 F300.00
G1 X16.1526 Y28.9614 F300.00
G1 X16.1360 Y29.1300 F300.00
G1 X16.1526 Y29.2986 F300.00
G1 X16.2018 Y29.4606 F300.00
G1 X16.2816 Y29.6100 F300.00
G1 X16.3891 Y29.7409 F300.00
G1 X16.5200 Y29.8484 F300.00
G1 X16.6694 Y29.9282 F300.00
G1 X16.8314 Y29.9774 F300.00
G1 X17.0000 Y29.9940 F300.00
G1 X17.1686 Y29.9774 F300.00
G1 X17.3306 Y29.9282 F300.00
G1 X17.4800 Y29.8484 F300.00
G1 X17.6109 Y29.7409 F300.00
G1 X17.7184 Y29.6100 F300.00
G1 X17.7982 Y29.4606 F300.00
G1 X17.8474 Y29.2986 F300.00
G1 X17.8640 Y29.1300 F300.00
G1 X17.8474 Y28.9614 F300.00
M5
G0 X17.8523 Y29.0112
G1 F60.00
M03 S255.0
G1 F300.00
G1 X17.8474 Y28.9614 F300.00
G1 X17.8474 Y28.9614 F300.00
M5
G0 X20.2501 Y28.9888
G1 F60.00
M03 S255.0
G1 F300.00
G1 X20.2089 Y28.8529 F300.00
G1 X20.1420 Y28.7278 F300.00
G1 X20.0519 Y28.6181 F300.00
G1 X19.9422 Y28.5280 F300.00
G1 X19.8171 Y28.4611 F300.00
G1 X19.6812 Y28.4199 F300.00
G1 X19.5400 Y28.4060 F300.00
G1 X19.3988 Y28.4199 F300.00
G1 X19.2629 Y28.4611 F300.00
G1 X19.1378 Y28.5280 F300.00
G1 X19.0281 Y28.6181 F300.00
G1 X18.9380 Y28.7278 F300.00
G1 X18.8711 Y28.8529 F300.00
G1 X18.8299 Y28.9888 F300.00
G1 X18.8160 Y29.1300 F300.00
G1 X18.8299 Y29.2712 F300.00
G1 X18.8711 Y29.4071 F300.00
G1 X18.9380 Y29.5322 F300.00
G1 X19.0281 Y29.6419 F300.00
G1 X19.1378 Y29.7320 F300.00
G1 X19.2629 Y29.7989 F300.00
G1 X19.3988 Y29.8401 F300.00
G1 X19.5400 Y29.8540 F300.00
G1 X19.6812 Y29.8401 F300.00
G1 X19.8171 Y29.7989 F300.00
G1 X19.9422 Y29.7320 F300.00
G1 X20.0519 Y29.6419 F300.00
G1 X20.1420 Y29.5322 F300.00
G1 X20.2089 Y29.4071 F300.00
G1 X20.2501 Y29.2712 F300.00
G1 X20.2640 Y29.1300 F300.00
G1 X20.2501 Y28.9888 F300.00
M5
G0 X20.2550 Y29.0385
G1 F60.00
M03 S255.0
G1 F300.00
G1 X20.2501 Y28.9888 F300.00
G1 X20.2501 Y28.9888 F300.00
M5
G0 X20.3187 Y28.9751
G1 F60.00
M03 S255.0
G1 F300.00
G1 X20.2736 Y28.8261 F300.00
G1 X20.2002 Y28.6889 F300.00
G1 X20.1014 Y28.5686 F300.00
G1 X19.9811 Y28.4698 F300.00
G1 X19.8439 Y28.3964 F300.00
G1 X19.6949 Y28.3513 F300.00
G1 X19.5400 Y28.3360 F300.00
G1 X19.3851 Y28.3513 F300.00
G1 X19.2361 Y28.3964 F300.00
G1 X19.0989 Y28.4698 F300.00
G1 X18.9786 Y28.5686 F300.00
G1 X18.8798 Y28.6889 F300.00
G1 X18.8064 Y28.8261 F300.00
G1 X18.7613 Y28.9751 F300.00
G1 X18.7460 Y29.1300 F300.00
G1 X18.7613 Y29.2849 F300.00
G1 X18.8064 Y29.4339 F300.00
G1 X18.8798 Y29.5711 F300.00
G1 X18.9786 Y29.6914 F300.00
G1 X19.0989 Y29.7902 F300.00
G1 X19.2361 Y29.8636 F300.00
G1 X19.3851 Y29.9087 F300.00
G1 X19.5400 Y29.9240 F300.00
G1 X19.6949 Y29.9087 F300.00
G1 X19.8439 Y29.8636 F300.00
G1 X19.9811 Y29.7902 F300.00
G1 X20.1014 Y29.6914 F300.00
G1 X20.2002 Y29.5711 F300.00
G1 X20.2736 Y29.4339 F300.00
G1 X20.3187 Y29.2849 F300.00
G1 X20.3340 Y29.1300 F300.00
G1 X20.3187 Y28.9751 F300.00
M5
G0 X20.3236 Y29.0249
G1 F60.00
M03 S255.0
G1 F300.00
G1 X20.3187 Y28.9751 F300.00
G1 X20.3187 Y28.9751 F300.00
M5
G0 X20.3874 Y28.9614
G1 F60.00
M03 S255.0
G1 F300.00
G1 X20.3382 Y28.7994 F300.00
G1 X20.2584 Y28.6500 F300.00
G1 X20.1509 Y28.5191 F300.00
G1 X20.0200 Y28.4116 F300.00
G1 X19.8706 Y28.3318 F300.00
G1 X19.7086 Y28.2826 F300.00
G1 X19.5400 Y28.2660 F300.00
G1 X19.3714 Y28.2826 F300.00
G1 X19.2094 Y28.3318 F300.00
G1 X19.0600 Y28.4116 F300.00
G1 X18.9291 Y28.5191 F300.00
G1 X18.8216 Y28.6500 F300.00
G1 X18.7418 Y28.7994 F300.00
G1 X18.6926 Y28.9614 F300.00
G1 X18.6760 Y29.1300 F300.00
G1 X18.6926 Y29.2986 F300.00
G1 X18.7418 Y29.4606 F300.00
G1 X18.8216 Y29.6100 F300.00
G1 X18.9291 Y29.7409 F300.00
G1 X19.0600 Y29.8484 F300.00
G1 X19.2094 Y29.9282 F300.00
G1 X19.3714 Y29.9774 F300.00
G1 X19.5400 Y29.9940 F300.00
G1 X19.7086 Y29.9774 F300.00
G1 X19.8706 Y29.9282 F300.00
G1 X20.0200 Y29.8484 F300.00
G1 X20.1509 Y29.7409 F300.00
G1 X20.2584 Y29.6100 F300.00
G1 X20.3382 Y29.4606 F300.00
G1 X20.3874 Y29.2986 F300.00
G1 X20.4040 Y29.1300 F300.00
G1 X20.3874 Y28.9614 F300.00
M5
G0 X20.3923 Y29.0112
G1 F60.00
M03 S255.0
G1 F300.00
G1 X20.3874 Y28.9614 F300.00
G1 X20.3874 Y28.9614 F300.00
M5
G0 X22.7901 Y28.9888
G1 F60.00
M03 S255.0
G1 F300.00
G1 X22.7489 Y28.8529 F300.00
G1 X22.6820 Y28.7278 F300.00
G1 X22.5919 Y28.6181 F300.00
G1 X22.4822 Y28.5280 F300.00
G1 X22.3571 Y28.4611 F300.00
G1 X22.2212 Y28.4199 F300.00
G1 X22.0800 Y28.4060 F300.00
G1 X21.9388 Y28.4199 F300.00
G1 X21.8029 Y28.4611 F300.00
G1 X21.6778 Y28.5280 F300.00
G1 X21.5681 Y28.6181 F300.00
G1 X21.4780 Y28.7278 F300.00
G1 X21.4111 Y28.8529 F300.00
G1 X21.3699 Y28.9888 F300.00
G1 X21.3560 Y29.1300 F300.00
G1 X21.3699 Y29.2712 F300.00
G1 X21.4111 Y29.4071 F300.00
G1 X21.4780 Y29.5322 F300.00
G1 X21.5681 Y29.6419 F300.00
G1 X21.6778 Y29.7320 F300.00
G1 X21.8029 Y29.7989 F300.00
G1 X21.9388 Y29.8401 F300.00
G1 X22.0800 Y29.8540 F300.00
G1 X22.2212 Y29.8401 F300.00
G1 X22.3571 Y29.7989 F300.00
G1 X22.4822 Y29.7320 F300.00
G1 X22.5919 Y29.6419 F300.00
G1 X22.6820 Y29.5322 F300.00
G1 X22.7489 Y29.4071 F300.00
G1 X22.7901 Y29.2712 F300.00
G1 X22.8040 Y29.1300 F300.00
G1 X22.7901 Y28.9888 F300.00
M5
G0 X22.7950 Y29.0385
G1 F60.00
M03 S255.0
G1 F300.00
G1 X22.7901 Y28.9888 F300.00
G1 X22.7901 Y28.9888 F300.00
M5
G0 X22.8587 Y28.9751
G1 F60.00
M03 S255.0
G1 F300.00
G1 X22.8136 Y28.8261 F300.00
G1 X22.7402 Y28.6889 F300.00
G1 X22.6414 Y28.5686 F300.00
G1 X22.5211 Y28.4698 F300.00
G1 X22.3839 Y28.3964 F300.00
G1 X22.2349 Y28.3513 F300.00
G1 X22.0800 Y28.3360 F300.00
G1 X21.9251 Y28.3513 F300.00
G1 X21.7761 Y28.3964 F300.00
G1 X21.6389 Y28.4698 F300.00
G1 X21.5186 Y28.5686 F300.00
G1 X21.4198 Y28.6889 F300.00
G1 X21.3464 Y28.8261 F300.00
G1 X21.3013 Y28.9751 F300.00
G1 X21.2860 Y29.1300 F300.00
G1 X21.3013 Y29.2849 F300.00
G1 X21.3464 Y29.4339 F300.00
G1 X21.4198 Y29.5711 F300.00
G1 X21.5186 Y29.6914 F300.00
G1 X21.6389 Y29.7902 F300.00
G1 X21.7761 Y29.8636 F300.00
G1 X21.9251 Y29.9087 F300.00
G1 X22.0800 Y29.9240 F300.00
G1 X22.2349 Y29.9087 F300.00
G1 X22.3839 Y29.8636 F300.00
G1 X22.5211 Y29.7902 F300.00
G1 X22.6414 Y29.6914 F300.00
G1 X22.7402 Y29.5711 F300.00
G1 X22.8136 Y29.4339 F300.00
G1 X22.8587 Y29.2849 F300.00
G1 X22.8740 Y29.1300 F300.00
G1 X22.8587 Y28.9751 F300.00
M5
G0 X22.8636 Y29.0249
G1 F60.00
M03 S255.0
G1 F300.00
G1 X22.8587 Y28.9751 F300.00
G1 X22.8587 Y28.9751 F300.00
M5
G0 X22.9274 Y28.9614
G1 F60.00
M03 S255.0
G1 F300.00
G1 X22.8782 Y28.7994 F300.00
G1 X22.7984 Y28.6500 F300.00
G1 X22.6909 Y28.5191 F300.00
G1 X22.5600 Y28.4116 F300.00
G1 X22.4106 Y28.3318 F300.00
G1 X22.2486 Y28.2826 F300.00
G1 X22.0800 Y28.2660 F300.00
G1 X21.9114 Y28.2826 F300.00
G1 X21.7494 Y28.3318 F300.00
G1 X21.6000 Y28.4116 F300.00
G1 X21.4691 Y28.5191 F300.00
G1 X21.3616 Y28.6500 F300.00
G1 X21.2818 Y28.7994 F300.00
G1 X21.2326 Y28.9614 F300.00
G1 X21.2160 Y29.1300 F300.00
G1 X21.2326 Y29.2986 F300.00
G1 X21.2818 Y29.4606 F300.00
G1 X21.3616 Y29.6100 F300.00
G1 X21.4691 Y29.7409 F300.00
G1 X21.6000 Y29.8484 F300.00
G1 X21.7494 Y29.9282 F300.00
G1 X21.9114 Y29.9774 F300.00
G1 X22.0800 Y29.9940 F300.00
G1 X22.2486 Y29.9774 F300.00
G1 X22.4106 Y29.9282 F300.00
G1 X22.5600 Y29.8484 F300.00
G1 X22.6909 Y29.7409 F300.00
G1 X22.7984 Y29.6100 F300.00
G1 X22.8782 Y29.4606 F300.00
G1 X22.9274 Y29.2986 F300.00
G1 X22.9440 Y29.1300 F300.00
G1 X22.9274 Y28.9614 F300.00
M5
G0 X22.9323 Y29.0112
G1 F60.00
M03 S255.0
G1 F300.00
G1 X22.9274 Y28.9614 F300.00
G1 X22.9274 Y28.9614 F300.00
M5
G0 X25.3301 Y28.9888
G1 F60.00
M03 S255.0
G1 F300.00
G1 X25.2889 Y28.8529 F300.00
G1 X25.2220 Y28.7278 F300.00
G1 X25.1319 Y28.6181 F300.00
G1 X25.0222 Y28.5280 F300.00
G1 X24.8971 Y28.4611 F300.00
G1 X24.7612 Y28.4199 F300.00
G1 X24.6200 Y28.4060 F300.00
G1 X24.4788 Y28.4199 F300.00
G1 X24.3429 Y28.4611 F300.00
G1 X24.2178 Y28.5280 F300.00
G1 X24.1081 Y28.6181 F300.00
G1 X24.0180 Y28.7278 F300.00
G1 X23.9511 Y28.8529 F300.00
G1 X23.9099 Y28.9888 F300.00
G1 X23.8960 Y29.1300 F300.00
G1 X23.9099 Y29.2712 F300.00
G1 X23.9511 Y29.4071 F300.00
G1 X24.0180 Y29.5322 F300.00
G1 X24.1081 Y29.6419 F300.00
G1 X24.2178 Y29.7320 F300.00
G1 X24.3429 Y29.7989 F300.00
G1 X24.4788 Y29.8401 F300.00
G1 X24.6200 Y29.8540 F300.00
G1 X24.7612 Y29.8401 F300.00
G1 X24.8971 Y29.7989 F300.00
G1 X25.0222 Y29.7320 F300.00
G1 X25.1319 Y29.6419 F300.00
G1 X25.2220 Y29.5322 F300.00
G1 X25.2889 Y29.4071 F300.00
G1 X25.3301 Y29.2712 F300.00
G1 X25.3440 Y29.1300 F300.00
G1 X25.3301 Y28.9888 F300.00
M5
G0 X25.3350 Y29.0385
G1 F60.00
M03 S255.0
G1 F300.00
G1 X25.3301 Y28.9888 F300.00
G1 X25.3301 Y28.9888 F300.00
M5
G0 X25.3987 Y28.9751
G1 F60.00
M03 S255.0
G1 F300.00
G1 X25.3536 Y28.8261 F300.00
G1 X25.2802 Y28.6889 F300.00
G1 X25.1814 Y28.5686 F300.00
G1 X25.0611 Y28.4698 F300.00
G1 X24.9239 Y28.3964 F300.00
G1 X24.7749 Y28.3513 F300.00
G1 X24.6200 Y28.3360 F300.00
G1 X24.4651 Y28.3513 F300.00
G1 X24.3161 Y28.3964 F300.00
G1 X24.1789 Y28.4698 F300.00
G1 X24.0586 Y28.5686 F300.00
G1 X23.9598 Y28.6889 F300.00
G1 X23.8864 Y28.8261 F300.00
G1 X23.8413 Y28.9751 F300.00
G1 X23.8260 Y29.1300 F300.00
G1 X23.8413 Y29.2849 F300.00
G1 X23.8864 Y29.4339 F300.00
G1 X23.9598 Y29.5711 F300.00
G1 X24.0586 Y29.6914 F300.00
G1 X24.1789 Y29.7902 F300.00
G1 X24.3161 Y29.8636 F300.00
G1 X24.4651 Y29.9087 F300.00
G1 X24.6200 Y29.9240 F300.00
G1 X24.7749 Y29.9087 F300.00
G1 X24.9239 Y29.8636 F300.00
G1 X25.0611 Y29.7902 F300.00
G1 X25.1814 Y29.6914 F300.00
G1 X25.2802 Y29.5711 F300.00
G1 X25.3536 Y29.4339 F300.00
G1 X25.3987 Y29.2849 F300.00
G1 X25.4140 Y29.1300 F300.00
G1 X25.3987 Y28.9751 F300.00
M5
G0 X25.4036 Y29.0249
G1 F60.00
M03 S255.0
G1 F300.00
G1 X25.3987 Y28.9751 F300.00
G1 X25.3987 Y28.9751 F300.00
M5
G0 X25.4674 Y28.9614
G1 F60.00
M03 S255.0
G1 F300.00
G1 X25.4182 Y28.7994 F300.00
G1 X25.3384 Y28.6500 F300.00
G1 X25.2309 Y28.5191 F300.00
G1 X25.1000 Y28.4116 F300.00
G1 X24.9506 Y28.3318 F300.00
G1 X24.7886 Y28.2826 F300.00
G1 X24.6200 Y28.2660 F300.00
G1 X24.4514 Y28.2826 F300.00
G1 X24.2894 Y28.3318 F300.00
G1 X24.1400 Y28.4116 F300.00
G1 X24.0091 Y28.5191 F300.00
G1 X23.9016 Y28.6500 F300.00
G1 X23.8218 Y28.7994 F300.00
G1 X23.7726 Y28.9614 F300.00
G1 X23.7560 Y29.1300 F300.00
G1 X23.7726 Y29.2986 F300.00
G1 X23.8218 Y29.4606 F300.00
G1 X23.9016 Y29.6100 F300.00
G1 X24.0091 Y29.7409 F300.00
G1 X24.1400 Y29.8484 F300.00
G1 X24.2894 Y29.9282 F300.00
G1 X24.4514 Y29.9774 F300.00
G1 X24.6200 Y29.9940 F300.00
G1 X24.7886 Y29.9774 F300.00
G1 X24.9506 Y29.9282 F300.00
G1 X25.1000 Y29.8484 F300.00
G1 X25.2309 Y29.7409 F300.00
G1 X25.3384 Y29.6100 F300.00
G1 X25.4182 Y29.4606 F300.00
G1 X25.4674 Y29.2986 F300.00
G1 X25.4840 Y29.1300 F300.00
G1 X25.4674 Y28.9614 F300.00
M5
G0 X25.4723 Y29.0112
G1 F60.00
M03 S255.0
G1 F300.00
G1 X25.4674 Y28.9614 F300.00
G1 X25.4674 Y28.9614 F300.00
M5
G0 X27.8705 Y28.9912
G1 F60.00
M03 S255.0
G1 F300.00
G1 X27.8289 Y28.8529 F300.00
G1 X27.7620 Y28.7278 F300.00
G1 X27.6719 Y28.6181 F300.00
G1 X27.5622 Y28.5280 F300.00
G1 X27.4371 Y28.4611 F300.00
G1 X27.3012 Y28.4199 F300.00
G1 X27.1600 Y28.4060 F300.00
G1 X27.0188 Y28.4199 F300.00
G1 X26.8829 Y28.4611 F300.00
G1 X26.7578 Y28.5280 F300.00
G1 X26.6481 Y28.6181 F300.00
G1 X26.5580 Y28.7278 F300.00
G1 X26.4911 Y28.8529 F300.00
G1 X26.4499 Y28.9888 F300.00
G1 X26.4360 Y29.1300 F300.00
G1 X26.4499 Y29.2712 F300.00
G1 X26.4911 Y29.4071 F300.00
G1 X26.5580 Y29.5322 F300.00
G1 X26.6481 Y29.6419 F300.00
G1 X26.7578 Y29.7320 F300.00
G1 X26.8829 Y29.7989 F300.00
G1 X27.0188 Y29.8401 F300.00
G1 X27.1600 Y29.8540 F300.00
G1 X27.3012 Y29.8401 F300.00
G1 X27.4371 Y29.7989 F300.00
G1 X27.5622 Y29.7320 F300.00
G1 X27.6719 Y29.6419 F300.00
G1 X27.7620 Y29.5322 F300.00
G1 X27.8289 Y29.4071 F300.00
G1 X27.8701 Y29.2712 F300.00
G1 X27.8840 Y29.1300 F300.00
G1 X27.8705 Y28.9912 F300.00
M5
G0 X27.8753 Y29.0409
G1 F60.00
M03 S255.0
G1 F300.00
G1 X27.8705 Y28.9912 F300.00
G1 X27.8705 Y28.9912 F300.00
M5
G0 X27.9398 Y28.9809
G1 F60.00
M03 S255.0
G1 F300.00
G1 X27.8936 Y28.8261 F300.00
G1 X27.8202 Y28.6889 F300.00
G1 X27.7214 Y28.5686 F300.00
G1 X27.6011 Y28.4698 F300.00
G1 X27.4639 Y28.3964 F300.00
G1 X27.3149 Y28.3513 F300.00
G1 X27.1600 Y28.3360 F300.00
G1 X27.0051 Y28.3513 F300.00
G1 X26.8561 Y28.3964 F300.00
G1 X26.7189 Y28.4698 F300.00
G1 X26.5986 Y28.5686 F300.00
G1 X26.4998 Y28.6889 F300.00
G1 X26.4264 Y28.8261 F300.00
G1 X26.3813 Y28.9751 F300.00
G1 X26.3660 Y29.1300 F300.00
G1 X26.3813 Y29.2849 F300.00
G1 X26.4264 Y29.4339 F300.00
G1 X26.4998 Y29.5711 F300.00
G1 X26.5986 Y29.6914 F300.00
G1 X26.7189 Y29.7902 F300.00
G1 X26.8561 Y29.8636 F300.00
G1 X27.0051 Y29.9087 F300.00
G1 X27.1600 Y29.9240 F300.00
G1 X27.3149 Y29.9087 F300.00
G1 X27.4639 Y29.8636 F300.00
G1 X27.6011 Y29.7902 F300.00
G1 X27.7214 Y29.6914 F300.00
G1 X27.8202 Y29.5711 F300.00
G1 X27.8936 Y29.4339 F300.00
G1 X27.9387 Y29.2849 F300.00
G1 X27.9540 Y29.1300 F300.00
G1 X27.9398 Y28.9809 F300.00
M5
G0 X27.9445 Y29.0307
G1 F60.00
M03 S255.0
G1 F300.00
G1 X27.9398 Y28.9809 F300.00
G1 X27.9398 Y28.9809 F300.00
M5
G0 X28.0090 Y28.9706
G1 F60.00
M03 S255.0
G1 F300.00
G1 X27.9582 Y28.7994 F300.00
G1 X27.8784 Y28.6500 F300.00
G1 X27.7709 Y28.5191 F300.00
G1 X27.6400 Y28.4116 F300.00
G1 X27.4906 Y28.3318 F300.00
G1 X27.3286 Y28.2826 F300.00
G1 X27.1600 Y28.2660 F300.00
G1 X26.9914 Y28.2826 F300.00
G1 X26.8294 Y28.3318 F300.00
G1 X26.6800 Y28.4116 F300.00
G1 X26.5491 Y28.5191 F300.00
G1 X26.4416 Y28.6500 F300.00
G1 X26.3618 Y28.7994 F300.00
G1 X26.3126 Y28.9614 F300.00
G1 X26.2960 Y29.1300 F300.00
G1 X26.3126 Y29.2986 F300.00
G1 X26.3618 Y29.4606 F300.00
G1 X26.4416 Y29.6100 F300.00
G1 X26.5491 Y29.7409 F300.00
G1 X26.6800 Y29.8484 F300.00
G1 X26.8294 Y29.9282 F300.00
G1 X26.9914 Y29.9774 F300.00
G1 X27.1600 Y29.9940 F300.00
G1 X27.3286 Y29.9774 F300.00
G1 X27.4906 Y29.9282 F300.00
G1 X27.6400 Y29.8484 F300.00
G1 X27.7709 Y29.7409 F300.00
G1 X27.8784 Y29.6100 F300.00
G1 X27.9582 Y29.4606 F300.00
G1 X28.0074 Y29.2986 F300.00
G1 X28.0240 Y29.1300 F300.00
G1 X28.0090 Y28.9706 F300.00
M5
G0 X28.0137 Y29.0204
G1 F60.00
M03 S255.0
G1 F300.00
G1 X28.0090 Y28.9706 F300.00
G1 X28.0090 Y28.9706 F300.00
M5
G0 X30.4101 Y28.9888
G1 F60.00
M03 S255.0
G1 F300.00
G1 X30.3689 Y28.8529 F300.00
G1 X30.3020 Y28.7278 F300.00
G1 X30.2119 Y28.6181 F300.00
G1 X30.1022 Y28.5280 F300.00
G1 X29.9771 Y28.4611 F300.00
G1 X29.8412 Y28.4199 F300.00
G1 X29.7000 Y28.4060 F300.00
G1 X29.5588 Y28.4199 F300.00
G1 X29.4229 Y28.4611 F300.00
G1 X29.2978 Y28.5280 F300.00
G1 X29.1881 Y28.6181 F300.00
G1 X29.0980 Y28.7278 F300.00
G1 X29.0311 Y28.8529 F300.00
G1 X28.9899 Y28.9888 F300.00
G1 X28.9760 Y29.1300 F300.00
G1 X28.9899 Y29.2712 F300.00
G1 X29.0311 Y29.4071 F300.00
G1 X29.0980 Y29.5322 F300.00
G1 X29.1881 Y29.6419 F300.00
G1 X29.2978 Y29.7320 F300.00
G1 X29.4229 Y29.7989 F300.00
G1 X29.5588 Y29.8401 F300.00
G1 X29.7000 Y29.8540 F300.00
G1 X29.8412 Y29.8401 F300.00
G1 X29.9771 Y29.7989 F300.00
G1 X30.1022 Y29.7320 F300.00
G1 X30.2119 Y29.6419 F300.00
G1 X30.3020 Y29.5322 F300.00
G1 X30.3689 Y29.4071 F300.00
G1 X30.4101 Y29.2712 F300.00
G1 X30.4240 Y29.1300 F300.00
G1 X30.4101 Y28.9888 F300.00
M5
G0 X30.4150 Y29.0385
G1 F60.00
M03 S255.0
G1 F300.00
G1 X30.4101 Y28.9888 F300.00
G1 X30.4101 Y28.9888 F300.00
M5
G0 X30.4787 Y28.9751
G1 F60.00
M03 S255.0
G1 F300.00
G1 X30.4336 Y28.8261 F300.00
G1 X30.3602 Y28.6889 F300.00
G1 X30.2614 Y28.5686 F300.00
G1 X30.1411 Y28.4698 F300.00
G1 X30.0039 Y28.3964 F300.00
G1 X29.8549 Y28.3513 F300.00
G1 X29.7000 Y28.3360 F300.00
G1 X29.5451 Y28.3513 F300.00
G1 X29.3961 Y28.3964 F300.00
G1 X29.2589 Y28.4698 F300.00
G1 X29.1386 Y28.5686 F300.00
G1 X29.0398 Y28.6889 F300.00
G1 X28.9664 Y28.8261 F300.00
G1 X28.9213 Y28.9751 F300.00
G1 X28.9060 Y29.1300 F300.00
G1 X28.9213 Y29.2849 F300.00
G1 X28.9664 Y29.4339 F300.00
G1 X29.0398 Y29.5711 F300.00
G1 X29.1386 Y29.6914 F300.00
G1 X29.2589 Y29.7902 F300.00
G1 X29.3961 Y29.8636 F300.00
G1 X29.5451 Y29.9087 F300.00
G1 X29.7000 Y29.9240 F300.00
G1 X29.8549 Y29.9087 F300.00
G1 X30.0039 Y29.8636 F300.00
G1 X30.1411 Y29.7902 F300.00
G1 X30.2614 Y29.6914 F300.00
G1 X30.3602 Y29.5711 F300.00
G1 X30.4336 Y29.4339 F300.00
G1 X30.4787 Y29.2849 F300.00
G1 X30.4940 Y29.1300 F300.00
G1 X30.4787 Y28.9751 F300.00
M5
G0 X30.4836 Y29.0249
G1 F60.00
M03 S255.0
G1 F300.00
G1 X30.4787 Y28.9751 F300.00
G1 X30.4787 Y28.9751 F300.00
M5
G0 X30.5474 Y28.9614
G1 F60.00
M03 S255.0
G1 F300.00
G1 X30.4982 Y28.7994 F300.00
G1 X30.4184 Y28.6500 F300.00
G1 X30.3109 Y28.5191 F300.00
G1 X30.1800 Y28.4116 F300.00
G1 X30.0306 Y28.3318 F300.00
G1 X29.8686 Y28.2826 F300.00
G1 X29.7000 Y28.2660 F300.00
G1 X29.5314 Y28.2826 F300.00
G1 X29.3694 Y28.3318 F300.00
G1 X29.2200 Y28.4116 F300.00
G1 X29.0891 Y28.5191 F300.00
G1 X28.9816 Y28.6500 F300.00
G1 X28.9018 Y28.7994 F300.00
G1 X28.8526 Y28.9614 F300.00
G1 X28.8360 Y29.1300 F300.00
G1 X28.8526 Y29.2986 F300.00
G1 X28.9018 Y29.4606 F300.00
G1 X28.9816 Y29.6100 F300.00
G1 X29.0891 Y29.7409 F300.00
G1 X29.2200 Y29.8484 F300.00
G1 X29.3694 Y29.9282 F300.00
G1 X29.5314 Y29.9774 F300.00
G1 X29.7000 Y29.9940 F300.00
G1 X29.8686 Y29.9774 F300.00
G1 X30.0306 Y29.9282 F300.00
G1 X30.1800 Y29.8484 F300.00
G1 X30.3109 Y29.7409 F300.00
G1 X30.4184 Y29.6100 F300.00
G1 X30.4982 Y29.4606 F300.00
G1 X30.5474 Y29.2986 F300.00
G1 X30.5640 Y29.1300 F300.00
G1 X30.5474 Y28.9614 F300.00
M5
G0 X30.5523 Y29.0112
G1 F60.00
M03 S255.0
G1 F300.00
G1 X30.5474 Y28.9614 F300.00
G1 X30.5474 Y28.9614 F300.00
M5
G0 X32.9501 Y28.9888
G1 F60.00
M03 S255.0
G1 F300.00
G1 X32.9089 Y28.8529 F300.00
G1 X32.8420 Y28.7278 F300.00
G1 X32.7519 Y28.6181 F300.00
G1 X32.6422 Y28.5280 F300.00
G1 X32.5171 Y28.4611 F300.00
G1 X32.3812 Y28.4199 F300.00
G1 X32.2400 Y28.4060 F300.00
G1 X32.0988 Y28.4199 F300.00
G1 X31.9629 Y28.4611 F300.00
G1 X31.8378 Y28.5280 F300.00
G1 X31.7281 Y28.6181 F300.00
G1 X31.6380 Y28.7278 F300.00
G1 X31.5711 Y28.8529 F300.00
G1 X31.5299 Y28.9888 F300.00
G1 X31.5160 Y29.1300 F300.00
G1 X31.5299 Y29.2712 F300.00
G1 X31.5711 Y29.4071 F300.00
G1 X31.6380 Y29.5322 F300.00
G1 X31.7281 Y29.6419 F300.00
G1 X31.8378 Y29.7320 F300.00
G1 X31.9629 Y29.7989 F300.00
G1 X32.0988 Y29.8401 F300.00
G1 X32.2400 Y29.8540 F300.00
G1 X32.3812 Y29.8401 F300.00
G1 X32.5171 Y29.7989 F300.00
G1 X32.6422 Y29.7320 F300.00
G1 X32.7519 Y29.6419 F300.00
G1 X32.8420 Y29.5322 F300.00
G1 X32.9089 Y29.4071 F300.00
G1 X32.9501 Y29.2712 F300.00
G1 X32.9640 Y29.1300 F300.00
G1 X32.9501 Y28.9888 F300.00
M5
G0 X32.9550 Y29.0385
G1 F60.00
M03 S255.0
G1 F300.00
G1 X32.9501 Y28.9888 F300.00
G1 X32.9501 Y28.9888 F300.00
M5
G0 X33.0187 Y28.9751
G1 F60.00
M03 S255.0
G1 F300.00
G1 X32.9736 Y28.8261 F300.00
G1 X32.9002 Y28.6889 F300.00
G1 X32.8014 Y28.5686 F300.00
G1 X32.6811 Y28.4698 F300.00
G1 X32.5439 Y28.3964 F300.00
G1 X32.3949 Y28.3513 F300.00
G1 X32.2400 Y28.3360 F300.00
G1 X32.0851 Y28.3513 F300.00
G1 X31.9361 Y28.3964 F300.00
G1 X31.7989 Y28.4698 F300.00
G1 X31.6786 Y28.5686 F300.00
G1 X31.5798 Y28.6889 F300.00
G1 X31.5064 Y28.8261 F300.00
G1 X31.4613 Y28.9751 F300.00
G1 X31.4460 Y29.1300 F300.00
G1 X31.4613 Y29.2849 F300.00
G1 X31.5064 Y29.4339 F300.00
G1 X31.5798 Y29.5711 F300.00
G1 X31.6786 Y29.6914 F300.00
G1 X31.7989 Y29.7902 F300.00
G1 X31.9361 Y29.8636 F300.00
G1 X32.0851 Y29.9087 F300.00
G1 X32.2400 Y29.9240 F300.00
G1 X32.3949 Y29.9087 F300.00
G1 X32.5439 Y29.8636 F300.00
G1 X32.6811 Y29.7902 F300.00
G1 X32.8014 Y29.6914 F300.00
G1 X32.9002 Y29.5711 F300.00
G1 X32.9736 Y29.4339 F300.00
G1 X33.0187 Y29.2849 F300.00
G1 X33.0340 Y29.1300 F300.00
G1 X33.0187 Y28.9751 F300.00
M5
G0 X33.0236 Y29.0249
G1 F60.00
M03 S255.0
G1 F300.00
G1 X33.0187 Y28.9751 F300.00
G1 X33.0187 Y28.9751 F300.00
M5
G0 X33.0874 Y28.9614
G1 F60.00
M03 S255.0
G1 F300.00
G1 X33.0382 Y28.7994 F300.00
G1 X32.9584 Y28.6500 F300.00
G1 X32.8509 Y28.5191 F300.00
G1 X32.7200 Y28.4116 F300.00
G1 X32.5706 Y28.3318 F300.00
G1 X32.4086 Y28.2826 F300.00
G1 X32.2400 Y28.2660 F300.00
G1 X32.0714 Y28.2826 F300.00
G1 X31.9094 Y28.3318 F300.00
G1 X31.7600 Y28.4116 F300.00
G1 X31.6291 Y28.5191 F300.00
G1 X31.5216 Y28.6500 F300.00
G1 X31.4418 Y28.7994 F300.00
G1 X31.3926 Y28.9614 F300.00
G1 X31.3760 Y29.1300 F300.00
G1 X31.3926 Y29.2986 F300.00
G1 X31.4418 Y29.4606 F300.00
G1 X31.5216 Y29.6100 F300.00
G1 X31.6291 Y29.7409 F300.00
G1 X31.7600 Y29.8484 F300.00
G1 X31.9094 Y29.9282 F300.00
G1 X32.0714 Y29.9774 F300.00
G1 X32.2400 Y29.9940 F300.00
G1 X32.4086 Y29.9774 F300.00
G1 X32.5706 Y29.9282 F300.00
G1 X32.7200 Y29.8484 F300.00
G1 X32.8509 Y29.7409 F300.00
G1 X32.9584 Y29.6100 F300.00
G1 X33.0382 Y29.4606 F300.00
G1 X33.0874 Y29.2986 F300.00
G1 X33.1040 Y29.1300 F300.00
G1 X33.0874 Y28.9614 F300.00
M5
G0 X33.0923 Y29.0112
G1 F60.00
M03 S255.0
G1 F300.00
G1 X33.0874 Y28.9614 F300.00
G1 X33.0874 Y28.9614 F300.00
M5
G0 X26.2221 Y37.7621
G1 F60.00
M03 S255.0
G1 F300.00
G1 X26.1604 Y37.7824 F300.00
G1 X26.1092 Y37.8224 F300.00
G1 X26.0745 Y37.8773 F300.00
G1 X26.0602 Y37.9407 F300.00
G1 X26.0601 Y39.6547 F300.00
G1 X26.0745 Y39.7227 F300.00
G1 X26.1092 Y39.7776 F300.00
G1 X26.1688 Y39.8218 F300.00
G1 X26.2500 Y39.8400 F300.00
G1 X27.9547 Y39.8399 F300.00
G1 X28.0227 Y39.8255 F300.00
G1 X28.0776 Y39.7908 F300.00
G1 X28.1218 Y39.7312 F300.00
G1 X28.1400 Y39.6500 F300.00
G1 X28.1399 Y37.9453 F300.00
G1 X28.1255 Y37.8773 F300.00
G1 X28.0908 Y37.8224 F300.00
G1 X28.0312 Y37.7782 F300.00
G1 X27.9547 Y37.7601 F300.00
G1 X26.2221 Y37.7621 F300.00
M5
G0 X26.2721 Y37.7620
G1 F60.00
M03 S255.0
G1 F300.00
G1 X26.2221 Y37.7621 F300.00
G1 X26.2221 Y37.7621 F300.00
M5
G0 X26.2324 Y37.8313
G1 F60.00
M03 S255.0
G1 F300.00
G1 X26.1934 Y37.8442 F300.00
G1 X26.1611 Y37.8694 F300.00
G1 X26.1391 Y37.9041 F300.00
G1 X26.1301 Y37.9441 F300.00
G1 X26.1300 Y39.6529 F300.00
G1 X26.1391 Y39.6959 F300.00
G1 X26.1611 Y39.7306 F300.00
G1 X26.1987 Y39.7585 F300.00
G1 X26.2500 Y39.7700 F300.00
G1 X27.9529 Y39.7700 F300.00
G1 X27.9959 Y39.7609 F300.00
G1 X28.0306 Y39.7389 F300.00
G1 X28.0585 Y39.7013 F300.00
G1 X28.0700 Y39.6500 F300.00
G1 X28.0700 Y37.9471 F300.00
G1 X28.0609 Y37.9041 F300.00
G1 X28.0389 Y37.8694 F300.00
G1 X28.0013 Y37.8415 F300.00
G1 X27.9529 Y37.8300 F300.00
G1 X26.2324 Y37.8313 F300.00
M5
G0 X26.2824 Y37.8313
G1 F60.00
