(G-code generated by FlatCAM Evo vUnstable - Version Date: 2023/6/31)

(Name: CNC_Coolant_Pump_Control.drl_mill_cnc)
(Type: G-code from Geometry)
(Units: MM)

(Created on Tuesday, 17 February 2026 at 21:18)

(This preprocessor is the default preprocessor.)
(It is made to work with MACH3 compatible motion controllers.)

(TOOL DIAMETER: 0.8 mm)
(Feedrate_XY: 120.0 mm/min)
(Feedrate_Z: 60.0 mm/min)
(Feedrate rapids 1500.0 mm/min)

(Z_Cut: -2.0 mm)
(DepthPerCut: 0.3 mm <=>7 passes)
(Z_Move: 2.0 mm)
(Z Start: None mm)
(Z End: 15.0 mm)
(X,Y End: None mm)
(Steps per circle: 16)
(Preprocessor Geometry: default)

(X range:    2.5500 ...   57.3500  mm)
(Y range:    2.6500 ...   47.1500  mm)

(Spindle Speed: 20000 RPM)
G21
G90
G94

G01 F120.00
G00 Z2.0000

M03 S20000
G00 X5.2500 Y4.0000
G01 F60.00
G01 Z-0.3000
G01 F120.00
G01 X5.2435 Y3.8677
G01 X5.2241 Y3.7366
G01 X5.1919 Y3.6081
G01 X5.1472 Y3.4834
G01 X5.0906 Y3.3636
G01 X5.0225 Y3.2500
G01 X4.9436 Y3.1436
G01 X4.8546 Y3.0454
G01 X4.7564 Y2.9564
G01 X4.6500 Y2.8775
G01 X4.5364 Y2.8094
G01 X4.4166 Y2.7528
G01 X4.2919 Y2.7081
G01 X4.1634 Y2.6759
G01 X4.0323 Y2.6565
G01 X3.9000 Y2.6500
G01 X3.7677 Y2.6565
G01 X3.6366 Y2.6759
G01 X3.5081 Y2.7081
G01 X3.3834 Y2.7528
G01 X3.2636 Y2.8094
G01 X3.1500 Y2.8775
G01 X3.0436 Y2.9564
G01 X2.9454 Y3.0454
G01 X2.8564 Y3.1436
G01 X2.7775 Y3.2500
G01 X2.7094 Y3.3636
G01 X2.6528 Y3.4834
G01 X2.6081 Y3.6081
G01 X2.5759 Y3.7366
G01 X2.5565 Y3.8677
G01 X2.5500 Y4.0000
G01 X2.5565 Y4.1323
G01 X2.5759 Y4.2634
G01 X2.6081 Y4.3919
G01 X2.6528 Y4.5166
G01 X2.7094 Y4.6364
G01 X2.7775 Y4.7500
G01 X2.8564 Y4.8564
G01 X2.9454 Y4.9546
G01 X3.0436 Y5.0436
G01 X3.1500 Y5.1225
G01 X3.2636 Y5.1906
G01 X3.3834 Y5.2472
G01 X3.5081 Y5.2919
G01 X3.6366 Y5.3241
G01 X3.7677 Y5.3435
G01 X3.9000 Y5.3500
G01 X4.0323 Y5.3435
G01 X4.1634 Y5.3241
G01 X4.2919 Y5.2919
G01 X4.4166 Y5.2472
G01 X4.5364 Y5.1906
G01 X4.6500 Y5.1225
G01 X4.7564 Y5.0436
G01 X4.8546 Y4.9546
G01 X4.9436 Y4.8564
G01 X5.0225 Y4.7500
G01 X5.0906 Y4.6364
G01 X5.1472 Y4.5166
G01 X5.1919 Y4.3919
G01 X5.2241 Y4.2634
G01 X5.2435 Y4.1323
G01 X5.2500 Y4.0000
G00 X5.2500 Y4.0000
G01 F60.00
G01 Z-0.6000
G01 F120.00
G01 X5.2435 Y4.1323
G01 X5.2241 Y4.2634
G01 X5.1919 Y4.3919
G01 X5.1472 Y4.5166
G01 X5.0906 Y4.6364
G01 X5.0225 Y4.7500
G01 X4.9436 Y4.8564
G01 X4.8546 Y4.9546
G01 X4.7564 Y5.0436
G01 X4.6500 Y5.1225
G01 X4.5364 Y5.1906
G01 X4.4166 Y5.2472
G01 X4.2919 Y5.2919
G01 X4.1634 Y5.3241
G01 X4.0323 Y5.3435
G01 X3.9000 Y5.3500
G01 X3.7677 Y5.3435
G01 X3.6366 Y5.3241
G01 X3.5081 Y5.2919
G01 X3.3834 Y5.2472
G01 X3.2636 Y5.1906
G01 X3.1500 Y5.1225
G01 X3.0436 Y5.0436
G01 X2.9454 Y4.9546
G01 X2.8564 Y4.8564
G01 X2.7775 Y4.7500
G01 X2.7094 Y4.6364
G01 X2.6528 Y4.5166
G01 X2.6081 Y4.3919
G01 X2.5759 Y4.2634
G01 X2.5565 Y4.1323
G01 X2.5500 Y4.0000
G01 X2.5565 Y3.8677
G01 X2.5759 Y3.7366
G01 X2.6081 Y3.6081
G01 X2.6528 Y3.4834
G01 X2.7094 Y3.3636
G01 X2.7775 Y3.2500
G01 X2.8564 Y3.1436
G01 X2.9454 Y3.0454
G01 X3.0436 Y2.9564
G01 X3.1500 Y2.8775
G01 X3.2636 Y2.8094
G01 X3.3834 Y2.7528
G01 X3.5081 Y2.7081
G01 X3.6366 Y2.6759
G01 X3.7677 Y2.6565
G01 X3.9000 Y2.6500
G01 X4.0323 Y2.6565
G01 X4.1634 Y2.6759
G01 X4.2919 Y2.7081
G01 X4.4166 Y2.7528
G01 X4.5364 Y2.8094
G01 X4.6500 Y2.8775
G01 X4.7564 Y2.9564
G01 X4.8546 Y3.0454
G01 X4.9436 Y3.1436
G01 X5.0225 Y3.2500
G01 X5.0906 Y3.3636
G01 X5.1472 Y3.4834
G01 X5.1919 Y3.6081
G01 X5.2241 Y3.7366
G01 X5.2435 Y3.8677
G01 X5.2500 Y4.0000
G00 X5.2500 Y4.0000
G01 F60.00
G01 Z-0.9000
G01 F120.00
G01 X5.2435 Y3.8677
G01 X5.2241 Y3.7366
G01 X5.1919 Y3.6081
G01 X5.1472 Y3.4834
G01 X5.0906 Y3.3636
G01 X5.0225 Y3.2500
G01 X4.9436 Y3.1436
G01 X4.8546 Y3.0454
G01 X4.7564 Y2.9564
G01 X4.6500 Y2.8775
G01 X4.5364 Y2.8094
G01 X4.4166 Y2.7528
G01 X4.2919 Y2.7081
G01 X4.1634 Y2.6759
G01 X4.0323 Y2.6565
G01 X3.9000 Y2.6500
G01 X3.7677 Y2.6565
G01 X3.6366 Y2.6759
G01 X3.5081 Y2.7081
G01 X3.3834 Y2.7528
G01 X3.2636 Y2.8094
G01 X3.1500 Y2.8775
G01 X3.0436 Y2.9564
G01 X2.9454 Y3.0454
G01 X2.8564 Y3.1436
G01 X2.7775 Y3.2500
G01 X2.7094 Y3.3636
G01 X2.6528 Y3.4834
G01 X2.6081 Y3.6081
G01 X2.5759 Y3.7366
G01 X2.5565 Y3.8677
G01 X2.5500 Y4.0000
G01 X2.5565 Y4.1323
G01 X2.5759 Y4.2634
G01 X2.6081 Y4.3919
G01 X2.6528 Y4.5166
G01 X2.7094 Y4.6364
G01 X2.7775 Y4.7500
G01 X2.8564 Y4.8564
G01 X2.9454 Y4.9546
G01 X3.0436 Y5.0436
G01 X3.1500 Y5.1225
G01 X3.2636 Y5.1906
G01 X3.3834 Y5.2472
G01 X3.5081 Y5.2919
G01 X3.6366 Y5.3241
G01 X3.7677 Y5.3435
G01 X3.9000 Y5.3500
G01 X4.0323 Y5.3435
G01 X4.1634 Y5.3241
G01 X4.2919 Y5.2919
G01 X4.4166 Y5.2472
G01 X4.5364 Y5.1906
G01 X4.6500 Y5.1225
G01 X4.7564 Y5.0436
G01 X4.8546 Y4.9546
G01 X4.9436 Y4.8564
G01 X5.0225 Y4.7500
G01 X5.0906 Y4.6364
G01 X5.1472 Y4.5166
G01 X5.1919 Y4.3919
G01 X5.2241 Y4.2634
G01 X5.2435 Y4.1323
G01 X5.2500 Y4.0000
G00 X5.2500 Y4.0000
G01 F60.00
G01 Z-1.2000
G01 F120.00
G01 X5.2435 Y4.1323
G01 X5.2241 Y4.2634
G01 X5.1919 Y4.3919
G01 X5.1472 Y4.5166
G01 X5.0906 Y4.6364
G01 X5.0225 Y4.7500
G01 X4.9436 Y4.8564
G01 X4.8546 Y4.9546
G01 X4.7564 Y5.0436
G01 X4.6500 Y5.1225
G01 X4.5364 Y5.1906
G01 X4.4166 Y5.2472
G01 X4.2919 Y5.2919
G01 X4.1634 Y5.3241
G01 X4.0323 Y5.3435
G01 X3.9000 Y5.3500
G01 X3.7677 Y5.3435
G01 X3.6366 Y5.3241
G01 X3.5081 Y5.2919
G01 X3.3834 Y5.2472
G01 X3.2636 Y5.1906
G01 X3.1500 Y5.1225
G01 X3.0436 Y5.0436
G01 X2.9454 Y4.9546
G01 X2.8564 Y4.8564
G01 X2.7775 Y4.7500
G01 X2.7094 Y4.6364
G01 X2.6528 Y4.5166
G01 X2.6081 Y4.3919
G01 X2.5759 Y4.2634
G01 X2.5565 Y4.1323
G01 X2.5500 Y4.0000
G01 X2.5565 Y3.8677
G01 X2.5759 Y3.7366
G01 X2.6081 Y3.6081
G01 X2.6528 Y3.4834
G01 X2.7094 Y3.3636
G01 X2.7775 Y3.2500
G01 X2.8564 Y3.1436
G01 X2.9454 Y3.0454
G01 X3.0436 Y2.9564
G01 X3.1500 Y2.8775
G01 X3.2636 Y2.8094
G01 X3.3834 Y2.7528
G01 X3.5081 Y2.7081
G01 X3.6366 Y2.6759
G01 X3.7677 Y2.6565
G01 X3.9000 Y2.6500
G01 X4.0323 Y2.6565
G01 X4.1634 Y2.6759
G01 X4.2919 Y2.7081
G01 X4.4166 Y2.7528
G01 X4.5364 Y2.8094
G01 X4.6500 Y2.8775
G01 X4.7564 Y2.9564
G01 X4.8546 Y3.0454
G01 X4.9436 Y3.1436
G01 X5.0225 Y3.2500
G01 X5.0906 Y3.3636
G01 X5.1472 Y3.4834
G01 X5.1919 Y3.6081
G01 X5.2241 Y3.7366
G01 X5.2435 Y3.8677
G01 X5.2500 Y4.0000
G00 X5.2500 Y4.0000
G01 F60.00
G01 Z-1.5000
G01 F120.00
G01 X5.2435 Y3.8677
G01 X5.2241 Y3.7366
G01 X5.1919 Y3.6081
G01 X5.1472 Y3.4834
G01 X5.0906 Y3.3636
G01 X5.0225 Y3.2500
G01 X4.9436 Y3.1436
G01 X4.8546 Y3.0454
G01 X4.7564 Y2.9564
G01 X4.6500 Y2.8775
G01 X4.5364 Y2.8094
G01 X4.4166 Y2.7528
G01 X4.2919 Y2.7081
G01 X4.1634 Y2.6759
G01 X4.0323 Y2.6565
G01 X3.9000 Y2.6500
G01 X3.7677 Y2.6565
G01 X3.6366 Y2.6759
G01 X3.5081 Y2.7081
G01 X3.3834 Y2.7528
G01 X3.2636 Y2.8094
G01 X3.1500 Y2.8775
G01 X3.0436 Y2.9564
G01 X2.9454 Y3.0454
G01 X2.8564 Y3.1436
G01 X2.7775 Y3.2500
G01 X2.7094 Y3.3636
G01 X2.6528 Y3.4834
G01 X2.6081 Y3.6081
G01 X2.5759 Y3.7366
G01 X2.5565 Y3.8677
G01 X2.5500 Y4.0000
G01 X2.5565 Y4.1323
G01 X2.5759 Y4.2634
G01 X2.6081 Y4.3919
G01 X2.6528 Y4.5166
G01 X2.7094 Y4.6364
G01 X2.7775 Y4.7500
G01 X2.8564 Y4.8564
G01 X2.9454 Y4.9546
G01 X3.0436 Y5.0436
G01 X3.1500 Y5.1225
G01 X3.2636 Y5.1906
G01 X3.3834 Y5.2472
G01 X3.5081 Y5.2919
G01 X3.6366 Y5.3241
G01 X3.7677 Y5.3435
G01 X3.9000 Y5.3500
G01 X4.0323 Y5.3435
G01 X4.1634 Y5.3241
G01 X4.2919 Y5.2919
G01 X4.4166 Y5.2472
G01 X4.5364 Y5.1906
G01 X4.6500 Y5.1225
G01 X4.7564 Y5.0436
G01 X4.8546 Y4.9546
G01 X4.9436 Y4.8564
G01 X5.0225 Y4.7500
G01 X5.0906 Y4.6364
G01 X5.1472 Y4.5166
G01 X5.1919 Y4.3919
G01 X5.2241 Y4.2634
G01 X5.2435 Y4.1323
G01 X5.2500 Y4.0000
G00 X5.2500 Y4.0000
G01 F60.00
G01 Z-1.8000
G01 F120.00
G01 X5.2435 Y4.1323
G01 X5.2241 Y4.2634
G01 X5.1919 Y4.3919
G01 X5.1472 Y4.5166
G01 X5.0906 Y4.6364
G01 X5.0225 Y4.7500
G01 X4.9436 Y4.8564
G01 X4.8546 Y4.9546
G01 X4.7564 Y5.0436
G01 X4.6500 Y5.1225
G01 X4.5364 Y5.1906
G01 X4.4166 Y5.2472
G01 X4.2919 Y5.2919
G01 X4.1634 Y5.3241
G01 X4.0323 Y5.3435
G01 X3.9000 Y5.3500
G01 X3.7677 Y5.3435
G01 X3.6366 Y5.3241
G01 X3.5081 Y5.2919
G01 X3.3834 Y5.2472
G01 X3.2636 Y5.1906
G01 X3.1500 Y5.1225
G01 X3.0436 Y5.0436
G01 X2.9454 Y4.9546
G01 X2.8564 Y4.8564
G01 X2.7775 Y4.7500
G01 X2.7094 Y4.6364
G01 X2.6528 Y4.5166
G01 X2.6081 Y4.3919
G01 X2.5759 Y4.2634
G01 X2.5565 Y4.1323
G01 X2.5500 Y4.0000
G01 X2.5565 Y3.8677
G01 X2.5759 Y3.7366
G01 X2.6081 Y3.6081
G01 X2.6528 Y3.4834
G01 X2.7094 Y3.3636
G01 X2.7775 Y3.2500
G01 X2.8564 Y3.1436
G01 X2.9454 Y3.0454
G01 X3.0436 Y2.9564
G01 X3.1500 Y2.8775
G01 X3.2636 Y2.8094
G01 X3.3834 Y2.7528
G01 X3.5081 Y2.7081
G01 X3.6366 Y2.6759
G01 X3.7677 Y2.6565
G01 X3.9000 Y2.6500
G01 X4.0323 Y2.6565
G01 X4.1634 Y2.6759
G01 X4.2919 Y2.7081
G01 X4.4166 Y2.7528
G01 X4.5364 Y2.8094
G01 X4.6500 Y2.8775
G01 X4.7564 Y2.9564
G01 X4.8546 Y3.0454
G01 X4.9436 Y3.1436
G01 X5.0225 Y3.2500
G01 X5.0906 Y3.3636
G01 X5.1472 Y3.4834
G01 X5.1919 Y3.6081
G01 X5.2241 Y3.7366
G01 X5.2435 Y3.8677
G01 X5.2500 Y4.0000
G00 X5.2500 Y4.0000
G01 F60.00
G01 Z-2.0000
G01 F120.00
G01 X5.2435 Y3.8677
G01 X5.2241 Y3.7366
G01 X5.1919 Y3.6081
G01 X5.1472 Y3.4834
G01 X5.0906 Y3.3636
G01 X5.0225 Y3.2500
G01 X4.9436 Y3.1436
G01 X4.8546 Y3.0454
G01 X4.7564 Y2.9564
G01 X4.6500 Y2.8775
G01 X4.5364 Y2.8094
G01 X4.4166 Y2.7528
G01 X4.2919 Y2.7081
G01 X4.1634 Y2.6759
G01 X4.0323 Y2.6565
G01 X3.9000 Y2.6500
G01 X3.7677 Y2.6565
G01 X3.6366 Y2.6759
G01 X3.5081 Y2.7081
G01 X3.3834 Y2.7528
G01 X3.2636 Y2.8094
G01 X3.1500 Y2.8775
G01 X3.0436 Y2.9564
G01 X2.9454 Y3.0454
G01 X2.8564 Y3.1436
G01 X2.7775 Y3.2500
G01 X2.7094 Y3.3636
G01 X2.6528 Y3.4834
G01 X2.6081 Y3.6081
G01 X2.5759 Y3.7366
G01 X2.5565 Y3.8677
G01 X2.5500 Y4.0000
G01 X2.5565 Y4.1323
G01 X2.5759 Y4.2634
G01 X2.6081 Y4.3919
G01 X2.6528 Y4.5166
G01 X2.7094 Y4.6364
G01 X2.7775 Y4.7500
G01 X2.8564 Y4.8564
G01 X2.9454 Y4.9546
G01 X3.0436 Y5.0436
G01 X3.1500 Y5.1225
G01 X3.2636 Y5.1906
G01 X3.3834 Y5.2472
G01 X3.5081 Y5.2919
G01 X3.6366 Y5.3241
G01 X3.7677 Y5.3435
G01 X3.9000 Y5.3500
G01 X4.0323 Y5.3435
G01 X4.1634 Y5.3241
G01 X4.2919 Y5.2919
G01 X4.4166 Y5.2472
G01 X4.5364 Y5.1906
G01 X4.6500 Y5.1225
G01 X4.7564 Y5.0436
G01 X4.8546 Y4.9546
G01 X4.9436 Y4.8564
G01 X5.0225 Y4.7500
G01 X5.0906 Y4.6364
G01 X5.1472 Y4.5166
G01 X5.1919 Y4.3919
G01 X5.2241 Y4.2634
G01 X5.2435 Y4.1323
G01 X5.2500 Y4.0000
G00 Z2.0000
G00 X14.4400 Y9.1000
G01 F60.00
G01 Z-0.3000
G01 F120.00
G01 X14.4324 Y9.0617
G01 X14.4107 Y9.0293
G01 X14.3783 Y9.0076
G01 X14.3400 Y9.0000
G01 X14.3017 Y9.0076
G01 X14.2693 Y9.0293
G01 X14.2476 Y9.0617
G01 X14.2400 Y9.1000
G01 X14.2476 Y9.1383
G01 X14.2693 Y9.1707
G01 X14.3017 Y9.1924
G01 X14.3400 Y9.2000
G01 X14.3783 Y9.1924
G01 X14.4107 Y9.1707
G01 X14.4324 Y9.1383
G01 X14.4400 Y9.1000
G00 X14.4400 Y9.1000
G01 F60.00
G01 Z-0.6000
G01 F120.00
G01 X14.4324 Y9.1383
G01 X14.4107 Y9.1707
G01 X14.3783 Y9.1924
G01 X14.3400 Y9.2000
G01 X14.3017 Y9.1924
G01 X14.2693 Y9.1707
G01 X14.2476 Y9.1383
G01 X14.2400 Y9.1000
G01 X14.2476 Y9.0617
G01 X14.2693 Y9.0293
G01 X14.3017 Y9.0076
G01 X14.3400 Y9.0000
G01 X14.3783 Y9.0076
G01 X14.4107 Y9.0293
G01 X14.4324 Y9.0617
G01 X14.4400 Y9.1000
G00 X14.4400 Y9.1000
G01 F60.00
G01 Z-0.9000
G01 F120.00
G01 X14.4324 Y9.0617
G01 X14.4107 Y9.0293
G01 X14.3783 Y9.0076
G01 X14.3400 Y9.0000
G01 X14.3017 Y9.0076
G01 X14.2693 Y9.0293
G01 X14.2476 Y9.0617
G01 X14.2400 Y9.1000
G01 X14.2476 Y9.1383
G01 X14.2693 Y9.1707
G01 X14.3017 Y9.1924
G01 X14.3400 Y9.2000
G01 X14.3783 Y9.1924
G01 X14.4107 Y9.1707
G01 X14.4324 Y9.1383
G01 X14.4400 Y9.1000
G00 X14.4400 Y9.1000
G01 F60.00
G01 Z-1.2000
G01 F120.00
G01 X14.4324 Y9.1383
G01 X14.4107 Y9.1707
G01 X14.3783 Y9.1924
G01 X14.3400 Y9.2000
G01 X14.3017 Y9.1924
G01 X14.2693 Y9.1707
G01 X14.2476 Y9.1383
G01 X14.2400 Y9.1000
G01 X14.2476 Y9.0617
G01 X14.2693 Y9.0293
G01 X14.3017 Y9.0076
G01 X14.3400 Y9.0000
G01 X14.3783 Y9.0076
G01 X14.4107 Y9.0293
G01 X14.4324 Y9.0617
G01 X14.4400 Y9.1000
G00 X14.4400 Y9.1000
G01 F60.00
G01 Z-1.5000
G01 F120.00
G01 X14.4324 Y9.0617
G01 X14.4107 Y9.0293
G01 X14.3783 Y9.0076
G01 X14.3400 Y9.0000
G01 X14.3017 Y9.0076
G01 X14.2693 Y9.0293
G01 X14.2476 Y9.0617
G01 X14.2400 Y9.1000
G01 X14.2476 Y9.1383
G01 X14.2693 Y9.1707
G01 X14.3017 Y9.1924
G01 X14.3400 Y9.2000
G01 X14.3783 Y9.1924
G01 X14.4107 Y9.1707
G01 X14.4324 Y9.1383
G01 X14.4400 Y9.1000
G00 X14.4400 Y9.1000
G01 F60.00
G01 Z-1.8000
G01 F120.00
G01 X14.4324 Y9.1383
G01 X14.4107 Y9.1707
G01 X14.3783 Y9.1924
G01 X14.3400 Y9.2000
G01 X14.3017 Y9.1924
G01 X14.2693 Y9.1707
G01 X14.2476 Y9.1383
G01 X14.2400 Y9.1000
G01 X14.2476 Y9.0617
G01 X14.2693 Y9.0293
G01 X14.3017 Y9.0076
G01 X14.3400 Y9.0000
G01 X14.3783 Y9.0076
G01 X14.4107 Y9.0293
G01 X14.4324 Y9.0617
G01 X14.4400 Y9.1000
G00 X14.4400 Y9.1000
G01 F60.00
G01 Z-2.0000
G01 F120.00
G01 X14.4324 Y9.0617
G01 X14.4107 Y9.0293
G01 X14.3783 Y9.0076
G01 X14.3400 Y9.0000
G01 X14.3017 Y9.0076
G01 X14.2693 Y9.0293
G01 X14.2476 Y9.0617
G01 X14.2400 Y9.1000
G01 X14.2476 Y9.1383
G01 X14.2693 Y9.1707
G01 X14.3017 Y9.1924
G01 X14.3400 Y9.2000
G01 X14.3783 Y9.1924
G01 X14.4107 Y9.1707
G01 X14.4324 Y9.1383
G01 X14.4400 Y9.1000
G00 Z2.0000
G00 X16.9800 Y9.1000
G01 F60.00
G01 Z-0.3000
G01 F120.00
G01 X16.9724 Y9.0617
G01 X16.9507 Y9.0293
G01 X16.9183 Y9.0076
G01 X16.8800 Y9.0000
G01 X16.8417 Y9.0076
G01 X16.8093 Y9.0293
G01 X16.7876 Y9.0617
G01 X16.7800 Y9.1000
G01 X16.7876 Y9.1383
G01 X16.8093 Y9.1707
G01 X16.8417 Y9.1924
G01 X16.8800 Y9.2000
G01 X16.9183 Y9.1924
G01 X16.9507 Y9.1707
G01 X16.9724 Y9.1383
G01 X16.9800 Y9.1000
G00 X16.9800 Y9.1000
G01 F60.00
G01 Z-0.6000
G01 F120.00
G01 X16.9724 Y9.1383
G01 X16.9507 Y9.1707
G01 X16.9183 Y9.1924
G01 X16.8800 Y9.2000
G01 X16.8417 Y9.1924
G01 X16.8093 Y9.1707
G01 X16.7876 Y9.1383
G01 X16.7800 Y9.1000
G01 X16.7876 Y9.0617
G01 X16.8093 Y9.0293
G01 X16.8417 Y9.0076
G01 X16.8800 Y9.0000
G01 X16.9183 Y9.0076
G01 X16.9507 Y9.0293
G01 X16.9724 Y9.0617
G01 X16.9800 Y9.1000
G00 X16.9800 Y9.1000
G01 F60.00
G01 Z-0.9000
G01 F120.00
G01 X16.9724 Y9.0617
G01 X16.9507 Y9.0293
G01 X16.9183 Y9.0076
G01 X16.8800 Y9.0000
G01 X16.8417 Y9.0076
G01 X16.8093 Y9.0293
G01 X16.7876 Y9.0617
G01 X16.7800 Y9.1000
G01 X16.7876 Y9.1383
G01 X16.8093 Y9.1707
G01 X16.8417 Y9.1924
G01 X16.8800 Y9.2000
G01 X16.9183 Y9.1924
G01 X16.9507 Y9.1707
G01 X16.9724 Y9.1383
G01 X16.9800 Y9.1000
G00 X16.9800 Y9.1000
G01 F60.00
G01 Z-1.2000
G01 F120.00
G01 X16.9724 Y9.1383
G01 X16.9507 Y9.1707
G01 X16.9183 Y9.1924
G01 X16.8800 Y9.2000
G01 X16.8417 Y9.1924
G01 X16.8093 Y9.1707
G01 X16.7876 Y9.1383
G01 X16.7800 Y9.1000
G01 X16.7876 Y9.0617
G01 X16.8093 Y9.0293
G01 X16.8417 Y9.0076
G01 X16.8800 Y9.0000
G01 X16.9183 Y9.0076
G01 X16.9507 Y9.0293
G01 X16.9724 Y9.0617
G01 X16.9800 Y9.1000
G00 X16.9800 Y9.1000
G01 F60.00
G01 Z-1.5000
G01 F120.00
G01 X16.9724 Y9.0617
G01 X16.9507 Y9.0293
G01 X16.9183 Y9.0076
G01 X16.8800 Y9.0000
G01 X16.8417 Y9.0076
G01 X16.8093 Y9.0293
G01 X16.7876 Y9.0617
G01 X16.7800 Y9.1000
G01 X16.7876 Y9.1383
G01 X16.8093 Y9.1707
G01 X16.8417 Y9.1924
G01 X16.8800 Y9.2000
G01 X16.9183 Y9.1924
G01 X16.9507 Y9.1707
G01 X16.9724 Y9.1383
G01 X16.9800 Y9.1000
G00 X16.9800 Y9.1000
G01 F60.00
G01 Z-1.8000
G01 F120.00
G01 X16.9724 Y9.1383
G01 X16.9507 Y9.1707
G01 X16.9183 Y9.1924
G01 X16.8800 Y9.2000
G01 X16.8417 Y9.1924
G01 X16.8093 Y9.1707
G01 X16.7876 Y9.1383
G01 X16.7800 Y9.1000
G01 X16.7876 Y9.0617
G01 X16.8093 Y9.0293
G01 X16.8417 Y9.0076
G01 X16.8800 Y9.0000
G01 X16.9183 Y9.0076
G01 X16.9507 Y9.0293
G01 X16.9724 Y9.0617
G01 X16.9800 Y9.1000
G00 X16.9800 Y9.1000
G01 F60.00
G01 Z-2.0000
G01 F120.00
G01 X16.9724 Y9.0617
G01 X16.9507 Y9.0293
G01 X16.9183 Y9.0076
G01 X16.8800 Y9.0000
G01 X16.8417 Y9.0076
G01 X16.8093 Y9.0293
G01 X16.7876 Y9.0617
G01 X16.7800 Y9.1000
G01 X16.7876 Y9.1383
G01 X16.8093 Y9.1707
G01 X16.8417 Y9.1924
G01 X16.8800 Y9.2000
G01 X16.9183 Y9.1924
G01 X16.9507 Y9.1707
G01 X16.9724 Y9.1383
G01 X16.9800 Y9.1000
G00 Z2.0000
G00 X19.5200 Y9.1000
G01 F60.00
G01 Z-0.3000
G01 F120.00
G01 X19.5124 Y9.0617
G01 X19.4907 Y9.0293
G01 X19.4583 Y9.0076
G01 X19.4200 Y9.0000
G01 X19.3817 Y9.0076
G01 X19.3493 Y9.0293
G01 X19.3276 Y9.0617
G01 X19.3200 Y9.1000
G01 X19.3276 Y9.1383
G01 X19.3493 Y9.1707
G01 X19.3817 Y9.1924
G01 X19.4200 Y9.2000
G01 X19.4583 Y9.1924
G01 X19.4907 Y9.1707
G01 X19.5124 Y9.1383
G01 X19.5200 Y9.1000
G00 X19.5200 Y9.1000
G01 F60.00
G01 Z-0.6000
G01 F120.00
G01 X19.5124 Y9.1383
G01 X19.4907 Y9.1707
G01 X19.4583 Y9.1924
G01 X19.4200 Y9.2000
G01 X19.3817 Y9.1924
G01 X19.3493 Y9.1707
G01 X19.3276 Y9.1383
G01 X19.3200 Y9.1000
G01 X19.3276 Y9.0617
G01 X19.3493 Y9.0293
G01 X19.3817 Y9.0076
G01 X19.4200 Y9.0000
G01 X19.4583 Y9.0076
G01 X19.4907 Y9.0293
G01 X19.5124 Y9.0617
G01 X19.5200 Y9.1000
G00 X19.5200 Y9.1000
G01 F60.00
G01 Z-0.9000
G01 F120.00
G01 X19.5124 Y9.0617
G01 X19.4907 Y9.0293
G01 X19.4583 Y9.0076
G01 X19.4200 Y9.0000
G01 X19.3817 Y9.0076
G01 X19.3493 Y9.0293
G01 X19.3276 Y9.0617
G01 X19.3200 Y9.1000
G01 X19.3276 Y9.1383
G01 X19.3493 Y9.1707
G01 X19.3817 Y9.1924
G01 X19.4200 Y9.2000
G01 X19.4583 Y9.1924
G01 X19.4907 Y9.1707
G01 X19.5124 Y9.1383
G01 X19.5200 Y9.1000
G00 X19.5200 Y9.1000
G01 F60.00
G01 Z-1.2000
G01 F120.00
G01 X19.5124 Y9.1383
G01 X19.4907 Y9.1707
G01 X19.4583 Y9.1924
G01 X19.4200 Y9.2000
G01 X19.3817 Y9.1924
G01 X19.3493 Y9.1707
G01 X19.3276 Y9.1383
G01 X19.3200 Y9.1000
G01 X19.3276 Y9.0617
G01 X19.3493 Y9.0293
G01 X19.3817 Y9.0076
G01 X19.4200 Y9.0000
G01 X19.4583 Y9.0076
G01 X19.4907 Y9.0293
G01 X19.5124 Y9.0617
G01 X19.5200 Y9.1000
G00 X19.5200 Y9.1000
G01 F60.00
G01 Z-1.5000
G01 F120.00
G01 X19.5124 Y9.0617
G01 X19.4907 Y9.0293
G01 X19.4583 Y9.0076
G01 X19.4200 Y9.0000
G01 X19.3817 Y9.0076
G01 X19.3493 Y9.0293
G01 X19.3276 Y9.0617
G01 X19.3200 Y9.1000
G01 X19.3276 Y9.1383
G01 X19.3493 Y9.1707
G01 X19.3817 Y9.1924
G01 X19.4200 Y9.2000
G01 X19.4583 Y9.1924
G01 X19.4907 Y9.1707
G01 X19.5124 Y9.1383
G01 X19.5200 Y9.1000
G00 X19.5200 Y9.1000
G01 F60.00
G01 Z-1.8000
G01 F120.00
G01 X19.5124 Y9.1383
G01 X19.4907 Y9.1707
G01 X19.4583 Y9.1924
G01 X19.4200 Y9.2000
G01 X19.3817 Y9.1924
G01 X19.3493 Y9.1707
G01 X19.3276 Y9.1383
G01 X19.3200 Y9.1000
G01 X19.3276 Y9.0617
G01 X19.3493 Y9.0293
G01 X19.3817 Y9.0076
G01 X19.4200 Y9.0000
G01 X19.4583 Y9.0076
G01 X19.4907 Y9.0293
G01 X19.5124 Y9.0617
G01 X19.5200 Y9.1000
G00 X19.5200 Y9.1000
G01 F60.00
G01 Z-2.0000
G01 F120.00
G01 X19.5124 Y9.0617
G01 X19.4907 Y9.0293
G01 X19.4583 Y9.0076
G01 X19.4200 Y9.0000
G01 X19.3817 Y9.0076
G01 X19.3493 Y9.0293
G01 X19.3276 Y9.0617
G01 X19.3200 Y9.1000
G01 X19.3276 Y9.1383
G01 X19.3493 Y9.1707
G01 X19.3817 Y9.1924
G01 X19.4200 Y9.2000
G01 X19.4583 Y9.1924
G01 X19.4907 Y9.1707
G01 X19.5124 Y9.1383
G01 X19.5200 Y9.1000
G00 Z2.0000
G00 X22.0600 Y9.1000
G01 F60.00
G01 Z-0.3000
G01 F120.00
G01 X22.0524 Y9.0617
G01 X22.0307 Y9.0293
G01 X21.9983 Y9.0076
G01 X21.9600 Y9.0000
G01 X21.9217 Y9.0076
G01 X21.8893 Y9.0293
G01 X21.8676 Y9.0617
G01 X21.8600 Y9.1000
G01 X21.8676 Y9.1383
G01 X21.8893 Y9.1707
G01 X21.9217 Y9.1924
G01 X21.9600 Y9.2000
G01 X21.9983 Y9.1924
G01 X22.0307 Y9.1707
G01 X22.0524 Y9.1383
G01 X22.0600 Y9.1000
G00 X22.0600 Y9.1000
G01 F60.00
G01 Z-0.6000
G01 F120.00
G01 X22.0524 Y9.1383
G01 X22.0307 Y9.1707
G01 X21.9983 Y9.1924
G01 X21.9600 Y9.2000
G01 X21.9217 Y9.1924
G01 X21.8893 Y9.1707
G01 X21.8676 Y9.1383
G01 X21.8600 Y9.1000
G01 X21.8676 Y9.0617
G01 X21.8893 Y9.0293
G01 X21.9217 Y9.0076
G01 X21.9600 Y9.0000
G01 X21.9983 Y9.0076
G01 X22.0307 Y9.0293
G01 X22.0524 Y9.0617
G01 X22.0600 Y9.1000
G00 X22.0600 Y9.1000
G01 F60.00
G01 Z-0.9000
G01 F120.00
G01 X22.0524 Y9.0617
G01 X22.0307 Y9.0293
G01 X21.9983 Y9.0076
G01 X21.9600 Y9.0000
G01 X21.9217 Y9.0076
G01 X21.8893 Y9.0293
G01 X21.8676 Y9.0617
G01 X21.8600 Y9.1000
G01 X21.8676 Y9.1383
G01 X21.8893 Y9.1707
G01 X21.9217 Y9.1924
G01 X21.9600 Y9.2000
G01 X21.9983 Y9.1924
G01 X22.0307 Y9.1707
G01 X22.0524 Y9.1383
G01 X22.0600 Y9.1000
G00 X22.0600 Y9.1000
G01 F60.00
G01 Z-1.2000
G01 F120.00
G01 X22.0524 Y9.1383
G01 X22.0307 Y9.1707
G01 X21.9983 Y9.1924
G01 X21.9600 Y9.2000
G01 X21.9217 Y9.1924
G01 X21.8893 Y9.1707
G01 X21.8676 Y9.1383
G01 X21.8600 Y9.1000
G01 X21.8676 Y9.0617
G01 X21.8893 Y9.0293
G01 X21.9217 Y9.0076
G01 X21.9600 Y9.0000
G01 X21.9983 Y9.0076
G01 X22.0307 Y9.0293
G01 X22.0524 Y9.0617
G01 X22.0600 Y9.1000
G00 X22.0600 Y9.1000
G01 F60.00
G01 Z-1.5000
G01 F120.00
G01 X22.0524 Y9.0617
G01 X22.0307 Y9.0293
G01 X21.9983 Y9.0076
G01 X21.9600 Y9.0000
G01 X21.9217 Y9.0076
G01 X21.8893 Y9.0293
G01 X21.8676 Y9.0617
G01 X21.8600 Y9.1000
G01 X21.8676 Y9.1383
G01 X21.8893 Y9.1707
G01 X21.9217 Y9.1924
G01 X21.9600 Y9.2000
G01 X21.9983 Y9.1924
G01 X22.0307 Y9.1707
G01 X22.0524 Y9.1383
G01 X22.0600 Y9.1000
G00 X22.0600 Y9.1000
G01 F60.00
G01 Z-1.8000
G01 F120.00
G01 X22.0524 Y9.1383
G01 X22.0307 Y9.1707
G01 X21.9983 Y9.1924
G01 X21.9600 Y9.2000
G01 X21.9217 Y9.1924
G01 X21.8893 Y9.1707
G01 X21.8676 Y9.1383
G01 X21.8600 Y9.1000
G01 X21.8676 Y9.0617
G01 X21.8893 Y9.0293
G01 X21.9217 Y9.0076
G01 X21.9600 Y9.0000
G01 X21.9983 Y9.0076
G01 X22.0307 Y9.0293
G01 X22.0524 Y9.0617
G01 X22.0600 Y9.1000
G00 X22.0600 Y9.1000
G01 F60.00
G01 Z-2.0000
G01 F120.00
G01 X22.0524 Y9.0617
G01 X22.0307 Y9.0293
G01 X21.9983 Y9.0076
G01 X21.9600 Y9.0000
G01 X21.9217 Y9.0076
G01 X21.8893 Y9.0293
G01 X21.8676 Y9.0617
G01 X21.8600 Y9.1000
G01 X21.8676 Y9.1383
G01 X21.8893 Y9.1707
G01 X21.9217 Y9.1924
G01 X21.9600 Y9.2000
G01 X21.9983 Y9.1924
G01 X22.0307 Y9.1707
G01 X22.0524 Y9.1383
G01 X22.0600 Y9.1000
G00 Z2.0000
G00 X24.6000 Y9.1000
G01 F60.00
G01 Z-0.3000
G01 F120.00
G01 X24.5924 Y9.0617
G01 X24.5707 Y9.0293
G01 X24.5383 Y9.0076
G01 X24.5000 Y9.0000
G01 X24.4617 Y9.0076
G01 X24.4293 Y9.0293
G01 X24.4076 Y9.0617
G01 X24.4000 Y9.1000
G01 X24.4076 Y9.1383
G01 X24.4293 Y9.1707
G01 X24.4617 Y9.1924
G01 X24.5000 Y9.2000
G01 X24.5383 Y9.1924
G01 X24.5707 Y9.1707
G01 X24.5924 Y9.1383
G01 X24.6000 Y9.1000
G00 X24.6000 Y9.1000
G01 F60.00
G01 Z-0.6000
G01 F120.00
G01 X24.5924 Y9.1383
G01 X24.5707 Y9.1707
G01 X24.5383 Y9.1924
G01 X24.5000 Y9.2000
G01 X24.4617 Y9.1924
G01 X24.4293 Y9.1707
G01 X24.4076 Y9.1383
G01 X24.4000 Y9.1000
G01 X24.4076 Y9.0617
G01 X24.4293 Y9.0293
G01 X24.4617 Y9.0076
G01 X24.5000 Y9.0000
G01 X24.5383 Y9.0076
G01 X24.5707 Y9.0293
G01 X24.5924 Y9.0617
G01 X24.6000 Y9.1000
G00 X24.6000 Y9.1000
G01 F60.00
G01 Z-0.9000
G01 F120.00
G01 X24.5924 Y9.0617
G01 X24.5707 Y9.0293
G01 X24.5383 Y9.0076
G01 X24.5000 Y9.0000
G01 X24.4617 Y9.0076
G01 X24.4293 Y9.0293
G01 X24.4076 Y9.0617
G01 X24.4000 Y9.1000
G01 X24.4076 Y9.1383
G01 X24.4293 Y9.1707
G01 X24.4617 Y9.1924
G01 X24.5000 Y9.2000
G01 X24.5383 Y9.1924
G01 X24.5707 Y9.1707
G01 X24.5924 Y9.1383
G01 X24.6000 Y9.1000
G00 X24.6000 Y9.1000
G01 F60.00
G01 Z-1.2000
G01 F120.00
G01 X24.5924 Y9.1383
G01 X24.5707 Y9.1707
G01 X24.5383 Y9.1924
G01 X24.5000 Y9.2000
G01 X24.4617 Y9.1924
G01 X24.4293 Y9.1707
G01 X24.4076 Y9.1383
G01 X24.4000 Y9.1000
G01 X24.4076 Y9.0617
G01 X24.4293 Y9.0293
G01 X24.4617 Y9.0076
G01 X24.5000 Y9.0000
G01 X24.5383 Y9.0076
G01 X24.5707 Y9.0293
G01 X24.5924 Y9.0617
G01 X24.6000 Y9.1000
G00 X24.6000 Y9.1000
G01 F60.00
G01 Z-1.5000
G01 F120.00
G01 X24.5924 Y9.0617
G01 X24.5707 Y9.0293
G01 X24.5383 Y9.0076
G01 X24.5000 Y9.0000
G01 X24.4617 Y9.0076
G01 X24.4293 Y9.0293
G01 X24.4076 Y9.0617
G01 X24.4000 Y9.1000
G01 X24.4076 Y9.1383
G01 X24.4293 Y9.1707
G01 X24.4617 Y9.1924
G01 X24.5000 Y9.2000
G01 X24.5383 Y9.1924
G01 X24.5707 Y9.1707
G01 X24.5924 Y9.1383
G01 X24.6000 Y9.1000
G00 X24.6000 Y9.1000
G01 F60.00
G01 Z-1.8000
G01 F120.00
G01 X24.5924 Y9.1383
G01 X24.5707 Y9.1707
G01 X24.5383 Y9.1924
G01 X24.5000 Y9.2000
G01 X24.4617 Y9.1924
G01 X24.4293 Y9.1707
G01 X24.4076 Y9.1383
G01 X24.4000 Y9.1000
G01 X24.4076 Y9.0617
G01 X24.4293 Y9.0293
G01 X24.4617 Y9.0076
G01 X24.5000 Y9.0000
G01 X24.5383 Y9.0076
G01 X24.5707 Y9.0293
G01 X24.5924 Y9.0617
G01 X24.6000 Y9.1000
G00 X24.6000 Y9.1000
G01 F60.00
G01 Z-2.0000
G01 F120.00
G01 X24.5924 Y9.0617
G01 X24.5707 Y9.0293
G01 X24.5383 Y9.0076
G01 X24.5000 Y9.0000
G01 X24.4617 Y9.0076
G01 X24.4293 Y9.0293
G01 X24.4076 Y9.0617
G01 X24.4000 Y9.1000
G01 X24.4076 Y9.1383
G01 X24.4293 Y9.1707
G01 X24.4617 Y9.1924
G01 X24.5000 Y9.2000
G01 X24.5383 Y9.1924
G01 X24.5707 Y9.1707
G01 X24.5924 Y9.1383
G01 X24.6000 Y9.1000
G00 Z2.0000
G00 X29.3000 Y9.2400
G01 F60.00
G01 Z-0.3000
G01 F120.00
G01 X29.2924 Y9.2017
G01 X29.2707 Y9.1693
G01 X29.2383 Y9.1476
G01 X29.2000 Y9.1400
G01 X29.1617 Y9.1476
G01 X29.1293 Y9.1693
G01 X29.1076 Y9.2017
G01 X29.1000 Y9.2400
G01 X29.1076 Y9.2783
G01 X29.1293 Y9.3107
G01 X29.1617 Y9.3324
G01 X29.2000 Y9.3400
G01 X29.2383 Y9.3324
G01 X29.2707 Y9.3107
G01 X29.2924 Y9.2783
G01 X29.3000 Y9.2400
G00 X29.3000 Y9.2400
G01 F60.00
G01 Z-0.6000
G01 F120.00
G01 X29.2924 Y9.2783
G01 X29.2707 Y9.3107
G01 X29.2383 Y9.3324
G01 X29.2000 Y9.3400
G01 X29.1617 Y9.3324
G01 X29.1293 Y9.3107
G01 X29.1076 Y9.2783
G01 X29.1000 Y9.2400
G01 X29.1076 Y9.2017
G01 X29.1293 Y9.1693
G01 X29.1617 Y9.1476
G01 X29.2000 Y9.1400
G01 X29.2383 Y9.1476
G01 X29.2707 Y9.1693
G01 X29.2924 Y9.2017
G01 X29.3000 Y9.2400
G00 X29.3000 Y9.2400
G01 F60.00
G01 Z-0.9000
G01 F120.00
G01 X29.2924 Y9.2017
G01 X29.2707 Y9.1693
G01 X29.2383 Y9.1476
G01 X29.2000 Y9.1400
G01 X29.1617 Y9.1476
G01 X29.1293 Y9.1693
G01 X29.1076 Y9.2017
G01 X29.1000 Y9.2400
G01 X29.1076 Y9.2783
G01 X29.1293 Y9.3107
G01 X29.1617 Y9.3324
G01 X29.2000 Y9.3400
G01 X29.2383 Y9.3324
G01 X29.2707 Y9.3107
G01 X29.2924 Y9.2783
G01 X29.3000 Y9.2400
G00 X29.3000 Y9.2400
G01 F60.00
G01 Z-1.2000
G01 F120.00
G01 X29.2924 Y9.2783
G01 X29.2707 Y9.3107
G01 X29.2383 Y9.3324
G01 X29.2000 Y9.3400
G01 X29.1617 Y9.3324
G01 X29.1293 Y9.3107
G01 X29.1076 Y9.2783
G01 X29.1000 Y9.2400
G01 X29.1076 Y9.2017
G01 X29.1293 Y9.1693
G01 X29.1617 Y9.1476
G01 X29.2000 Y9.1400
G01 X29.2383 Y9.1476
G01 X29.2707 Y9.1693
G01 X29.2924 Y9.2017
G01 X29.3000 Y9.2400
G00 X29.3000 Y9.2400
G01 F60.00
G01 Z-1.5000
G01 F120.00
G01 X29.2924 Y9.2017
G01 X29.2707 Y9.1693
G01 X29.2383 Y9.1476
G01 X29.2000 Y9.1400
G01 X29.1617 Y9.1476
G01 X29.1293 Y9.1693
G01 X29.1076 Y9.2017
G01 X29.1000 Y9.2400
G01 X29.1076 Y9.2783
G01 X29.1293 Y9.3107
G01 X29.1617 Y9.3324
G01 X29.2000 Y9.3400
G01 X29.2383 Y9.3324
G01 X29.2707 Y9.3107
G01 X29.2924 Y9.2783
G01 X29.3000 Y9.2400
G00 X29.3000 Y9.2400
G01 F60.00
G01 Z-1.8000
G01 F120.00
G01 X29.2924 Y9.2783
G01 X29.2707 Y9.3107
G01 X29.2383 Y9.3324
G01 X29.2000 Y9.3400
G01 X29.1617 Y9.3324
G01 X29.1293 Y9.3107
G01 X29.1076 Y9.2783
G01 X29.1000 Y9.2400
G01 X29.1076 Y9.2017
G01 X29.1293 Y9.1693
G01 X29.1617 Y9.1476
G01 X29.2000 Y9.1400
G01 X29.2383 Y9.1476
G01 X29.2707 Y9.1693
G01 X29.2924 Y9.2017
G01 X29.3000 Y9.2400
G00 X29.3000 Y9.2400
G01 F60.00
G01 Z-2.0000
G01 F120.00
G01 X29.2924 Y9.2017
G01 X29.2707 Y9.1693
G01 X29.2383 Y9.1476
G01 X29.2000 Y9.1400
G01 X29.1617 Y9.1476
G01 X29.1293 Y9.1693
G01 X29.1076 Y9.2017
G01 X29.1000 Y9.2400
G01 X29.1076 Y9.2783
G01 X29.1293 Y9.3107
G01 X29.1617 Y9.3324
G01 X29.2000 Y9.3400
G01 X29.2383 Y9.3324
G01 X29.2707 Y9.3107
G01 X29.2924 Y9.2783
G01 X29.3000 Y9.2400
G00 Z2.0000
G00 X29.3000 Y6.7000
G01 F60.00
G01 Z-0.3000
G01 F120.00
G01 X29.2924 Y6.6617
G01 X29.2707 Y6.6293
G01 X29.2383 Y6.6076
G01 X29.2000 Y6.6000
G01 X29.1617 Y6.6076
G01 X29.1293 Y6.6293
G01 X29.1076 Y6.6617
G01 X29.1000 Y6.7000
G01 X29.1076 Y6.7383
G01 X29.1293 Y6.7707
G01 X29.1617 Y6.7924
G01 X29.2000 Y6.8000
G01 X29.2383 Y6.7924
G01 X29.2707 Y6.7707
G01 X29.2924 Y6.7383
G01 X29.3000 Y6.7000
G00 X29.3000 Y6.7000
G01 F60.00
G01 Z-0.6000
G01 F120.00
G01 X29.2924 Y6.7383
G01 X29.2707 Y6.7707
G01 X29.2383 Y6.7924
G01 X29.2000 Y6.8000
G01 X29.1617 Y6.7924
G01 X29.1293 Y6.7707
G01 X29.1076 Y6.7383
G01 X29.1000 Y6.7000
G01 X29.1076 Y6.6617
G01 X29.1293 Y6.6293
G01 X29.1617 Y6.6076
G01 X29.2000 Y6.6000
G01 X29.2383 Y6.6076
G01 X29.2707 Y6.6293
G01 X29.2924 Y6.6617
G01 X29.3000 Y6.7000
G00 X29.3000 Y6.7000
G01 F60.00
G01 Z-0.9000
G01 F120.00
G01 X29.2924 Y6.6617
G01 X29.2707 Y6.6293
G01 X29.2383 Y6.6076
G01 X29.2000 Y6.6000
G01 X29.1617 Y6.6076
G01 X29.1293 Y6.6293
G01 X29.1076 Y6.6617
G01 X29.1000 Y6.7000
G01 X29.1076 Y6.7383
G01 X29.1293 Y6.7707
G01 X29.1617 Y6.7924
G01 X29.2000 Y6.8000
G01 X29.2383 Y6.7924
G01 X29.2707 Y6.7707
G01 X29.2924 Y6.7383
G01 X29.3000 Y6.7000
G00 X29.3000 Y6.7000
G01 F60.00
G01 Z-1.2000
G01 F120.00
G01 X29.2924 Y6.7383
G01 X29.2707 Y6.7707
G01 X29.2383 Y6.7924
G01 X29.2000 Y6.8000
G01 X29.1617 Y6.7924
G01 X29.1293 Y6.7707
G01 X29.1076 Y6.7383
G01 X29.1000 Y6.7000
G01 X29.1076 Y6.6617
G01 X29.1293 Y6.6293
G01 X29.1617 Y6.6076
G01 X29.2000 Y6.6000
G01 X29.2383 Y6.6076
G01 X29.2707 Y6.6293
G01 X29.2924 Y6.6617
G01 X29.3000 Y6.7000
G00 X29.3000 Y6.7000
G01 F60.00
G01 Z-1.5000
G01 F120.00
G01 X29.2924 Y6.6617
G01 X29.2707 Y6.6293
G01 X29.2383 Y6.6076
G01 X29.2000 Y6.6000
G01 X29.1617 Y6.6076
G01 X29.1293 Y6.6293
G01 X29.1076 Y6.6617
G01 X29.1000 Y6.7000
G01 X29.1076 Y6.7383
G01 X29.1293 Y6.7707
G01 X29.1617 Y6.7924
G01 X29.2000 Y6.8000
G01 X29.2383 Y6.7924
G01 X29.2707 Y6.7707
G01 X29.2924 Y6.7383
G01 X29.3000 Y6.7000
G00 X29.3000 Y6.7000
G01 F60.00
G01 Z-1.8000
G01 F120.00
G01 X29.2924 Y6.7383
G01 X29.2707 Y6.7707
G01 X29.2383 Y6.7924
G01 X29.2000 Y6.8000
G01 X29.1617 Y6.7924
G01 X29.1293 Y6.7707
G01 X29.1076 Y6.7383
G01 X29.1000 Y6.7000
G01 X29.1076 Y6.6617
G01 X29.1293 Y6.6293
G01 X29.1617 Y6.6076
G01 X29.2000 Y6.6000
G01 X29.2383 Y6.6076
G01 X29.2707 Y6.6293
G01 X29.2924 Y6.6617
G01 X29.3000 Y6.7000
G00 X29.3000 Y6.7000
G01 F60.00
G01 Z-2.0000
G01 F120.00
G01 X29.2924 Y6.6617
G01 X29.2707 Y6.6293
G01 X29.2383 Y6.6076
G01 X29.2000 Y6.6000
G01 X29.1617 Y6.6076
G01 X29.1293 Y6.6293
G01 X29.1076 Y6.6617
G01 X29.1000 Y6.7000
G01 X29.1076 Y6.7383
G01 X29.1293 Y6.7707
G01 X29.1617 Y6.7924
G01 X29.2000 Y6.8000
G01 X29.2383 Y6.7924
G01 X29.2707 Y6.7707
G01 X29.2924 Y6.7383
G01 X29.3000 Y6.7000
G00 Z2.0000
G00 X33.7000 Y6.6720
G01 F60.00
G01 Z-0.3000
G01 F120.00
G01 X33.6924 Y6.6337
G01 X33.6707 Y6.6013
G01 X33.6383 Y6.5796
G01 X33.6000 Y6.5720
G01 X33.5617 Y6.5796
G01 X33.5293 Y6.6013
G01 X33.5076 Y6.6337
G01 X33.5000 Y6.6720
G01 X33.5076 Y6.7103
G01 X33.5293 Y6.7427
G01 X33.5617 Y6.7644
G01 X33.6000 Y6.7720
G01 X33.6383 Y6.7644
G01 X33.6707 Y6.7427
G01 X33.6924 Y6.7103
G01 X33.7000 Y6.6720
G00 X33.7000 Y6.6720
G01 F60.00
G01 Z-0.6000
G01 F120.00
G01 X33.6924 Y6.7103
G01 X33.6707 Y6.7427
G01 X33.6383 Y6.7644
G01 X33.6000 Y6.7720
G01 X33.5617 Y6.7644
G01 X33.5293 Y6.7427
G01 X33.5076 Y6.7103
G01 X33.5000 Y6.6720
G01 X33.5076 Y6.6337
G01 X33.5293 Y6.6013
G01 X33.5617 Y6.5796
G01 X33.6000 Y6.5720
G01 X33.6383 Y6.5796
G01 X33.6707 Y6.6013
G01 X33.6924 Y6.6337
G01 X33.7000 Y6.6720
G00 X33.7000 Y6.6720
G01 F60.00
G01 Z-0.9000
G01 F120.00
G01 X33.6924 Y6.6337
G01 X33.6707 Y6.6013
G01 X33.6383 Y6.5796
G01 X33.6000 Y6.5720
G01 X33.5617 Y6.5796
G01 X33.5293 Y6.6013
G01 X33.5076 Y6.6337
G01 X33.5000 Y6.6720
G01 X33.5076 Y6.7103
G01 X33.5293 Y6.7427
G01 X33.5617 Y6.7644
G01 X33.6000 Y6.7720
G01 X33.6383 Y6.7644
G01 X33.6707 Y6.7427
G01 X33.6924 Y6.7103
G01 X33.7000 Y6.6720
G00 X33.7000 Y6.6720
G01 F60.00
G01 Z-1.2000
G01 F120.00
G01 X33.6924 Y6.7103
G01 X33.6707 Y6.7427
G01 X33.6383 Y6.7644
G01 X33.6000 Y6.7720
G01 X33.5617 Y6.7644
G01 X33.5293 Y6.7427
G01 X33.5076 Y6.7103
G01 X33.5000 Y6.6720
G01 X33.5076 Y6.6337
G01 X33.5293 Y6.6013
G01 X33.5617 Y6.5796
G01 X33.6000 Y6.5720
G01 X33.6383 Y6.5796
G01 X33.6707 Y6.6013
G01 X33.6924 Y6.6337
G01 X33.7000 Y6.6720
G00 X33.7000 Y6.6720
G01 F60.00
G01 Z-1.5000
G01 F120.00
G01 X33.6924 Y6.6337
G01 X33.6707 Y6.6013
G01 X33.6383 Y6.5796
G01 X33.6000 Y6.5720
G01 X33.5617 Y6.5796
G01 X33.5293 Y6.6013
G01 X33.5076 Y6.6337
G01 X33.5000 Y6.6720
G01 X33.5076 Y6.7103
G01 X33.5293 Y6.7427
G01 X33.5617 Y6.7644
G01 X33.6000 Y6.7720
G01 X33.6383 Y6.7644
G01 X33.6707 Y6.7427
G01 X33.6924 Y6.7103
G01 X33.7000 Y6.6720
G00 X33.7000 Y6.6720
G01 F60.00
G01 Z-1.8000
G01 F120.00
G01 X33.6924 Y6.7103
G01 X33.6707 Y6.7427
G01 X33.6383 Y6.7644
G01 X33.6000 Y6.7720
G01 X33.5617 Y6.7644
G01 X33.5293 Y6.7427
G01 X33.5076 Y6.7103
G01 X33.5000 Y6.6720
G01 X33.5076 Y6.6337
G01 X33.5293 Y6.6013
G01 X33.5617 Y6.5796
G01 X33.6000 Y6.5720
G01 X33.6383 Y6.5796
G01 X33.6707 Y6.6013
G01 X33.6924 Y6.6337
G01 X33.7000 Y6.6720
G00 X33.7000 Y6.6720
G01 F60.00
G01 Z-2.0000
G01 F120.00
G01 X33.6924 Y6.6337
G01 X33.6707 Y6.6013
G01 X33.6383 Y6.5796
G01 X33.6000 Y6.5720
G01 X33.5617 Y6.5796
G01 X33.5293 Y6.6013
G01 X33.5076 Y6.6337
G01 X33.5000 Y6.6720
G01 X33.5076 Y6.7103
G01 X33.5293 Y6.7427
G01 X33.5617 Y6.7644
G01 X33.6000 Y6.7720
G01 X33.6383 Y6.7644
G01 X33.6707 Y6.7427
G01 X33.6924 Y6.7103
G01 X33.7000 Y6.6720
G00 Z2.0000
G00 X33.7000 Y9.2130
G01 F60.00
G01 Z-0.3000
G01 F120.00
G01 X33.6924 Y9.1747
G01 X33.6707 Y9.1423
G01 X33.6383 Y9.1206
G01 X33.6000 Y9.1130
G01 X33.5617 Y9.1206
G01 X33.5293 Y9.1423
G01 X33.5076 Y9.1747
G01 X33.5000 Y9.2130
G01 X33.5076 Y9.2513
G01 X33.5293 Y9.2837
G01 X33.5617 Y9.3054
G01 X33.6000 Y9.3130
G01 X33.6383 Y9.3054
G01 X33.6707 Y9.2837
G01 X33.6924 Y9.2513
G01 X33.7000 Y9.2130
G00 X33.7000 Y9.2130
G01 F60.00
G01 Z-0.6000
G01 F120.00
G01 X33.6924 Y9.2513
G01 X33.6707 Y9.2837
G01 X33.6383 Y9.3054
G01 X33.6000 Y9.3130
G01 X33.5617 Y9.3054
G01 X33.5293 Y9.2837
G01 X33.5076 Y9.2513
G01 X33.5000 Y9.2130
G01 X33.5076 Y9.1747
G01 X33.5293 Y9.1423
G01 X33.5617 Y9.1206
G01 X33.6000 Y9.1130
G01 X33.6383 Y9.1206
G01 X33.6707 Y9.1423
G01 X33.6924 Y9.1747
G01 X33.7000 Y9.2130
G00 X33.7000 Y9.2130
G01 F60.00
G01 Z-0.9000
G01 F120.00
G01 X33.6924 Y9.1747
G01 X33.6707 Y9.1423
G01 X33.6383 Y9.1206
G01 X33.6000 Y9.1130
G01 X33.5617 Y9.1206
G01 X33.5293 Y9.1423
G01 X33.5076 Y9.1747
G01 X33.5000 Y9.2130
G01 X33.5076 Y9.2513
G01 X33.5293 Y9.2837
G01 X33.5617 Y9.3054
G01 X33.6000 Y9.3130
G01 X33.6383 Y9.3054
G01 X33.6707 Y9.2837
G01 X33.6924 Y9.2513
G01 X33.7000 Y9.2130
G00 X33.7000 Y9.2130
G01 F60.00
G01 Z-1.2000
G01 F120.00
G01 X33.6924 Y9.2513
G01 X33.6707 Y9.2837
G01 X33.6383 Y9.3054
G01 X33.6000 Y9.3130
G01 X33.5617 Y9.3054
G01 X33.5293 Y9.2837
G01 X33.5076 Y9.2513
G01 X33.5000 Y9.2130
G01 X33.5076 Y9.1747
G01 X33.5293 Y9.1423
G01 X33.5617 Y9.1206
G01 X33.6000 Y9.1130
G01 X33.6383 Y9.1206
G01 X33.6707 Y9.1423
G01 X33.6924 Y9.1747
G01 X33.7000 Y9.2130
G00 X33.7000 Y9.2130
G01 F60.00
G01 Z-1.5000
G01 F120.00
G01 X33.6924 Y9.1747
G01 X33.6707 Y9.1423
G01 X33.6383 Y9.1206
G01 X33.6000 Y9.1130
G01 X33.5617 Y9.1206
G01 X33.5293 Y9.1423
G01 X33.5076 Y9.1747
G01 X33.5000 Y9.2130
G01 X33.5076 Y9.2513
G01 X33.5293 Y9.2837
G01 X33.5617 Y9.3054
G01 X33.6000 Y9.3130
G01 X33.6383 Y9.3054
G01 X33.6707 Y9.2837
G01 X33.6924 Y9.2513
G01 X33.7000 Y9.2130
G00 X33.7000 Y9.2130
G01 F60.00
G01 Z-1.8000
G01 F120.00
G01 X33.6924 Y9.2513
G01 X33.6707 Y9.2837
G01 X33.6383 Y9.3054
G01 X33.6000 Y9.3130
G01 X33.5617 Y9.3054
G01 X33.5293 Y9.2837
G01 X33.5076 Y9.2513
G01 X33.5000 Y9.2130
G01 X33.5076 Y9.1747
G01 X33.5293 Y9.1423
G01 X33.5617 Y9.1206
G01 X33.6000 Y9.1130
G01 X33.6383 Y9.1206
G01 X33.6707 Y9.1423
G01 X33.6924 Y9.1747
G01 X33.7000 Y9.2130
G00 X33.7000 Y9.2130
G01 F60.00
G01 Z-2.0000
G01 F120.00
G01 X33.6924 Y9.1747
G01 X33.6707 Y9.1423
G01 X33.6383 Y9.1206
G01 X33.6000 Y9.1130
G01 X33.5617 Y9.1206
G01 X33.5293 Y9.1423
G01 X33.5076 Y9.1747
G01 X33.5000 Y9.2130
G01 X33.5076 Y9.2513
G01 X33.5293 Y9.2837
G01 X33.5617 Y9.3054
G01 X33.6000 Y9.3130
G01 X33.6383 Y9.3054
G01 X33.6707 Y9.2837
G01 X33.6924 Y9.2513
G01 X33.7000 Y9.2130
G00 Z2.0000
G00 X32.2600 Y13.8900
G01 F60.00
G01 Z-0.3000
G01 F120.00
G01 X32.2541 Y13.8759
G01 X32.2400 Y13.8700
G01 X32.2259 Y13.8759
G01 X32.2200 Y13.8900
G01 X32.2259 Y13.9041
G01 X32.2400 Y13.9100
G01 X32.2541 Y13.9041
G01 X32.2600 Y13.8900
G00 X32.2600 Y13.8900
G01 F60.00
G01 Z-0.6000
G01 F120.00
G01 X32.2541 Y13.9041
G01 X32.2400 Y13.9100
G01 X32.2259 Y13.9041
G01 X32.2200 Y13.8900
G01 X32.2259 Y13.8759
G01 X32.2400 Y13.8700
G01 X32.2541 Y13.8759
G01 X32.2600 Y13.8900
G00 X32.2600 Y13.8900
G01 F60.00
G01 Z-0.9000
G01 F120.00
G01 X32.2541 Y13.8759
G01 X32.2400 Y13.8700
G01 X32.2259 Y13.8759
G01 X32.2200 Y13.8900
G01 X32.2259 Y13.9041
G01 X32.2400 Y13.9100
G01 X32.2541 Y13.9041
G01 X32.2600 Y13.8900
G00 X32.2600 Y13.8900
G01 F60.00
G01 Z-1.2000
G01 F120.00
G01 X32.2541 Y13.9041
G01 X32.2400 Y13.9100
G01 X32.2259 Y13.9041
G01 X32.2200 Y13.8900
G01 X32.2259 Y13.8759
G01 X32.2400 Y13.8700
G01 X32.2541 Y13.8759
G01 X32.2600 Y13.8900
G00 X32.2600 Y13.8900
G01 F60.00
G01 Z-1.5000
G01 F120.00
G01 X32.2541 Y13.8759
G01 X32.2400 Y13.8700
G01 X32.2259 Y13.8759
G01 X32.2200 Y13.8900
G01 X32.2259 Y13.9041
G01 X32.2400 Y13.9100
G01 X32.2541 Y13.9041
G01 X32.2600 Y13.8900
G00 X32.2600 Y13.8900
G01 F60.00
G01 Z-1.8000
G01 F120.00
G01 X32.2541 Y13.9041
G01 X32.2400 Y13.9100
G01 X32.2259 Y13.9041
G01 X32.2200 Y13.8900
G01 X32.2259 Y13.8759
G01 X32.2400 Y13.8700
G01 X32.2541 Y13.8759
G01 X32.2600 Y13.8900
G00 X32.2600 Y13.8900
G01 F60.00
G01 Z-2.0000
G01 F120.00
G01 X32.2541 Y13.8759
G01 X32.2400 Y13.8700
G01 X32.2259 Y13.8759
G01 X32.2200 Y13.8900
G01 X32.2259 Y13.9041
G01 X32.2400 Y13.9100
G01 X32.2541 Y13.9041
G01 X32.2600 Y13.8900
G00 Z2.0000
G00 X29.7200 Y13.8900
G01 F60.00
G01 Z-0.3000
G01 F120.00
G01 X29.7141 Y13.8759
G01 X29.7000 Y13.8700
G01 X29.6859 Y13.8759
G01 X29.6800 Y13.8900
G01 X29.6859 Y13.9041
G01 X29.7000 Y13.9100
G01 X29.7141 Y13.9041
G01 X29.7200 Y13.8900
G00 X29.7200 Y13.8900
G01 F60.00
G01 Z-0.6000
G01 F120.00
G01 X29.7141 Y13.9041
G01 X29.7000 Y13.9100
G01 X29.6859 Y13.9041
G01 X29.6800 Y13.8900
G01 X29.6859 Y13.8759
G01 X29.7000 Y13.8700
G01 X29.7141 Y13.8759
G01 X29.7200 Y13.8900
G00 X29.7200 Y13.8900
G01 F60.00
G01 Z-0.9000
G01 F120.00
G01 X29.7141 Y13.8759
G01 X29.7000 Y13.8700
G01 X29.6859 Y13.8759
G01 X29.6800 Y13.8900
G01 X29.6859 Y13.9041
G01 X29.7000 Y13.9100
G01 X29.7141 Y13.9041
G01 X29.7200 Y13.8900
G00 X29.7200 Y13.8900
G01 F60.00
G01 Z-1.2000
G01 F120.00
G01 X29.7141 Y13.9041
G01 X29.7000 Y13.9100
G01 X29.6859 Y13.9041
G01 X29.6800 Y13.8900
G01 X29.6859 Y13.8759
G01 X29.7000 Y13.8700
G01 X29.7141 Y13.8759
G01 X29.7200 Y13.8900
G00 X29.7200 Y13.8900
G01 F60.00
G01 Z-1.5000
G01 F120.00
G01 X29.7141 Y13.8759
G01 X29.7000 Y13.8700
G01 X29.6859 Y13.8759
G01 X29.6800 Y13.8900
G01 X29.6859 Y13.9041
G01 X29.7000 Y13.9100
G01 X29.7141 Y13.9041
G01 X29.7200 Y13.8900
G00 X29.7200 Y13.8900
G01 F60.00
G01 Z-1.8000
G01 F120.00
G01 X29.7141 Y13.9041
G01 X29.7000 Y13.9100
G01 X29.6859 Y13.9041
G01 X29.6800 Y13.8900
G01 X29.6859 Y13.8759
G01 X29.7000 Y13.8700
G01 X29.7141 Y13.8759
G01 X29.7200 Y13.8900
G00 X29.7200 Y13.8900
G01 F60.00
G01 Z-2.0000
G01 F120.00
G01 X29.7141 Y13.8759
G01 X29.7000 Y13.8700
G01 X29.6859 Y13.8759
G01 X29.6800 Y13.8900
G01 X29.6859 Y13.9041
G01 X29.7000 Y13.9100
G01 X29.7141 Y13.9041
G01 X29.7200 Y13.8900
G00 Z2.0000
G00 X27.1800 Y13.8900
G01 F60.00
G01 Z-0.3000
G01 F120.00
G01 X27.1741 Y13.8759
G01 X27.1600 Y13.8700
G01 X27.1459 Y13.8759
G01 X27.1400 Y13.8900
G01 X27.1459 Y13.9041
G01 X27.1600 Y13.9100
G01 X27.1741 Y13.9041
G01 X27.1800 Y13.8900
G00 X27.1800 Y13.8900
G01 F60.00
G01 Z-0.6000
G01 F120.00
G01 X27.1741 Y13.9041
G01 X27.1600 Y13.9100
G01 X27.1459 Y13.9041
G01 X27.1400 Y13.8900
G01 X27.1459 Y13.8759
G01 X27.1600 Y13.8700
G01 X27.1741 Y13.8759
G01 X27.1800 Y13.8900
G00 X27.1800 Y13.8900
G01 F60.00
G01 Z-0.9000
G01 F120.00
G01 X27.1741 Y13.8759
G01 X27.1600 Y13.8700
G01 X27.1459 Y13.8759
G01 X27.1400 Y13.8900
G01 X27.1459 Y13.9041
G01 X27.1600 Y13.9100
G01 X27.1741 Y13.9041
G01 X27.1800 Y13.8900
G00 X27.1800 Y13.8900
G01 F60.00
G01 Z-1.2000
G01 F120.00
G01 X27.1741 Y13.9041
G01 X27.1600 Y13.9100
G01 X27.1459 Y13.9041
G01 X27.1400 Y13.8900
G01 X27.1459 Y13.8759
G01 X27.1600 Y13.8700
G01 X27.1741 Y13.8759
G01 X27.1800 Y13.8900
G00 X27.1800 Y13.8900
G01 F60.00
G01 Z-1.5000
G01 F120.00
G01 X27.1741 Y13.8759
G01 X27.1600 Y13.8700
G01 X27.1459 Y13.8759
G01 X27.1400 Y13.8900
G01 X27.1459 Y13.9041
G01 X27.1600 Y13.9100
G01 X27.1741 Y13.9041
G01 X27.1800 Y13.8900
G00 X27.1800 Y13.8900
G01 F60.00
G01 Z-1.8000
G01 F120.00
G01 X27.1741 Y13.9041
G01 X27.1600 Y13.9100
G01 X27.1459 Y13.9041
G01 X27.1400 Y13.8900
G01 X27.1459 Y13.8759
G01 X27.1600 Y13.8700
G01 X27.1741 Y13.8759
G01 X27.1800 Y13.8900
G00 X27.1800 Y13.8900
G01 F60.00
G01 Z-2.0000
G01 F120.00
G01 X27.1741 Y13.8759
G01 X27.1600 Y13.8700
G01 X27.1459 Y13.8759
G01 X27.1400 Y13.8900
G01 X27.1459 Y13.9041
G01 X27.1600 Y13.9100
G01 X27.1741 Y13.9041
G01 X27.1800 Y13.8900
G00 Z2.0000
G00 X24.6400 Y13.8900
G01 F60.00
G01 Z-0.3000
G01 F120.00
G01 X24.6341 Y13.8759
G01 X24.6200 Y13.8700
G01 X24.6059 Y13.8759
G01 X24.6000 Y13.8900
G01 X24.6059 Y13.9041
G01 X24.6200 Y13.9100
G01 X24.6341 Y13.9041
G01 X24.6400 Y13.8900
G00 X24.6400 Y13.8900
G01 F60.00
G01 Z-0.6000
G01 F120.00
G01 X24.6341 Y13.9041
G01 X24.6200 Y13.9100
G01 X24.6059 Y13.9041
G01 X24.6000 Y13.8900
G01 X24.6059 Y13.8759
G01 X24.6200 Y13.8700
G01 X24.6341 Y13.8759
G01 X24.6400 Y13.8900
G00 X24.6400 Y13.8900
G01 F60.00
G01 Z-0.9000
G01 F120.00
G01 X24.6341 Y13.8759
G01 X24.6200 Y13.8700
G01 X24.6059 Y13.8759
G01 X24.6000 Y13.8900
G01 X24.6059 Y13.9041
G01 X24.6200 Y13.9100
G01 X24.6341 Y13.9041
G01 X24.6400 Y13.8900
G00 X24.6400 Y13.8900
G01 F60.00
G01 Z-1.2000
G01 F120.00
G01 X24.6341 Y13.9041
G01 X24.6200 Y13.9100
G01 X24.6059 Y13.9041
G01 X24.6000 Y13.8900
G01 X24.6059 Y13.8759
G01 X24.6200 Y13.8700
G01 X24.6341 Y13.8759
G01 X24.6400 Y13.8900
G00 X24.6400 Y13.8900
G01 F60.00
G01 Z-1.5000
G01 F120.00
G01 X24.6341 Y13.8759
G01 X24.6200 Y13.8700
G01 X24.6059 Y13.8759
G01 X24.6000 Y13.8900
G01 X24.6059 Y13.9041
G01 X24.6200 Y13.9100
G01 X24.6341 Y13.9041
G01 X24.6400 Y13.8900
G00 X24.6400 Y13.8900
G01 F60.00
G01 Z-1.8000
G01 F120.00
G01 X24.6341 Y13.9041
G01 X24.6200 Y13.9100
G01 X24.6059 Y13.9041
G01 X24.6000 Y13.8900
G01 X24.6059 Y13.8759
G01 X24.6200 Y13.8700
G01 X24.6341 Y13.8759
G01 X24.6400 Y13.8900
G00 X24.6400 Y13.8900
G01 F60.00
G01 Z-2.0000
G01 F120.00
G01 X24.6341 Y13.8759
G01 X24.6200 Y13.8700
G01 X24.6059 Y13.8759
G01 X24.6000 Y13.8900
G01 X24.6059 Y13.9041
G01 X24.6200 Y13.9100
G01 X24.6341 Y13.9041
G01 X24.6400 Y13.8900
G00 Z2.0000
G00 X22.1000 Y13.8900
G01 F60.00
G01 Z-0.3000
G01 F120.00
G01 X22.0941 Y13.8759
G01 X22.0800 Y13.8700
G01 X22.0659 Y13.8759
G01 X22.0600 Y13.8900
G01 X22.0659 Y13.9041
G01 X22.0800 Y13.9100
G01 X22.0941 Y13.9041
G01 X22.1000 Y13.8900
G00 X22.1000 Y13.8900
G01 F60.00
G01 Z-0.6000
G01 F120.00
G01 X22.0941 Y13.9041
G01 X22.0800 Y13.9100
G01 X22.0659 Y13.9041
G01 X22.0600 Y13.8900
G01 X22.0659 Y13.8759
G01 X22.0800 Y13.8700
G01 X22.0941 Y13.8759
G01 X22.1000 Y13.8900
G00 X22.1000 Y13.8900
G01 F60.00
G01 Z-0.9000
G01 F120.00
G01 X22.0941 Y13.8759
G01 X22.0800 Y13.8700
G01 X22.0659 Y13.8759
G01 X22.0600 Y13.8900
G01 X22.0659 Y13.9041
G01 X22.0800 Y13.9100
G01 X22.0941 Y13.9041
G01 X22.1000 Y13.8900
G00 X22.1000 Y13.8900
G01 F60.00
G01 Z-1.2000
G01 F120.00
G01 X22.0941 Y13.9041
G01 X22.0800 Y13.9100
G01 X22.0659 Y13.9041
G01 X22.0600 Y13.8900
G01 X22.0659 Y13.8759
G01 X22.0800 Y13.8700
G01 X22.0941 Y13.8759
G01 X22.1000 Y13.8900
G00 X22.1000 Y13.8900
G01 F60.00
G01 Z-1.5000
G01 F120.00
G01 X22.0941 Y13.8759
G01 X22.0800 Y13.8700
G01 X22.0659 Y13.8759
G01 X22.0600 Y13.8900
G01 X22.0659 Y13.9041
G01 X22.0800 Y13.9100
G01 X22.0941 Y13.9041
G01 X22.1000 Y13.8900
G00 X22.1000 Y13.8900
G01 F60.00
G01 Z-1.8000
G01 F120.00
G01 X22.0941 Y13.9041
G01 X22.0800 Y13.9100
G01 X22.0659 Y13.9041
G01 X22.0600 Y13.8900
G01 X22.0659 Y13.8759
G01 X22.0800 Y13.8700
G01 X22.0941 Y13.8759
G01 X22.1000 Y13.8900
G00 X22.1000 Y13.8900
G01 F60.00
G01 Z-2.0000
G01 F120.00
G01 X22.0941 Y13.8759
G01 X22.0800 Y13.8700
G01 X22.0659 Y13.8759
G01 X22.0600 Y13.8900
G01 X22.0659 Y13.9041
G01 X22.0800 Y13.9100
G01 X22.0941 Y13.9041
G01 X22.1000 Y13.8900
G00 Z2.0000
G00 X19.5600 Y13.8900
G01 F60.00
G01 Z-0.3000
G01 F120.00
G01 X19.5541 Y13.8759
G01 X19.5400 Y13.8700
G01 X19.5259 Y13.8759
G01 X19.5200 Y13.8900
G01 X19.5259 Y13.9041
G01 X19.5400 Y13.9100
G01 X19.5541 Y13.9041
G01 X19.5600 Y13.8900
G00 X19.5600 Y13.8900
G01 F60.00
G01 Z-0.6000
G01 F120.00
G01 X19.5541 Y13.9041
G01 X19.5400 Y13.9100
G01 X19.5259 Y13.9041
G01 X19.5200 Y13.8900
G01 X19.5259 Y13.8759
G01 X19.5400 Y13.8700
G01 X19.5541 Y13.8759
G01 X19.5600 Y13.8900
G00 X19.5600 Y13.8900
G01 F60.00
G01 Z-0.9000
G01 F120.00
G01 X19.5541 Y13.8759
G01 X19.5400 Y13.8700
G01 X19.5259 Y13.8759
G01 X19.5200 Y13.8900
G01 X19.5259 Y13.9041
G01 X19.5400 Y13.9100
G01 X19.5541 Y13.9041
G01 X19.5600 Y13.8900
G00 X19.5600 Y13.8900
G01 F60.00
G01 Z-1.2000
G01 F120.00
G01 X19.5541 Y13.9041
G01 X19.5400 Y13.9100
G01 X19.5259 Y13.9041
G01 X19.5200 Y13.8900
G01 X19.5259 Y13.8759
G01 X19.5400 Y13.8700
G01 X19.5541 Y13.8759
G01 X19.5600 Y13.8900
G00 X19.5600 Y13.8900
G01 F60.00
G01 Z-1.5000
G01 F120.00
G01 X19.5541 Y13.8759
G01 X19.5400 Y13.8700
G01 X19.5259 Y13.8759
G01 X19.5200 Y13.8900
G01 X19.5259 Y13.9041
G01 X19.5400 Y13.9100
G01 X19.5541 Y13.9041
G01 X19.5600 Y13.8900
G00 X19.5600 Y13.8900
G01 F60.00
G01 Z-1.8000
G01 F120.00
G01 X19.5541 Y13.9041
G01 X19.5400 Y13.9100
G01 X19.5259 Y13.9041
G01 X19.5200 Y13.8900
G01 X19.5259 Y13.8759
G01 X19.5400 Y13.8700
G01 X19.5541 Y13.8759
G01 X19.5600 Y13.8900
G00 X19.5600 Y13.8900
G01 F60.00
G01 Z-2.0000
G01 F120.00
G01 X19.5541 Y13.8759
G01 X19.5400 Y13.8700
G01 X19.5259 Y13.8759
G01 X19.5200 Y13.8900
G01 X19.5259 Y13.9041
G01 X19.5400 Y13.9100
G01 X19.5541 Y13.9041
G01 X19.5600 Y13.8900
G00 Z2.0000
G00 X17.0200 Y13.8900
G01 F60.00
G01 Z-0.3000
G01 F120.00
G01 X17.0141 Y13.8759
G01 X17.0000 Y13.8700
G01 X16.9859 Y13.8759
G01 X16.9800 Y13.8900
G01 X16.9859 Y13.9041
G01 X17.0000 Y13.9100
G01 X17.0141 Y13.9041
G01 X17.0200 Y13.8900
G00 X17.0200 Y13.8900
G01 F60.00
G01 Z-0.6000
G01 F120.00
G01 X17.0141 Y13.9041
G01 X17.0000 Y13.9100
G01 X16.9859 Y13.9041
G01 X16.9800 Y13.8900
G01 X16.9859 Y13.8759
G01 X17.0000 Y13.8700
G01 X17.0141 Y13.8759
G01 X17.0200 Y13.8900
G00 X17.0200 Y13.8900
G01 F60.00
G01 Z-0.9000
G01 F120.00
G01 X17.0141 Y13.8759
G01 X17.0000 Y13.8700
G01 X16.9859 Y13.8759
G01 X16.9800 Y13.8900
G01 X16.9859 Y13.9041
G01 X17.0000 Y13.9100
G01 X17.0141 Y13.9041
G01 X17.0200 Y13.8900
G00 X17.0200 Y13.8900
G01 F60.00
G01 Z-1.2000
G01 F120.00
G01 X17.0141 Y13.9041
G01 X17.0000 Y13.9100
G01 X16.9859 Y13.9041
G01 X16.9800 Y13.8900
G01 X16.9859 Y13.8759
G01 X17.0000 Y13.8700
G01 X17.0141 Y13.8759
G01 X17.0200 Y13.8900
G00 X17.0200 Y13.8900
G01 F60.00
G01 Z-1.5000
G01 F120.00
G01 X17.0141 Y13.8759
G01 X17.0000 Y13.8700
G01 X16.9859 Y13.8759
G01 X16.9800 Y13.8900
G01 X16.9859 Y13.9041
G01 X17.0000 Y13.9100
G01 X17.0141 Y13.9041
G01 X17.0200 Y13.8900
G00 X17.0200 Y13.8900
G01 F60.00
G01 Z-1.8000
G01 F120.00
G01 X17.0141 Y13.9041
G01 X17.0000 Y13.9100
G01 X16.9859 Y13.9041
G01 X16.9800 Y13.8900
G01 X16.9859 Y13.8759
G01 X17.0000 Y13.8700
G01 X17.0141 Y13.8759
G01 X17.0200 Y13.8900
G00 X17.0200 Y13.8900
G01 F60.00
G01 Z-2.0000
G01 F120.00
G01 X17.0141 Y13.8759
G01 X17.0000 Y13.8700
G01 X16.9859 Y13.8759
G01 X16.9800 Y13.8900
G01 X16.9859 Y13.9041
G01 X17.0000 Y13.9100
G01 X17.0141 Y13.9041
G01 X17.0200 Y13.8900
G00 Z2.0000
G00 X14.4800 Y13.8900
G01 F60.00
G01 Z-0.3000
G01 F120.00
G01 X14.4741 Y13.8759
G01 X14.4600 Y13.8700
G01 X14.4459 Y13.8759
G01 X14.4400 Y13.8900
G01 X14.4459 Y13.9041
G01 X14.4600 Y13.9100
G01 X14.4741 Y13.9041
G01 X14.4800 Y13.8900
G00 X14.4800 Y13.8900
G01 F60.00
G01 Z-0.6000
G01 F120.00
G01 X14.4741 Y13.9041
G01 X14.4600 Y13.9100
G01 X14.4459 Y13.9041
G01 X14.4400 Y13.8900
G01 X14.4459 Y13.8759
G01 X14.4600 Y13.8700
G01 X14.4741 Y13.8759
G01 X14.4800 Y13.8900
G00 X14.4800 Y13.8900
G01 F60.00
G01 Z-0.9000
G01 F120.00
G01 X14.4741 Y13.8759
G01 X14.4600 Y13.8700
G01 X14.4459 Y13.8759
G01 X14.4400 Y13.8900
G01 X14.4459 Y13.9041
G01 X14.4600 Y13.9100
G01 X14.4741 Y13.9041
G01 X14.4800 Y13.8900
G00 X14.4800 Y13.8900
G01 F60.00
G01 Z-1.2000
G01 F120.00
G01 X14.4741 Y13.9041
G01 X14.4600 Y13.9100
G01 X14.4459 Y13.9041
G01 X14.4400 Y13.8900
G01 X14.4459 Y13.8759
G01 X14.4600 Y13.8700
G01 X14.4741 Y13.8759
G01 X14.4800 Y13.8900
G00 X14.4800 Y13.8900
G01 F60.00
G01 Z-1.5000
G01 F120.00
G01 X14.4741 Y13.8759
G01 X14.4600 Y13.8700
G01 X14.4459 Y13.8759
G01 X14.4400 Y13.8900
G01 X14.4459 Y13.9041
G01 X14.4600 Y13.9100
G01 X14.4741 Y13.9041
G01 X14.4800 Y13.8900
G00 X14.4800 Y13.8900
G01 F60.00
G01 Z-1.8000
G01 F120.00
G01 X14.4741 Y13.9041
G01 X14.4600 Y13.9100
G01 X14.4459 Y13.9041
G01 X14.4400 Y13.8900
G01 X14.4459 Y13.8759
G01 X14.4600 Y13.8700
G01 X14.4741 Y13.8759
G01 X14.4800 Y13.8900
G00 X14.4800 Y13.8900
G01 F60.00
G01 Z-2.0000
G01 F120.00
G01 X14.4741 Y13.8759
G01 X14.4600 Y13.8700
G01 X14.4459 Y13.8759
G01 X14.4400 Y13.8900
G01 X14.4459 Y13.9041
G01 X14.4600 Y13.9100
G01 X14.4741 Y13.9041
G01 X14.4800 Y13.8900
G00 Z2.0000
G00 X7.4000 Y17.8200
G01 F60.00
G01 Z-0.3000
G01 F120.00
G01 X7.3924 Y17.7817
G01 X7.3707 Y17.7493
G01 X7.3383 Y17.7276
G01 X7.3000 Y17.7200
G01 X7.2617 Y17.7276
G01 X7.2293 Y17.7493
G01 X7.2076 Y17.7817
G01 X7.2000 Y17.8200
G01 X7.2076 Y17.8583
G01 X7.2293 Y17.8907
G01 X7.2617 Y17.9124
G01 X7.3000 Y17.9200
G01 X7.3383 Y17.9124
G01 X7.3707 Y17.8907
G01 X7.3924 Y17.8583
G01 X7.4000 Y17.8200
G00 X7.4000 Y17.8200
G01 F60.00
G01 Z-0.6000
G01 F120.00
G01 X7.3924 Y17.8583
G01 X7.3707 Y17.8907
G01 X7.3383 Y17.9124
G01 X7.3000 Y17.9200
G01 X7.2617 Y17.9124
G01 X7.2293 Y17.8907
G01 X7.2076 Y17.8583
G01 X7.2000 Y17.8200
G01 X7.2076 Y17.7817
G01 X7.2293 Y17.7493
G01 X7.2617 Y17.7276
G01 X7.3000 Y17.7200
G01 X7.3383 Y17.7276
G01 X7.3707 Y17.7493
G01 X7.3924 Y17.7817
G01 X7.4000 Y17.8200
G00 X7.4000 Y17.8200
G01 F60.00
G01 Z-0.9000
G01 F120.00
G01 X7.3924 Y17.7817
G01 X7.3707 Y17.7493
G01 X7.3383 Y17.7276
G01 X7.3000 Y17.7200
G01 X7.2617 Y17.7276
G01 X7.2293 Y17.7493
G01 X7.2076 Y17.7817
G01 X7.2000 Y17.8200
G01 X7.2076 Y17.8583
G01 X7.2293 Y17.8907
G01 X7.2617 Y17.9124
G01 X7.3000 Y17.9200
G01 X7.3383 Y17.9124
G01 X7.3707 Y17.8907
G01 X7.3924 Y17.8583
G01 X7.4000 Y17.8200
G00 X7.4000 Y17.8200
G01 F60.00
G01 Z-1.2000
G01 F120.00
G01 X7.3924 Y17.8583
G01 X7.3707 Y17.8907
G01 X7.3383 Y17.9124
G01 X7.3000 Y17.9200
G01 X7.2617 Y17.9124
G01 X7.2293 Y17.8907
G01 X7.2076 Y17.8583
G01 X7.2000 Y17.8200
G01 X7.2076 Y17.7817
G01 X7.2293 Y17.7493
G01 X7.2617 Y17.7276
G01 X7.3000 Y17.7200
G01 X7.3383 Y17.7276
G01 X7.3707 Y17.7493
G01 X7.3924 Y17.7817
G01 X7.4000 Y17.8200
G00 X7.4000 Y17.8200
G01 F60.00
G01 Z-1.5000
G01 F120.00
G01 X7.3924 Y17.7817
G01 X7.3707 Y17.7493
G01 X7.3383 Y17.7276
G01 X7.3000 Y17.7200
G01 X7.2617 Y17.7276
G01 X7.2293 Y17.7493
G01 X7.2076 Y17.7817
G01 X7.2000 Y17.8200
G01 X7.2076 Y17.8583
G01 X7.2293 Y17.8907
G01 X7.2617 Y17.9124
G01 X7.3000 Y17.9200
G01 X7.3383 Y17.9124
G01 X7.3707 Y17.8907
G01 X7.3924 Y17.8583
G01 X7.4000 Y17.8200
G00 X7.4000 Y17.8200
G01 F60.00
G01 Z-1.8000
G01 F120.00
G01 X7.3924 Y17.8583
G01 X7.3707 Y17.8907
G01 X7.3383 Y17.9124
G01 X7.3000 Y17.9200
G01 X7.2617 Y17.9124
G01 X7.2293 Y17.8907
G01 X7.2076 Y17.8583
G01 X7.2000 Y17.8200
G01 X7.2076 Y17.7817
G01 X7.2293 Y17.7493
G01 X7.2617 Y17.7276
G01 X7.3000 Y17.7200
G01 X7.3383 Y17.7276
G01 X7.3707 Y17.7493
G01 X7.3924 Y17.7817
G01 X7.4000 Y17.8200
G00 X7.4000 Y17.8200
G01 F60.00
G01 Z-2.0000
G01 F120.00
G01 X7.3924 Y17.7817
G01 X7.3707 Y17.7493
G01 X7.3383 Y17.7276
G01 X7.3000 Y17.7200
G01 X7.2617 Y17.7276
G01 X7.2293 Y17.7493
G01 X7.2076 Y17.7817
G01 X7.2000 Y17.8200
G01 X7.2076 Y17.8583
G01 X7.2293 Y17.8907
G01 X7.2617 Y17.9124
G01 X7.3000 Y17.9200
G01 X7.3383 Y17.9124
G01 X7.3707 Y17.8907
G01 X7.3924 Y17.8583
G01 X7.4000 Y17.8200
G00 Z2.0000
G00 X7.4000 Y20.3600
G01 F60.00
G01 Z-0.3000
G01 F120.00
G01 X7.3924 Y20.3217
G01 X7.3707 Y20.2893
G01 X7.3383 Y20.2676
G01 X7.3000 Y20.2600
G01 X7.2617 Y20.2676
G01 X7.2293 Y20.2893
G01 X7.2076 Y20.3217
G01 X7.2000 Y20.3600
G01 X7.2076 Y20.3983
G01 X7.2293 Y20.4307
G01 X7.2617 Y20.4524
G01 X7.3000 Y20.4600
G01 X7.3383 Y20.4524
G01 X7.3707 Y20.4307
G01 X7.3924 Y20.3983
G01 X7.4000 Y20.3600
G00 X7.4000 Y20.3600
G01 F60.00
G01 Z-0.6000
G01 F120.00
G01 X7.3924 Y20.3983
G01 X7.3707 Y20.4307
G01 X7.3383 Y20.4524
G01 X7.3000 Y20.4600
G01 X7.2617 Y20.4524
G01 X7.2293 Y20.4307
G01 X7.2076 Y20.3983
G01 X7.2000 Y20.3600
G01 X7.2076 Y20.3217
G01 X7.2293 Y20.2893
G01 X7.2617 Y20.2676
G01 X7.3000 Y20.2600
G01 X7.3383 Y20.2676
G01 X7.3707 Y20.2893
G01 X7.3924 Y20.3217
G01 X7.4000 Y20.3600
G00 X7.4000 Y20.3600
G01 F60.00
G01 Z-0.9000
G01 F120.00
G01 X7.3924 Y20.3217
G01 X7.3707 Y20.2893
G01 X7.3383 Y20.2676
G01 X7.3000 Y20.2600
G01 X7.2617 Y20.2676
G01 X7.2293 Y20.2893
G01 X7.2076 Y20.3217
G01 X7.2000 Y20.3600
G01 X7.2076 Y20.3983
G01 X7.2293 Y20.4307
G01 X7.2617 Y20.4524
G01 X7.3000 Y20.4600
G01 X7.3383 Y20.4524
G01 X7.3707 Y20.4307
G01 X7.3924 Y20.3983
G01 X7.4000 Y20.3600
G00 X7.4000 Y20.3600
G01 F60.00
G01 Z-1.2000
G01 F120.00
G01 X7.3924 Y20.3983
G01 X7.3707 Y20.4307
G01 X7.3383 Y20.4524
G01 X7.3000 Y20.4600
G01 X7.2617 Y20.4524
G01 X7.2293 Y20.4307
G01 X7.2076 Y20.3983
G01 X7.2000 Y20.3600
G01 X7.2076 Y20.3217
G01 X7.2293 Y20.2893
G01 X7.2617 Y20.2676
G01 X7.3000 Y20.2600
G01 X7.3383 Y20.2676
G01 X7.3707 Y20.2893
G01 X7.3924 Y20.3217
G01 X7.4000 Y20.3600
G00 X7.4000 Y20.3600
G01 F60.00
G01 Z-1.5000
G01 F120.00
G01 X7.3924 Y20.3217
G01 X7.3707 Y20.2893
G01 X7.3383 Y20.2676
G01 X7.3000 Y20.2600
G01 X7.2617 Y20.2676
G01 X7.2293 Y20.2893
G01 X7.2076 Y20.3217
G01 X7.2000 Y20.3600
G01 X7.2076 Y20.3983
G01 X7.2293 Y20.4307
G01 X7.2617 Y20.4524
G01 X7.3000 Y20.4600
G01 X7.3383 Y20.4524
G01 X7.3707 Y20.4307
G01 X7.3924 Y20.3983
G01 X7.4000 Y20.3600
G00 X7.4000 Y20.3600
G01 F60.00
G01 Z-1.8000
G01 F120.00
G01 X7.3924 Y20.3983
G01 X7.3707 Y20.4307
G01 X7.3383 Y20.4524
G01 X7.3000 Y20.4600
G01 X7.2617 Y20.4524
G01 X7.2293 Y20.4307
G01 X7.2076 Y20.3983
G01 X7.2000 Y20.3600
G01 X7.2076 Y20.3217
G01 X7.2293 Y20.2893
G01 X7.2617 Y20.2676
G01 X7.3000 Y20.2600
G01 X7.3383 Y20.2676
G01 X7.3707 Y20.2893
G01 X7.3924 Y20.3217
G01 X7.4000 Y20.3600
G00 X7.4000 Y20.3600
G01 F60.00
G01 Z-2.0000
G01 F120.00
G01 X7.3924 Y20.3217
G01 X7.3707 Y20.2893
G01 X7.3383 Y20.2676
G01 X7.3000 Y20.2600
G01 X7.2617 Y20.2676
G01 X7.2293 Y20.2893
G01 X7.2076 Y20.3217
G01 X7.2000 Y20.3600
G01 X7.2076 Y20.3983
G01 X7.2293 Y20.4307
G01 X7.2617 Y20.4524
G01 X7.3000 Y20.4600
G01 X7.3383 Y20.4524
G01 X7.3707 Y20.4307
G01 X7.3924 Y20.3983
G01 X7.4000 Y20.3600
G00 Z2.0000
G00 X7.4000 Y22.9000
G01 F60.00
G01 Z-0.3000
G01 F120.00
G01 X7.3924 Y22.8617
G01 X7.3707 Y22.8293
G01 X7.3383 Y22.8076
G01 X7.3000 Y22.8000
G01 X7.2617 Y22.8076
G01 X7.2293 Y22.8293
G01 X7.2076 Y22.8617
G01 X7.2000 Y22.9000
G01 X7.2076 Y22.9383
G01 X7.2293 Y22.9707
G01 X7.2617 Y22.9924
G01 X7.3000 Y23.0000
G01 X7.3383 Y22.9924
G01 X7.3707 Y22.9707
G01 X7.3924 Y22.9383
G01 X7.4000 Y22.9000
G00 X7.4000 Y22.9000
G01 F60.00
G01 Z-0.6000
G01 F120.00
G01 X7.3924 Y22.9383
G01 X7.3707 Y22.9707
G01 X7.3383 Y22.9924
G01 X7.3000 Y23.0000
G01 X7.2617 Y22.9924
G01 X7.2293 Y22.9707
G01 X7.2076 Y22.9383
G01 X7.2000 Y22.9000
G01 X7.2076 Y22.8617
G01 X7.2293 Y22.8293
G01 X7.2617 Y22.8076
G01 X7.3000 Y22.8000
G01 X7.3383 Y22.8076
G01 X7.3707 Y22.8293
G01 X7.3924 Y22.8617
G01 X7.4000 Y22.9000
G00 X7.4000 Y22.9000
G01 F60.00
G01 Z-0.9000
G01 F120.00
G01 X7.3924 Y22.8617
G01 X7.3707 Y22.8293
G01 X7.3383 Y22.8076
G01 X7.3000 Y22.8000
G01 X7.2617 Y22.8076
G01 X7.2293 Y22.8293
G01 X7.2076 Y22.8617
G01 X7.2000 Y22.9000
G01 X7.2076 Y22.9383
G01 X7.2293 Y22.9707
G01 X7.2617 Y22.9924
G01 X7.3000 Y23.0000
G01 X7.3383 Y22.9924
G01 X7.3707 Y22.9707
G01 X7.3924 Y22.9383
G01 X7.4000 Y22.9000
G00 X7.4000 Y22.9000
G01 F60.00
G01 Z-1.2000
G01 F120.00
G01 X7.3924 Y22.9383
G01 X7.3707 Y22.9707
G01 X7.3383 Y22.9924
G01 X7.3000 Y23.0000
G01 X7.2617 Y22.9924
G01 X7.2293 Y22.9707
G01 X7.2076 Y22.9383
G01 X7.2000 Y22.9000
G01 X7.2076 Y22.8617
G01 X7.2293 Y22.8293
G01 X7.2617 Y22.8076
G01 X7.3000 Y22.8000
G01 X7.3383 Y22.8076
G01 X7.3707 Y22.8293
G01 X7.3924 Y22.8617
G01 X7.4000 Y22.9000
G00 X7.4000 Y22.9000
G01 F60.00
G01 Z-1.5000
G01 F120.00
G01 X7.3924 Y22.8617
G01 X7.3707 Y22.8293
G01 X7.3383 Y22.8076
G01 X7.3000 Y22.8000
G01 X7.2617 Y22.8076
G01 X7.2293 Y22.8293
G01 X7.2076 Y22.8617
G01 X7.2000 Y22.9000
G01 X7.2076 Y22.9383
G01 X7.2293 Y22.9707
G01 X7.2617 Y22.9924
G01 X7.3000 Y23.0000
G01 X7.3383 Y22.9924
G01 X7.3707 Y22.9707
G01 X7.3924 Y22.9383
G01 X7.4000 Y22.9000
G00 X7.4000 Y22.9000
G01 F60.00
G01 Z-1.8000
G01 F120.00
G01 X7.3924 Y22.9383
G01 X7.3707 Y22.9707
G01 X7.3383 Y22.9924
G01 X7.3000 Y23.0000
G01 X7.2617 Y22.9924
G01 X7.2293 Y22.9707
G01 X7.2076 Y22.9383
G01 X7.2000 Y22.9000
G01 X7.2076 Y22.8617
G01 X7.2293 Y22.8293
G01 X7.2617 Y22.8076
G01 X7.3000 Y22.8000
G01 X7.3383 Y22.8076
G01 X7.3707 Y22.8293
G01 X7.3924 Y22.8617
G01 X7.4000 Y22.9000
G00 X7.4000 Y22.9000
G01 F60.00
G01 Z-2.0000
G01 F120.00
G01 X7.3924 Y22.8617
G01 X7.3707 Y22.8293
G01 X7.3383 Y22.8076
G01 X7.3000 Y22.8000
G01 X7.2617 Y22.8076
G01 X7.2293 Y22.8293
G01 X7.2076 Y22.8617
G01 X7.2000 Y22.9000
G01 X7.2076 Y22.9383
G01 X7.2293 Y22.9707
G01 X7.2617 Y22.9924
G01 X7.3000 Y23.0000
G01 X7.3383 Y22.9924
G01 X7.3707 Y22.9707
G01 X7.3924 Y22.9383
G01 X7.4000 Y22.9000
G00 Z2.0000
G00 X7.4000 Y25.4400
G01 F60.00
G01 Z-0.3000
G01 F120.00
G01 X7.3924 Y25.4017
G01 X7.3707 Y25.3693
G01 X7.3383 Y25.3476
G01 X7.3000 Y25.3400
G01 X7.2617 Y25.3476
G01 X7.2293 Y25.3693
G01 X7.2076 Y25.4017
G01 X7.2000 Y25.4400
G01 X7.2076 Y25.4783
G01 X7.2293 Y25.5107
G01 X7.2617 Y25.5324
G01 X7.3000 Y25.5400
G01 X7.3383 Y25.5324
G01 X7.3707 Y25.5107
G01 X7.3924 Y25.4783
G01 X7.4000 Y25.4400
G00 X7.4000 Y25.4400
G01 F60.00
G01 Z-0.6000
G01 F120.00
G01 X7.3924 Y25.4783
G01 X7.3707 Y25.5107
G01 X7.3383 Y25.5324
G01 X7.3000 Y25.5400
G01 X7.2617 Y25.5324
G01 X7.2293 Y25.5107
G01 X7.2076 Y25.4783
G01 X7.2000 Y25.4400
G01 X7.2076 Y25.4017
G01 X7.2293 Y25.3693
G01 X7.2617 Y25.3476
G01 X7.3000 Y25.3400
G01 X7.3383 Y25.3476
G01 X7.3707 Y25.3693
G01 X7.3924 Y25.4017
G01 X7.4000 Y25.4400
G00 X7.4000 Y25.4400
G01 F60.00
G01 Z-0.9000
G01 F120.00
G01 X7.3924 Y25.4017
G01 X7.3707 Y25.3693
G01 X7.3383 Y25.3476
G01 X7.3000 Y25.3400
G01 X7.2617 Y25.3476
G01 X7.2293 Y25.3693
G01 X7.2076 Y25.4017
G01 X7.2000 Y25.4400
G01 X7.2076 Y25.4783
G01 X7.2293 Y25.5107
G01 X7.2617 Y25.5324
G01 X7.3000 Y25.5400
G01 X7.3383 Y25.5324
G01 X7.3707 Y25.5107
G01 X7.3924 Y25.4783
G01 X7.4000 Y25.4400
G00 X7.4000 Y25.4400
G01 F60.00
G01 Z-1.2000
G01 F120.00
G01 X7.3924 Y25.4783
G01 X7.3707 Y25.5107
G01 X7.3383 Y25.5324
G01 X7.3000 Y25.5400
G01 X7.2617 Y25.5324
G01 X7.2293 Y25.5107
G01 X7.2076 Y25.4783
G01 X7.2000 Y25.4400
G01 X7.2076 Y25.4017
G01 X7.2293 Y25.3693
G01 X7.2617 Y25.3476
G01 X7.3000 Y25.3400
G01 X7.3383 Y25.3476
G01 X7.3707 Y25.3693
G01 X7.3924 Y25.4017
G01 X7.4000 Y25.4400
G00 X7.4000 Y25.4400
G01 F60.00
G01 Z-1.5000
G01 F120.00
G01 X7.3924 Y25.4017
G01 X7.3707 Y25.3693
G01 X7.3383 Y25.3476
G01 X7.3000 Y25.3400
G01 X7.2617 Y25.3476
G01 X7.2293 Y25.3693
G01 X7.2076 Y25.4017
G01 X7.2000 Y25.4400
G01 X7.2076 Y25.4783
G01 X7.2293 Y25.5107
G01 X7.2617 Y25.5324
G01 X7.3000 Y25.5400
G01 X7.3383 Y25.5324
G01 X7.3707 Y25.5107
G01 X7.3924 Y25.4783
G01 X7.4000 Y25.4400
G00 X7.4000 Y25.4400
G01 F60.00
G01 Z-1.8000
G01 F120.00
G01 X7.3924 Y25.4783
G01 X7.3707 Y25.5107
G01 X7.3383 Y25.5324
G01 X7.3000 Y25.5400
G01 X7.2617 Y25.5324
G01 X7.2293 Y25.5107
G01 X7.2076 Y25.4783
G01 X7.2000 Y25.4400
G01 X7.2076 Y25.4017
G01 X7.2293 Y25.3693
G01 X7.2617 Y25.3476
G01 X7.3000 Y25.3400
G01 X7.3383 Y25.3476
G01 X7.3707 Y25.3693
G01 X7.3924 Y25.4017
G01 X7.4000 Y25.4400
G00 X7.4000 Y25.4400
G01 F60.00
G01 Z-2.0000
G01 F120.00
G01 X7.3924 Y25.4017
G01 X7.3707 Y25.3693
G01 X7.3383 Y25.3476
G01 X7.3000 Y25.3400
G01 X7.2617 Y25.3476
G01 X7.2293 Y25.3693
G01 X7.2076 Y25.4017
G01 X7.2000 Y25.4400
G01 X7.2076 Y25.4783
G01 X7.2293 Y25.5107
G01 X7.2617 Y25.5324
G01 X7.3000 Y25.5400
G01 X7.3383 Y25.5324
G01 X7.3707 Y25.5107
G01 X7.3924 Y25.4783
G01 X7.4000 Y25.4400
G00 Z2.0000
G00 X14.4800 Y29.1300
G01 F60.00
G01 Z-0.3000
G01 F120.00
G01 X14.4741 Y29.1159
G01 X14.4600 Y29.1100
G01 X14.4459 Y29.1159
G01 X14.4400 Y29.1300
G01 X14.4459 Y29.1441
G01 X14.4600 Y29.1500
G01 X14.4741 Y29.1441
G01 X14.4800 Y29.1300
G00 X14.4800 Y29.1300
G01 F60.00
G01 Z-0.6000
G01 F120.00
G01 X14.4741 Y29.1441
G01 X14.4600 Y29.1500
G01 X14.4459 Y29.1441
G01 X14.4400 Y29.1300
G01 X14.4459 Y29.1159
G01 X14.4600 Y29.1100
G01 X14.4741 Y29.1159
G01 X14.4800 Y29.1300
G00 X14.4800 Y29.1300
G01 F60.00
G01 Z-0.9000
G01 F120.00
G01 X14.4741 Y29.1159
G01 X14.4600 Y29.1100
G01 X14.4459 Y29.1159
G01 X14.4400 Y29.1300
G01 X14.4459 Y29.1441
G01 X14.4600 Y29.1500
G01 X14.4741 Y29.1441
G01 X14.4800 Y29.1300
G00 X14.4800 Y29.1300
G01 F60.00
G01 Z-1.2000
G01 F120.00
G01 X14.4741 Y29.1441
G01 X14.4600 Y29.1500
G01 X14.4459 Y29.1441
G01 X14.4400 Y29.1300
G01 X14.4459 Y29.1159
G01 X14.4600 Y29.1100
G01 X14.4741 Y29.1159
G01 X14.4800 Y29.1300
G00 X14.4800 Y29.1300
G01 F60.00
G01 Z-1.5000
G01 F120.00
G01 X14.4741 Y29.1159
G01 X14.4600 Y29.1100
G01 X14.4459 Y29.1159
G01 X14.4400 Y29.1300
G01 X14.4459 Y29.1441
G01 X14.4600 Y29.1500
G01 X14.4741 Y29.1441
G01 X14.4800 Y29.1300
G00 X14.4800 Y29.1300
G01 F60.00
G01 Z-1.8000
G01 F120.00
G01 X14.4741 Y29.1441
G01 X14.4600 Y29.1500
G01 X14.4459 Y29.1441
G01 X14.4400 Y29.1300
G01 X14.4459 Y29.1159
G01 X14.4600 Y29.1100
G01 X14.4741 Y29.1159
G01 X14.4800 Y29.1300
G00 X14.4800 Y29.1300
G01 F60.00
G01 Z-2.0000
G01 F120.00
G01 X14.4741 Y29.1159
G01 X14.4600 Y29.1100
G01 X14.4459 Y29.1159
G01 X14.4400 Y29.1300
G01 X14.4459 Y29.1441
G01 X14.4600 Y29.1500
G01 X14.4741 Y29.1441
G01 X14.4800 Y29.1300
G00 Z2.0000
G00 X17.0200 Y29.1300
G01 F60.00
G01 Z-0.3000
G01 F120.00
G01 X17.0141 Y29.1159
G01 X17.0000 Y29.1100
G01 X16.9859 Y29.1159
G01 X16.9800 Y29.1300
G01 X16.9859 Y29.1441
G01 X17.0000 Y29.1500
G01 X17.0141 Y29.1441
G01 X17.0200 Y29.1300
G00 X17.0200 Y29.1300
G01 F60.00
G01 Z-0.6000
G01 F120.00
G01 X17.0141 Y29.1441
G01 X17.0000 Y29.1500
G01 X16.9859 Y29.1441
G01 X16.9800 Y29.1300
G01 X16.9859 Y29.1159
G01 X17.0000 Y29.1100
G01 X17.0141 Y29.1159
G01 X17.0200 Y29.1300
G00 X17.0200 Y29.1300
G01 F60.00
G01 Z-0.9000
G01 F120.00
G01 X17.0141 Y29.1159
G01 X17.0000 Y29.1100
G01 X16.9859 Y29.1159
G01 X16.9800 Y29.1300
G01 X16.9859 Y29.1441
G01 X17.0000 Y29.1500
G01 X17.0141 Y29.1441
G01 X17.0200 Y29.1300
G00 X17.0200 Y29.1300
G01 F60.00
G01 Z-1.2000
G01 F120.00
G01 X17.0141 Y29.1441
G01 X17.0000 Y29.1500
G01 X16.9859 Y29.1441
G01 X16.9800 Y29.1300
G01 X16.9859 Y29.1159
G01 X17.0000 Y29.1100
G01 X17.0141 Y29.1159
G01 X17.0200 Y29.1300
G00 X17.0200 Y29.1300
G01 F60.00
G01 Z-1.5000
G01 F120.00
G01 X17.0141 Y29.1159
G01 X17.0000 Y29.1100
G01 X16.9859 Y29.1159
G01 X16.9800 Y29.1300
G01 X16.9859 Y29.1441
G01 X17.0000 Y29.1500
G01 X17.0141 Y29.1441
G01 X17.0200 Y29.1300
G00 X17.0200 Y29.1300
G01 F60.00
G01 Z-1.8000
G01 F120.00
G01 X17.0141 Y29.1441
G01 X17.0000 Y29.1500
G01 X16.9859 Y29.1441
G01 X16.9800 Y29.1300
G01 X16.9859 Y29.1159
G01 X17.0000 Y29.1100
G01 X17.0141 Y29.1159
G01 X17.0200 Y29.1300
G00 X17.0200 Y29.1300
G01 F60.00
G01 Z-2.0000
G01 F120.00
G01 X17.0141 Y29.1159
G01 X17.0000 Y29.1100
G01 X16.9859 Y29.1159
G01 X16.9800 Y29.1300
G01 X16.9859 Y29.1441
G01 X17.0000 Y29.1500
G01 X17.0141 Y29.1441
G01 X17.0200 Y29.1300
G00 Z2.0000
G00 X19.5600 Y29.1300
G01 F60.00
G01 Z-0.3000
G01 F120.00
G01 X19.5541 Y29.1159
G01 X19.5400 Y29.1100
G01 X19.5259 Y29.1159
G01 X19.5200 Y29.1300
G01 X19.5259 Y29.1441
G01 X19.5400 Y29.1500
G01 X19.5541 Y29.1441
G01 X19.5600 Y29.1300
G00 X19.5600 Y29.1300
G01 F60.00
G01 Z-0.6000
G01 F120.00
G01 X19.5541 Y29.1441
G01 X19.5400 Y29.1500
G01 X19.5259 Y29.1441
G01 X19.5200 Y29.1300
G01 X19.5259 Y29.1159
G01 X19.5400 Y29.1100
G01 X19.5541 Y29.1159
G01 X19.5600 Y29.1300
G00 X19.5600 Y29.1300
G01 F60.00
G01 Z-0.9000
G01 F120.00
G01 X19.5541 Y29.1159
G01 X19.5400 Y29.1100
G01 X19.5259 Y29.1159
G01 X19.5200 Y29.1300
G01 X19.5259 Y29.1441
G01 X19.5400 Y29.1500
G01 X19.5541 Y29.1441
G01 X19.5600 Y29.1300
G00 X19.5600 Y29.1300
G01 F60.00
G01 Z-1.2000
G01 F120.00
G01 X19.5541 Y29.1441
G01 X19.5400 Y29.1500
G01 X19.5259 Y29.1441
G01 X19.5200 Y29.1300
G01 X19.5259 Y29.1159
G01 X19.5400 Y29.1100
G01 X19.5541 Y29.1159
G01 X19.5600 Y29.1300
G00 X19.5600 Y29.1300
G01 F60.00
G01 Z-1.5000
G01 F120.00
G01 X19.5541 Y29.1159
G01 X19.5400 Y29.1100
G01 X19.5259 Y29.1159
G01 X19.5200 Y29.1300
G01 X19.5259 Y29.1441
G01 X19.5400 Y29.1500
G01 X19.5541 Y29.1441
G01 X19.5600 Y29.1300
G00 X19.5600 Y29.1300
G01 F60.00
G01 Z-1.8000
G01 F120.00
G01 X19.5541 Y29.1441
G01 X19.5400 Y29.1500
G01 X19.5259 Y29.1441
G01 X19.5200 Y29.1300
G01 X19.5259 Y29.1159
G01 X19.5400 Y29.1100
G01 X19.5541 Y29.1159
G01 X19.5600 Y29.1300
G00 X19.5600 Y29.1300
G01 F60.00
G01 Z-2.0000
G01 F120.00
G01 X19.5541 Y29.1159
G01 X19.5400 Y29.1100
G01 X19.5259 Y29.1159
G01 X19.5200 Y29.1300
G01 X19.5259 Y29.1441
G01 X19.5400 Y29.1500
G01 X19.5541 Y29.1441
G01 X19.5600 Y29.1300
G00 Z2.0000
G00 X22.1000 Y29.1300
G01 F60.00
G01 Z-0.3000
G01 F120.00
G01 X22.0941 Y29.1159
G01 X22.0800 Y29.1100
G01 X22.0659 Y29.1159
G01 X22.0600 Y29.1300
G01 X22.0659 Y29.1441
G01 X22.0800 Y29.1500
G01 X22.0941 Y29.1441
G01 X22.1000 Y29.1300
G00 X22.1000 Y29.1300
G01 F60.00
G01 Z-0.6000
G01 F120.00
G01 X22.0941 Y29.1441
G01 X22.0800 Y29.1500
G01 X22.0659 Y29.1441
G01 X22.0600 Y29.1300
G01 X22.0659 Y29.1159
G01 X22.0800 Y29.1100
G01 X22.0941 Y29.1159
G01 X22.1000 Y29.1300
G00 X22.1000 Y29.1300
G01 F60.00
G01 Z-0.9000
G01 F120.00
G01 X22.0941 Y29.1159
G01 X22.0800 Y29.1100
G01 X22.0659 Y29.1159
G01 X22.0600 Y29.1300
G01 X22.0659 Y29.1441
G01 X22.0800 Y29.1500
G01 X22.0941 Y29.1441
G01 X22.1000 Y29.1300
G00 X22.1000 Y29.1300
G01 F60.00
G01 Z-1.2000
G01 F120.00
G01 X22.0941 Y29.1441
G01 X22.0800 Y29.1500
G01 X22.0659 Y29.1441
G01 X22.0600 Y29.1300
G01 X22.0659 Y29.1159
G01 X22.0800 Y29.1100
G01 X22.0941 Y29.1159
G01 X22.1000 Y29.1300
G00 X22.1000 Y29.1300
G01 F60.00
G01 Z-1.5000
G01 F120.00
G01 X22.0941 Y29.1159
G01 X22.0800 Y29.1100
G01 X22.0659 Y29.1159
G01 X22.0600 Y29.1300
G01 X22.0659 Y29.1441
G01 X22.0800 Y29.1500
G01 X22.0941 Y29.1441
G01 X22.1000 Y29.1300
G00 X22.1000 Y29.1300
G01 F60.00
G01 Z-1.8000
G01 F120.00
G01 X22.0941 Y29.1441
G01 X22.0800 Y29.1500
G01 X22.0659 Y29.1441
G01 X22.0600 Y29.1300
G01 X22.0659 Y29.1159
G01 X22.0800 Y29.1100
G01 X22.0941 Y29.1159
G01 X22.1000 Y29.1300
G00 X22.1000 Y29.1300
G01 F60.00
G01 Z-2.0000
G01 F120.00
G01 X22.0941 Y29.1159
G01 X22.0800 Y29.1100
G01 X22.0659 Y29.1159
G01 X22.0600 Y29.1300
G01 X22.0659 Y29.1441
G01 X22.0800 Y29.1500
G01 X22.0941 Y29.1441
G01 X22.1000 Y29.1300
G00 Z2.0000
G00 X24.6400 Y29.1300
G01 F60.00
G01 Z-0.3000
G01 F120.00
G01 X24.6341 Y29.1159
G01 X24.6200 Y29.1100
G01 X24.6059 Y29.1159
G01 X24.6000 Y29.1300
G01 X24.6059 Y29.1441
G01 X24.6200 Y29.1500
G01 X24.6341 Y29.1441
G01 X24.6400 Y29.1300
G00 X24.6400 Y29.1300
G01 F60.00
G01 Z-0.6000
G01 F120.00
G01 X24.6341 Y29.1441
G01 X24.6200 Y29.1500
G01 X24.6059 Y29.1441
G01 X24.6000 Y29.1300
G01 X24.6059 Y29.1159
G01 X24.6200 Y29.1100
G01 X24.6341 Y29.1159
G01 X24.6400 Y29.1300
G00 X24.6400 Y29.1300
G01 F60.00
G01 Z-0.9000
G01 F120.00
G01 X24.6341 Y29.1159
G01 X24.6200 Y29.1100
G01 X24.6059 Y29.1159
G01 X24.6000 Y29.1300
G01 X24.6059 Y29.1441
G01 X24.6200 Y29.1500
G01 X24.6341 Y29.1441
G01 X24.6400 Y29.1300
G00 X24.6400 Y29.1300
G01 F60.00
G01 Z-1.2000
G01 F120.00
G01 X24.6341 Y29.1441
G01 X24.6200 Y29.1500
G01 X24.6059 Y29.1441
G01 X24.6000 Y29.1300
G01 X24.6059 Y29.1159
G01 X24.6200 Y29.1100
G01 X24.6341 Y29.1159
G01 X24.6400 Y29.1300
G00 X24.6400 Y29.1300
G01 F60.00
G01 Z-1.5000
G01 F120.00
G01 X24.6341 Y29.1159
G01 X24.6200 Y29.1100
G01 X24.6059 Y29.1159
G01 X24.6000 Y29.1300
G01 X24.6059 Y29.1441
G01 X24.6200 Y29.1500
G01 X24.6341 Y29.1441
G01 X24.6400 Y29.1300
G00 X24.6400 Y29.1300
G01 F60.00
G01 Z-1.8000
G01 F120.00
G01 X24.6341 Y29.1441
G01 X24.6200 Y29.1500
G01 X24.6059 Y29.1441
G01 X24.6000 Y29.1300
G01 X24.6059 Y29.1159
G01 X24.6200 Y29.1100
G01 X24.6341 Y29.1159
G01 X24.6400 Y29.1300
G00 X24.6400 Y29.1300
G01 F60.00
G01 Z-2.0000
G01 F120.00
G01 X24.6341 Y29.1159
G01 X24.6200 Y29.1100
G01 X24.6059 Y29.1159
G01 X24.6000 Y29.1300
G01 X24.6059 Y29.1441
G01 X24.6200 Y29.1500
G01 X24.6341 Y29.1441
G01 X24.6400 Y29.1300
G00 Z2.0000
G00 X27.1800 Y29.1300
G01 F60.00
G01 Z-0.3000
G01 F120.00
G01 X27.1741 Y29.1159
G01 X27.1600 Y29.1100
G01 X27.1459 Y29.1159
G01 X27.1400 Y29.1300
G01 X27.1459 Y29.1441
G01 X27.1600 Y29.1500
G01 X27.1741 Y29.1441
G01 X27.1800 Y29.1300
G00 X27.1800 Y29.1300
G01 F60.00
G01 Z-0.6000
G01 F120.00
G01 X27.1741 Y29.1441
G01 X27.1600 Y29.1500
G01 X27.1459 Y29.1441
G01 X27.1400 Y29.1300
G01 X27.1459 Y29.1159
G01 X27.1600 Y29.1100
G01 X27.1741 Y29.1159
G01 X27.1800 Y29.1300
G00 X27.1800 Y29.1300
G01 F60.00
G01 Z-0.9000
G01 F120.00
G01 X27.1741 Y29.1159
G01 X27.1600 Y29.1100
G01 X27.1459 Y29.1159
G01 X27.1400 Y29.1300
G01 X27.1459 Y29.1441
G01 X27.1600 Y29.1500
G01 X27.1741 Y29.1441
G01 X27.1800 Y29.1300
G00 X27.1800 Y29.1300
G01 F60.00
G01 Z-1.2000
G01 F120.00
G01 X27.1741 Y29.1441
G01 X27.1600 Y29.1500
G01 X27.1459 Y29.1441
G01 X27.1400 Y29.1300
G01 X27.1459 Y29.1159
G01 X27.1600 Y29.1100
G01 X27.1741 Y29.1159
G01 X27.1800 Y29.1300
G00 X27.1800 Y29.1300
G01 F60.00
G01 Z-1.5000
G01 F120.00
G01 X27.1741 Y29.1159
G01 X27.1600 Y29.1100
G01 X27.1459 Y29.1159
G01 X27.1400 Y29.1300
G01 X27.1459 Y29.1441
G01 X27.1600 Y29.1500
G01 X27.1741 Y29.1441
G01 X27.1800 Y29.1300
G00 X27.1800 Y29.1300
G01 F60.00
G01 Z-1.8000
G01 F120.00
G01 X27.1741 Y29.1441
G01 X27.1600 Y29.1500
G01 X27.1459 Y29.1441
G01 X27.1400 Y29.1300
G01 X27.1459 Y29.1159
G01 X27.1600 Y29.1100
G01 X27.1741 Y29.1159
G01 X27.1800 Y29.1300
G00 X27.1800 Y29.1300
G01 F60.00
G01 Z-2.0000
G01 F120.00
G01 X27.1741 Y29.1159
G01 X27.1600 Y29.1100
G01 X27.1459 Y29.1159
G01 X27.1400 Y29.1300
G01 X27.1459 Y29.1441
G01 X27.1600 Y29.1500
G01 X27.1741 Y29.1441
G01 X27.1800 Y29.1300
G00 Z2.0000
G00 X29.7200 Y29.1300
G01 F60.00
G01 Z-0.3000
G01 F120.00
G01 X29.7141 Y29.1159
G01 X29.7000 Y29.1100
G01 X29.6859 Y29.1159
G01 X29.6800 Y29.1300
G01 X29.6859 Y29.1441
G01 X29.7000 Y29.1500
G01 X29.7141 Y29.1441
G01 X29.7200 Y29.1300
G00 X29.7200 Y29.1300
G01 F60.00
G01 Z-0.6000
G01 F120.00
G01 X29.7141 Y29.1441
G01 X29.7000 Y29.1500
G01 X29.6859 Y29.1441
G01 X29.6800 Y29.1300
G01 X29.6859 Y29.1159
G01 X29.7000 Y29.1100
G01 X29.7141 Y29.1159
G01 X29.7200 Y29.1300
G00 X29.7200 Y29.1300
G01 F60.00
G01 Z-0.9000
G01 F120.00
G01 X29.7141 Y29.1159
G01 X29.7000 Y29.1100
G01 X29.6859 Y29.1159
G01 X29.6800 Y29.1300
G01 X29.6859 Y29.1441
G01 X29.7000 Y29.1500
G01 X29.7141 Y29.1441
G01 X29.7200 Y29.1300
G00 X29.7200 Y29.1300
G01 F60.00
G01 Z-1.2000
G01 F120.00
G01 X29.7141 Y29.1441
G01 X29.7000 Y29.1500
G01 X29.6859 Y29.1441
G01 X29.6800 Y29.1300
G01 X29.6859 Y29.1159
G01 X29.7000 Y29.1100
G01 X29.7141 Y29.1159
G01 X29.7200 Y29.1300
G00 X29.7200 Y29.1300
G01 F60.00
G01 Z-1.5000
G01 F120.00
G01 X29.7141 Y29.1159
G01 X29.7000 Y29.1100
G01 X29.6859 Y29.1159
G01 X29.6800 Y29.1300
G01 X29.6859 Y29.1441
G01 X29.7000 Y29.1500
G01 X29.7141 Y29.1441
G01 X29.7200 Y29.1300
G00 X29.7200 Y29.1300
G01 F60.00
G01 Z-1.8000
G01 F120.00
G01 X29.7141 Y29.1441
G01 X29.7000 Y29.1500
G01 X29.6859 Y29.1441
G01 X29.6800 Y29.1300
G01 X29.6859 Y29.1159
G01 X29.7000 Y29.1100
G01 X29.7141 Y29.1159
G01 X29.7200 Y29.1300
G00 X29.7200 Y29.1300
G01 F60.00
G01 Z-2.0000
G01 F120.00
G01 X29.7141 Y29.1159
G01 X29.7000 Y29.1100
G01 X29.6859 Y29.1159
G01 X29.6800 Y29.1300
G01 X29.6859 Y29.1441
G01 X29.7000 Y29.1500
G01 X29.7141 Y29.1441
G01 X29.7200 Y29.1300
G00 Z2.0000
G00 X32.2600 Y29.1300
G01 F60.00
G01 Z-0.3000
G01 F120.00
G01 X32.2541 Y29.1159
G01 X32.2400 Y29.1100
G01 X32.2259 Y29.1159
G01 X32.2200 Y29.1300
G01 X32.2259 Y29.1441
G01 X32.2400 Y29.1500
G01 X32.2541 Y29.1441
G01 X32.2600 Y29.1300
G00 X32.2600 Y29.1300
G01 F60.00
G01 Z-0.6000
G01 F120.00
G01 X32.2541 Y29.1441
G01 X32.2400 Y29.1500
G01 X32.2259 Y29.1441
G01 X32.2200 Y29.1300
G01 X32.2259 Y29.1159
G01 X32.2400 Y29.1100
G01 X32.2541 Y29.1159
G01 X32.2600 Y29.1300
G00 X32.2600 Y29.1300
G01 F60.00
G01 Z-0.9000
G01 F120.00
G01 X32.2541 Y29.1159
G01 X32.2400 Y29.1100
G01 X32.2259 Y29.1159
G01 X32.2200 Y29.1300
G01 X32.2259 Y29.1441
G01 X32.2400 Y29.1500
G01 X32.2541 Y29.1441
G01 X32.2600 Y29.1300
G00 X32.2600 Y29.1300
G01 F60.00
G01 Z-1.2000
G01 F120.00
G01 X32.2541 Y29.1441
G01 X32.2400 Y29.1500
G01 X32.2259 Y29.1441
G01 X32.2200 Y29.1300
G01 X32.2259 Y29.1159
G01 X32.2400 Y29.1100
G01 X32.2541 Y29.1159
G01 X32.2600 Y29.1300
G00 X32.2600 Y29.1300
G01 F60.00
G01 Z-1.5000
G01 F120.00
G01 X32.2541 Y29.1159
G01 X32.2400 Y29.1100
G01 X32.2259 Y29.1159
G01 X32.2200 Y29.1300
G01 X32.2259 Y29.1441
G01 X32.2400 Y29.1500
G01 X32.2541 Y29.1441
G01 X32.2600 Y29.1300
G00 X32.2600 Y29.1300
G01 F60.00
G01 Z-1.8000
G01 F120.00
G01 X32.2541 Y29.1441
G01 X32.2400 Y29.1500
G01 X32.2259 Y29.1441
G01 X32.2200 Y29.1300
G01 X32.2259 Y29.1159
G01 X32.2400 Y29.1100
G01 X32.2541 Y29.1159
G01 X32.2600 Y29.1300
G00 X32.2600 Y29.1300
G01 F60.00
G01 Z-2.0000
G01 F120.00
G01 X32.2541 Y29.1159
G01 X32.2400 Y29.1100
G01 X32.2259 Y29.1159
G01 X32.2200 Y29.1300
G01 X32.2259 Y29.1441
G01 X32.2400 Y29.1500
G01 X32.2541 Y29.1441
G01 X32.2600 Y29.1300
G00 Z2.0000
G00 X27.2000 Y38.8000
G01 F60.00
G01 Z-0.3000
G01 F120.00
G01 X27.1924 Y38.7617
G01 X27.1707 Y38.7293
G01 X27.1383 Y38.7076
G01 X27.1000 Y38.7000
G01 X27.0617 Y38.7076
G01 X27.0293 Y38.7293
G01 X27.0076 Y38.7617
G01 X27.0000 Y38.8000
G01 X27.0076 Y38.8383
G01 X27.0293 Y38.8707
G01 X27.0617 Y38.8924
G01 X27.1000 Y38.9000
G01 X27.1383 Y38.8924
G01 X27.1707 Y38.8707
G01 X27.1924 Y38.8383
G01 X27.2000 Y38.8000
G00 X27.2000 Y38.8000
G01 F60.00
G01 Z-0.6000
G01 F120.00
G01 X27.1924 Y38.8383
G01 X27.1707 Y38.8707
G01 X27.1383 Y38.8924
G01 X27.1000 Y38.9000
G01 X27.0617 Y38.8924
G01 X27.0293 Y38.8707
G01 X27.0076 Y38.8383
G01 X27.0000 Y38.8000
G01 X27.0076 Y38.7617
G01 X27.0293 Y38.7293
G01 X27.0617 Y38.7076
G01 X27.1000 Y38.7000
G01 X27.1383 Y38.7076
G01 X27.1707 Y38.7293
G01 X27.1924 Y38.7617
G01 X27.2000 Y38.8000
G00 X27.2000 Y38.8000
G01 F60.00
G01 Z-0.9000
G01 F120.00
G01 X27.1924 Y38.7617
G01 X27.1707 Y38.7293
G01 X27.1383 Y38.7076
G01 X27.1000 Y38.7000
G01 X27.0617 Y38.7076
G01 X27.0293 Y38.7293
G01 X27.0076 Y38.7617
G01 X27.0000 Y38.8000
G01 X27.0076 Y38.8383
G01 X27.0293 Y38.8707
G01 X27.0617 Y38.8924
G01 X27.1000 Y38.9000
G01 X27.1383 Y38.8924
G01 X27.1707 Y38.8707
G01 X27.1924 Y38.8383
G01 X27.2000 Y38.8000
G00 X27.2000 Y38.8000
G01 F60.00
G01 Z-1.2000
G01 F120.00
G01 X27.1924 Y38.8383
G01 X27.1707 Y38.8707
G01 X27.1383 Y38.8924
G01 X27.1000 Y38.9000
G01 X27.0617 Y38.8924
G01 X27.0293 Y38.8707
G01 X27.0076 Y38.8383
G01 X27.0000 Y38.8000
G01 X27.0076 Y38.7617
G01 X27.0293 Y38.7293
G01 X27.0617 Y38.7076
G01 X27.1000 Y38.7000
G01 X27.1383 Y38.7076
G01 X27.1707 Y38.7293
G01 X27.1924 Y38.7617
G01 X27.2000 Y38.8000
G00 X27.2000 Y38.8000
G01 F60.00
G01 Z-1.5000
G01 F120.00
G01 X27.1924 Y38.7617
G01 X27.1707 Y38.7293
G01 X27.1383 Y38.7076
G01 X27.1000 Y38.7000
G01 X27.0617 Y38.7076
G01 X27.0293 Y38.7293
G01 X27.0076 Y38.7617
G01 X27.0000 Y38.8000
G01 X27.0076 Y38.8383
G01 X27.0293 Y38.8707
G01 X27.0617 Y38.8924
G01 X27.1000 Y38.9000
G01 X27.1383 Y38.8924
G01 X27.1707 Y38.8707
G01 X27.1924 Y38.8383
G01 X27.2000 Y38.8000
G00 X27.2000 Y38.8000
G01 F60.00
G01 Z-1.8000
G01 F120.00
G01 X27.1924 Y38.8383
G01 X27.1707 Y38.8707
G01 X27.1383 Y38.8924
G01 X27.1000 Y38.9000
G01 X27.0617 Y38.8924
G01 X27.0293 Y38.8707
G01 X27.0076 Y38.8383
G01 X27.0000 Y38.8000
G01 X27.0076 Y38.7617
G01 X27.0293 Y38.7293
G01 X27.0617 Y38.7076
G01 X27.1000 Y38.7000
G01 X27.1383 Y38.7076
G01 X27.1707 Y38.7293
G01 X27.1924 Y38.7617
G01 X27.2000 Y38.8000
G00 X27.2000 Y38.8000
G01 F60.00
G01 Z-2.0000
G01 F120.00
G01 X27.1924 Y38.7617
G01 X27.1707 Y38.7293
G01 X27.1383 Y38.7076
G01 X27.1000 Y38.7000
G01 X27.0617 Y38.7076
G01 X27.0293 Y38.7293
G01 X27.0076 Y38.7617
G01 X27.0000 Y38.8000
G01 X27.0076 Y38.8383
G01 X27.0293 Y38.8707
G01 X27.0617 Y38.8924
G01 X27.1000 Y38.9000
G01 X27.1383 Y38.8924
G01 X27.1707 Y38.8707
G01 X27.1924 Y38.8383
G01 X27.2000 Y38.8000
G00 Z2.0000
G00 X24.6600 Y38.8000
G01 F60.00
G01 Z-0.3000
G01 F120.00
G01 X24.6524 Y38.7617
G01 X24.6307 Y38.7293
G01 X24.5983 Y38.7076
G01 X24.5600 Y38.7000
G01 X24.5217 Y38.7076
G01 X24.4893 Y38.7293
G01 X24.4676 Y38.7617
G01 X24.4600 Y38.8000
G01 X24.4676 Y38.8383
G01 X24.4893 Y38.8707
G01 X24.5217 Y38.8924
G01 X24.5600 Y38.9000
G01 X24.5983 Y38.8924
G01 X24.6307 Y38.8707
G01 X24.6524 Y38.8383
G01 X24.6600 Y38.8000
G00 X24.6600 Y38.8000
G01 F60.00
G01 Z-0.6000
G01 F120.00
G01 X24.6524 Y38.8383
G01 X24.6307 Y38.8707
G01 X24.5983 Y38.8924
G01 X24.5600 Y38.9000
G01 X24.5217 Y38.8924
G01 X24.4893 Y38.8707
G01 X24.4676 Y38.8383
G01 X24.4600 Y38.8000
G01 X24.4676 Y38.7617
G01 X24.4893 Y38.7293
G01 X24.5217 Y38.7076
G01 X24.5600 Y38.7000
G01 X24.5983 Y38.7076
G01 X24.6307 Y38.7293
G01 X24.6524 Y38.7617
G01 X24.6600 Y38.8000
G00 X24.6600 Y38.8000
G01 F60.00
G01 Z-0.9000
G01 F120.00
G01 X24.6524 Y38.7617
G01 X24.6307 Y38.7293
G01 X24.5983 Y38.7076
G01 X24.5600 Y38.7000
G01 X24.5217 Y38.7076
G01 X24.4893 Y38.7293
G01 X24.4676 Y38.7617
G01 X24.4600 Y38.8000
G01 X24.4676 Y38.8383
G01 X24.4893 Y38.8707
G01 X24.5217 Y38.8924
G01 X24.5600 Y38.9000
G01 X24.5983 Y38.8924
G01 X24.6307 Y38.8707
G01 X24.6524 Y38.8383
G01 X24.6600 Y38.8000
G00 X24.6600 Y38.8000
G01 F60.00
G01 Z-1.2000
G01 F120.00
G01 X24.6524 Y38.8383
G01 X24.6307 Y38.8707
G01 X24.5983 Y38.8924
G01 X24.5600 Y38.9000
G01 X24.5217 Y38.8924
G01 X24.4893 Y38.8707
G01 X24.4676 Y38.8383
G01 X24.4600 Y38.8000
G01 X24.4676 Y38.7617
G01 X24.4893 Y38.7293
G01 X24.5217 Y38.7076
G01 X24.5600 Y38.7000
G01 X24.5983 Y38.7076
G01 X24.6307 Y38.7293
G01 X24.6524 Y38.7617
G01 X24.6600 Y38.8000
G00 X24.6600 Y38.8000
G01 F60.00
G01 Z-1.5000
G01 F120.00
G01 X24.6524 Y38.7617
G01 X24.6307 Y38.7293
G01 X24.5983 Y38.7076
G01 X24.5600 Y38.7000
G01 X24.5217 Y38.7076
G01 X24.4893 Y38.7293
G01 X24.4676 Y38.7617
G01 X24.4600 Y38.8000
G01 X24.4676 Y38.8383
G01 X24.4893 Y38.8707
G01 X24.5217 Y38.8924
G01 X24.5600 Y38.9000
G01 X24.5983 Y38.8924
G01 X24.6307 Y38.8707
G01 X24.6524 Y38.8383
G01 X24.6600 Y38.8000
G00 X24.6600 Y38.8000
G01 F60.00
G01 Z-1.8000
G01 F120.00
G01 X24.6524 Y38.8383
G01 X24.6307 Y38.8707
G01 X24.5983 Y38.8924
G01 X24.5600 Y38.9000
G01 X24.5217 Y38.8924
G01 X24.4893 Y38.8707
G01 X24.4676 Y38.8383
G01 X24.4600 Y38.8000
G01 X24.4676 Y38.7617
G01 X24.4893 Y38.7293
G01 X24.5217 Y38.7076
G01 X24.5600 Y38.7000
G01 X24.5983 Y38.7076
G01 X24.6307 Y38.7293
G01 X24.6524 Y38.7617
G01 X24.6600 Y38.8000
G00 X24.6600 Y38.8000
G01 F60.00
G01 Z-2.0000
G01 F120.00
G01 X24.6524 Y38.7617
G01 X24.6307 Y38.7293
G01 X24.5983 Y38.7076
G01 X24.5600 Y38.7000
G01 X24.5217 Y38.7076
G01 X24.4893 Y38.7293
G01 X24.4676 Y38.7617
G01 X24.4600 Y38.8000
G01 X24.4676 Y38.8383
G01 X24.4893 Y38.8707
G01 X24.5217 Y38.8924
G01 X24.5600 Y38.9000
G01 X24.5983 Y38.8924
G01 X24.6307 Y38.8707
G01 X24.6524 Y38.8383
G01 X24.6600 Y38.8000
G00 Z2.0000
G00 X22.1200 Y38.8000
G01 F60.00
G01 Z-0.3000
G01 F120.00
G01 X22.1124 Y38.7617
G01 X22.0907 Y38.7293
G01 X22.0583 Y38.7076
G01 X22.0200 Y38.7000
G01 X21.9817 Y38.7076
G01 X21.9493 Y38.7293
G01 X21.9276 Y38.7617
G01 X21.9200 Y38.8000
G01 X21.9276 Y38.8383
G01 X21.9493 Y38.8707
G01 X21.9817 Y38.8924
G01 X22.0200 Y38.9000
G01 X22.0583 Y38.8924
G01 X22.0907 Y38.8707
G01 X22.1124 Y38.8383
G01 X22.1200 Y38.8000
G00 X22.1200 Y38.8000
G01 F60.00
G01 Z-0.6000
G01 F120.00
G01 X22.1124 Y38.8383
G01 X22.0907 Y38.8707
G01 X22.0583 Y38.8924
G01 X22.0200 Y38.9000
G01 X21.9817 Y38.8924
G01 X21.9493 Y38.8707
G01 X21.9276 Y38.8383
G01 X21.9200 Y38.8000
G01 X21.9276 Y38.7617
G01 X21.9493 Y38.7293
G01 X21.9817 Y38.7076
G01 X22.0200 Y38.7000
G01 X22.0583 Y38.7076
G01 X22.0907 Y38.7293
G01 X22.1124 Y38.7617
G01 X22.1200 Y38.8000
G00 X22.1200 Y38.8000
G01 F60.00
G01 Z-0.9000
G01 F120.00
G01 X22.1124 Y38.7617
G01 X22.0907 Y38.7293
G01 X22.0583 Y38.7076
G01 X22.0200 Y38.7000
G01 X21.9817 Y38.7076
G01 X21.9493 Y38.7293
G01 X21.9276 Y38.7617
G01 X21.9200 Y38.8000
G01 X21.9276 Y38.8383
G01 X21.9493 Y38.8707
G01 X21.9817 Y38.8924
G01 X22.0200 Y38.9000
G01 X22.0583 Y38.8924
G01 X22.0907 Y38.8707
G01 X22.1124 Y38.8383
G01 X22.1200 Y38.8000
G00 X22.1200 Y38.8000
G01 F60.00
G01 Z-1.2000
G01 F120.00
G01 X22.1124 Y38.8383
G01 X22.0907 Y38.8707
G01 X22.0583 Y38.8924
G01 X22.0200 Y38.9000
G01 X21.9817 Y38.8924
G01 X21.9493 Y38.8707
G01 X21.9276 Y38.8383
G01 X21.9200 Y38.8000
G01 X21.9276 Y38.7617
G01 X21.9493 Y38.7293
G01 X21.9817 Y38.7076
G01 X22.0200 Y38.7000
G01 X22.0583 Y38.7076
G01 X22.0907 Y38.7293
G01 X22.1124 Y38.7617
G01 X22.1200 Y38.8000
G00 X22.1200 Y38.8000
G01 F60.00
G01 Z-1.5000
G01 F120.00
G01 X22.1124 Y38.7617
G01 X22.0907 Y38.7293
G01 X22.0583 Y38.7076
G01 X22.0200 Y38.7000
G01 X21.9817 Y38.7076
G01 X21.9493 Y38.7293
G01 X21.9276 Y38.7617
G01 X21.9200 Y38.8000
G01 X21.9276 Y38.8383
G01 X21.9493 Y38.8707
G01 X21.9817 Y38.8924
G01 X22.0200 Y38.9000
G01 X22.0583 Y38.8924
G01 X22.0907 Y38.8707
G01 X22.1124 Y38.8383
G01 X22.1200 Y38.8000
G00 X22.1200 Y38.8000
G01 F60.00
G01 Z-1.8000
G01 F120.00
G01 X22.1124 Y38.8383
G01 X22.0907 Y38.8707
G01 X22.0583 Y38.8924
G01 X22.0200 Y38.9000
G01 X21.9817 Y38.8924
G01 X21.9493 Y38.8707
G01 X21.9276 Y38.8383
G01 X21.9200 Y38.8000
G01 X21.9276 Y38.7617
G01 X21.9493 Y38.7293
G01 X21.9817 Y38.7076
G01 X22.0200 Y38.7000
G01 X22.0583 Y38.7076
G01 X22.0907 Y38.7293
G01 X22.1124 Y38.7617
G01 X22.1200 Y38.8000
G00 X22.1200 Y38.8000
G01 F60.00
G01 Z-2.0000
G01 F120.00
G01 X22.1124 Y38.7617
G01 X22.0907 Y38.7293
G01 X22.0583 Y38.7076
G01 X22.0200 Y38.7000
G01 X21.9817 Y38.7076
G01 X21.9493 Y38.7293
G01 X21.9276 Y38.7617
G01 X21.9200 Y38.8000
G01 X21.9276 Y38.8383
G01 X21.9493 Y38.8707
G01 X21.9817 Y38.8924
G01 X22.0200 Y38.9000
G01 X22.0583 Y38.8924
G01 X22.0907 Y38.8707
G01 X22.1124 Y38.8383
G01 X22.1200 Y38.8000
G00 Z2.0000
G00 X19.5800 Y38.8000
G01 F60.00
G01 Z-0.3000
G01 F120.00
G01 X19.5724 Y38.7617
G01 X19.5507 Y38.7293
G01 X19.5183 Y38.7076
G01 X19.4800 Y38.7000
G01 X19.4417 Y38.7076
G01 X19.4093 Y38.7293
G01 X19.3876 Y38.7617
G01 X19.3800 Y38.8000
G01 X19.3876 Y38.8383
G01 X19.4093 Y38.8707
G01 X19.4417 Y38.8924
G01 X19.4800 Y38.9000
G01 X19.5183 Y38.8924
G01 X19.5507 Y38.8707
G01 X19.5724 Y38.8383
G01 X19.5800 Y38.8000
G00 X19.5800 Y38.8000
G01 F60.00
G01 Z-0.6000
G01 F120.00
G01 X19.5724 Y38.8383
G01 X19.5507 Y38.8707
G01 X19.5183 Y38.8924
G01 X19.4800 Y38.9000
G01 X19.4417 Y38.8924
G01 X19.4093 Y38.8707
G01 X19.3876 Y38.8383
G01 X19.3800 Y38.8000
G01 X19.3876 Y38.7617
G01 X19.4093 Y38.7293
G01 X19.4417 Y38.7076
G01 X19.4800 Y38.7000
G01 X19.5183 Y38.7076
G01 X19.5507 Y38.7293
G01 X19.5724 Y38.7617
G01 X19.5800 Y38.8000
G00 X19.5800 Y38.8000
G01 F60.00
G01 Z-0.9000
G01 F120.00
G01 X19.5724 Y38.7617
G01 X19.5507 Y38.7293
G01 X19.5183 Y38.7076
G01 X19.4800 Y38.7000
G01 X19.4417 Y38.7076
G01 X19.4093 Y38.7293
G01 X19.3876 Y38.7617
G01 X19.3800 Y38.8000
G01 X19.3876 Y38.8383
G01 X19.4093 Y38.8707
G01 X19.4417 Y38.8924
G01 X19.4800 Y38.9000
G01 X19.5183 Y38.8924
G01 X19.5507 Y38.8707
G01 X19.5724 Y38.8383
G01 X19.5800 Y38.8000
G00 X19.5800 Y38.8000
G01 F60.00
G01 Z-1.2000
G01 F120.00
G01 X19.5724 Y38.8383
G01 X19.5507 Y38.8707
G01 X19.5183 Y38.8924
G01 X19.4800 Y38.9000
G01 X19.4417 Y38.8924
G01 X19.4093 Y38.8707
G01 X19.3876 Y38.8383
G01 X19.3800 Y38.8000
G01 X19.3876 Y38.7617
G01 X19.4093 Y38.7293
G01 X19.4417 Y38.7076
G01 X19.4800 Y38.7000
G01 X19.5183 Y38.7076
G01 X19.5507 Y38.7293
G01 X19.5724 Y38.7617
G01 X19.5800 Y38.8000
G00 X19.5800 Y38.8000
G01 F60.00
G01 Z-1.5000
G01 F120.00
G01 X19.5724 Y38.7617
G01 X19.5507 Y38.7293
G01 X19.5183 Y38.7076
G01 X19.4800 Y38.7000
G01 X19.4417 Y38.7076
G01 X19.4093 Y38.7293
G01 X19.3876 Y38.7617
G01 X19.3800 Y38.8000
G01 X19.3876 Y38.8383
G01 X19.4093 Y38.8707
G01 X19.4417 Y38.8924
G01 X19.4800 Y38.9000
G01 X19.5183 Y38.8924
G01 X19.5507 Y38.8707
G01 X19.5724 Y38.8383
G01 X19.5800 Y38.8000
G00 X19.5800 Y38.8000
G01 F60.00
G01 Z-1.8000
G01 F120.00
G01 X19.5724 Y38.8383
G01 X19.5507 Y38.8707
G01 X19.5183 Y38.8924
G01 X19.4800 Y38.9000
G01 X19.4417 Y38.8924
G01 X19.4093 Y38.8707
G01 X19.3876 Y38.8383
G01 X19.3800 Y38.8000
G01 X19.3876 Y38.7617
G01 X19.4093 Y38.7293
G01 X19.4417 Y38.7076
G01 X19.4800 Y38.7000
G01 X19.5183 Y38.7076
G01 X19.5507 Y38.7293
G01 X19.5724 Y38.7617
G01 X19.5800 Y38.8000
G00 X19.5800 Y38.8000
G01 F60.00
G01 Z-2.0000
G01 F120.00
G01 X19.5724 Y38.7617
G01 X19.5507 Y38.7293
G01 X19.5183 Y38.7076
G01 X19.4800 Y38.7000
G01 X19.4417 Y38.7076
G01 X19.4093 Y38.7293
G01 X19.3876 Y38.7617
G01 X19.3800 Y38.8000
G01 X19.3876 Y38.8383
G01 X19.4093 Y38.8707
G01 X19.4417 Y38.8924
G01 X19.4800 Y38.9000
G01 X19.5183 Y38.8924
G01 X19.5507 Y38.8707
G01 X19.5724 Y38.8383
G01 X19.5800 Y38.8000
G00 Z2.0000
G00 X17.0400 Y38.8000
G01 F60.00
G01 Z-0.3000
G01 F120.00
G01 X17.0324 Y38.7617
G01 X17.0107 Y38.7293
G01 X16.9783 Y38.7076
G01 X16.9400 Y38.7000
G01 X16.9017 Y38.7076
G01 X16.8693 Y38.7293
G01 X16.8476 Y38.7617
G01 X16.8400 Y38.8000
G01 X16.8476 Y38.8383
G01 X16.8693 Y38.8707
G01 X16.9017 Y38.8924
G01 X16.9400 Y38.9000
G01 X16.9783 Y38.8924
G01 X17.0107 Y38.8707
G01 X17.0324 Y38.8383
G01 X17.0400 Y38.8000
G00 X17.0400 Y38.8000
G01 F60.00
G01 Z-0.6000
G01 F120.00
G01 X17.0324 Y38.8383
G01 X17.0107 Y38.8707
G01 X16.9783 Y38.8924
G01 X16.9400 Y38.9000
G01 X16.9017 Y38.8924
G01 X16.8693 Y38.8707
G01 X16.8476 Y38.8383
G01 X16.8400 Y38.8000
G01 X16.8476 Y38.7617
G01 X16.8693 Y38.7293
G01 X16.9017 Y38.7076
G01 X16.9400 Y38.7000
G01 X16.9783 Y38.7076
G01 X17.0107 Y38.7293
G01 X17.0324 Y38.7617
G01 X17.0400 Y38.8000
G00 X17.0400 Y38.8000
G01 F60.00
G01 Z-0.9000
G01 F120.00
G01 X17.0324 Y38.7617
G01 X17.0107 Y38.7293
G01 X16.9783 Y38.7076
G01 X16.9400 Y38.7000
G01 X16.9017 Y38.7076
G01 X16.8693 Y38.7293
G01 X16.8476 Y38.7617
G01 X16.8400 Y38.8000
G01 X16.8476 Y38.8383
G01 X16.8693 Y38.8707
G01 X16.9017 Y38.8924
G01 X16.9400 Y38.9000
G01 X16.9783 Y38.8924
G01 X17.0107 Y38.8707
G01 X17.0324 Y38.8383
G01 X17.0400 Y38.8000
G00 X17.0400 Y38.8000
G01 F60.00
G01 Z-1.2000
G01 F120.00
G01 X17.0324 Y38.8383
G01 X17.0107 Y38.8707
G01 X16.9783 Y38.8924
G01 X16.9400 Y38.9000
G01 X16.9017 Y38.8924
G01 X16.8693 Y38.8707
G01 X16.8476 Y38.8383
G01 X16.8400 Y38.8000
G01 X16.8476 Y38.7617
G01 X16.8693 Y38.7293
G01 X16.9017 Y38.7076
G01 X16.9400 Y38.7000
G01 X16.9783 Y38.7076
G01 X17.0107 Y38.7293
G01 X17.0324 Y38.7617
G01 X17.0400 Y38.8000
G00 X17.0400 Y38.8000
G01 F60.00
G01 Z-1.5000
G01 F120.00
G01 X17.0324 Y38.7617
G01 X17.0107 Y38.7293
G01 X16.9783 Y38.7076
G01 X16.9400 Y38.7000
G01 X16.9017 Y38.7076
G01 X16.8693 Y38.7293
G01 X16.8476 Y38.7617
G01 X16.8400 Y38.8000
G01 X16.8476 Y38.8383
G01 X16.8693 Y38.8707
G01 X16.9017 Y38.8924
G01 X16.9400 Y38.9000
G01 X16.9783 Y38.8924
G01 X17.0107 Y38.8707
G01 X17.0324 Y38.8383
G01 X17.0400 Y38.8000
G00 X17.0400 Y38.8000
G01 F60.00
G01 Z-1.8000
G01 F120.00
G01 X17.0324 Y38.8383
G01 X17.0107 Y38.8707
G01 X16.9783 Y38.8924
G01 X16.9400 Y38.9000
G01 X16.9017 Y38.8924
G01 X16.8693 Y38.8707
G01 X16.8476 Y38.8383
G01 X16.8400 Y38.8000
G01 X16.8476 Y38.7617
G01 X16.8693 Y38.7293
G01 X16.9017 Y38.7076
G01 X16.9400 Y38.7000
G01 X16.9783 Y38.7076
G01 X17.0107 Y38.7293
G01 X17.0324 Y38.7617
G01 X17.0400 Y38.8000
G00 X17.0400 Y38.8000
G01 F60.00
G01 Z-2.0000
G01 F120.00
G01 X17.0324 Y38.7617
G01 X17.0107 Y38.7293
G01 X16.9783 Y38.7076
G01 X16.9400 Y38.7000
G01 X16.9017 Y38.7076
G01 X16.8693 Y38.7293
G01 X16.8476 Y38.7617
G01 X16.8400 Y38.8000
G01 X16.8476 Y38.8383
G01 X16.8693 Y38.8707
G01 X16.9017 Y38.8924
G01 X16.9400 Y38.9000
G01 X16.9783 Y38.8924
G01 X17.0107 Y38.8707
G01 X17.0324 Y38.8383
G01 X17.0400 Y38.8000
G00 Z2.0000
G00 X5.2500 Y45.8000
G01 F60.00
G01 Z-0.3000
G01 F120.00
G01 X5.2435 Y45.6677
G01 X5.2241 Y45.5366
G01 X5.1919 Y45.4081
G01 X5.1472 Y45.2834
G01 X5.0906 Y45.1636
G01 X5.0225 Y45.0500
G01 X4.9436 Y44.9436
G01 X4.8546 Y44.8454
G01 X4.7564 Y44.7564
G01 X4.6500 Y44.6775
G01 X4.5364 Y44.6094
G01 X4.4166 Y44.5528
G01 X4.2919 Y44.5081
G01 X4.1634 Y44.4759
G01 X4.0323 Y44.4565
G01 X3.9000 Y44.4500
G01 X3.7677 Y44.4565
G01 X3.6366 Y44.4759
G01 X3.5081 Y44.5081
G01 X3.3834 Y44.5528
G01 X3.2636 Y44.6094
G01 X3.1500 Y44.6775
G01 X3.0436 Y44.7564
G01 X2.9454 Y44.8454
G01 X2.8564 Y44.9436
G01 X2.7775 Y45.0500
G01 X2.7094 Y45.1636
G01 X2.6528 Y45.2834
G01 X2.6081 Y45.4081
G01 X2.5759 Y45.5366
G01 X2.5565 Y45.6677
G01 X2.5500 Y45.8000
G01 X2.5565 Y45.9323
G01 X2.5759 Y46.0634
G01 X2.6081 Y46.1919
G01 X2.6528 Y46.3166
G01 X2.7094 Y46.4364
G01 X2.7775 Y46.5500
G01 X2.8564 Y46.6564
G01 X2.9454 Y46.7546
G01 X3.0436 Y46.8436
G01 X3.1500 Y46.9225
G01 X3.2636 Y46.9906
G01 X3.3834 Y47.0472
G01 X3.5081 Y47.0919
G01 X3.6366 Y47.1241
G01 X3.7677 Y47.1435
G01 X3.9000 Y47.1500
G01 X4.0323 Y47.1435
G01 X4.1634 Y47.1241
G01 X4.2919 Y47.0919
G01 X4.4166 Y47.0472
G01 X4.5364 Y46.9906
G01 X4.6500 Y46.9225
G01 X4.7564 Y46.8436
G01 X4.8546 Y46.7546
G01 X4.9436 Y46.6564
G01 X5.0225 Y46.5500
G01 X5.0906 Y46.4364
G01 X5.1472 Y46.3166
G01 X5.1919 Y46.1919
G01 X5.2241 Y46.0634
G01 X5.2435 Y45.9323
G01 X5.2500 Y45.8000
G00 X5.2500 Y45.8000
G01 F60.00
G01 Z-0.6000
G01 F120.00
G01 X5.2435 Y45.9323
G01 X5.2241 Y46.0634
G01 X5.1919 Y46.1919
G01 X5.1472 Y46.3166
G01 X5.0906 Y46.4364
G01 X5.0225 Y46.5500
G01 X4.9436 Y46.6564
G01 X4.8546 Y46.7546
G01 X4.7564 Y46.8436
G01 X4.6500 Y46.9225
G01 X4.5364 Y46.9906
G01 X4.4166 Y47.0472
G01 X4.2919 Y47.0919
G01 X4.1634 Y47.1241
G01 X4.0323 Y47.1435
G01 X3.9000 Y47.1500
G01 X3.7677 Y47.1435
G01 X3.6366 Y47.1241
G01 X3.5081 Y47.0919
G01 X3.3834 Y47.0472
G01 X3.2636 Y46.9906
G01 X3.1500 Y46.9225
G01 X3.0436 Y46.8436
G01 X2.9454 Y46.7546
G01 X2.8564 Y46.6564
G01 X2.7775 Y46.5500
G01 X2.7094 Y46.4364
G01 X2.6528 Y46.3166
G01 X2.6081 Y46.1919
G01 X2.5759 Y46.0634
G01 X2.5565 Y45.9323
G01 X2.5500 Y45.8000
G01 X2.5565 Y45.6677
G01 X2.5759 Y45.5366
G01 X2.6081 Y45.4081
G01 X2.6528 Y45.2834
G01 X2.7094 Y45.1636
G01 X2.7775 Y45.0500
G01 X2.8564 Y44.9436
G01 X2.9454 Y44.8454
G01 X3.0436 Y44.7564
G01 X3.1500 Y44.6775
G01 X3.2636 Y44.6094
G01 X3.3834 Y44.5528
G01 X3.5081 Y44.5081
G01 X3.6366 Y44.4759
G01 X3.7677 Y44.4565
G01 X3.9000 Y44.4500
G01 X4.0323 Y44.4565
G01 X4.1634 Y44.4759
G01 X4.2919 Y44.5081
G01 X4.4166 Y44.5528
G01 X4.5364 Y44.6094
G01 X4.6500 Y44.6775
G01 X4.7564 Y44.7564
G01 X4.8546 Y44.8454
G01 X4.9436 Y44.9436
G01 X5.0225 Y45.0500
G01 X5.0906 Y45.1636
G01 X5.1472 Y45.2834
G01 X5.1919 Y45.4081
G01 X5.2241 Y45.5366
G01 X5.2435 Y45.6677
G01 X5.2500 Y45.8000
G00 X5.2500 Y45.8000
G01 F60.00
G01 Z-0.9000
G01 F120.00
G01 X5.2435 Y45.6677
G01 X5.2241 Y45.5366
G01 X5.1919 Y45.4081
G01 X5.1472 Y45.2834
G01 X5.0906 Y45.1636
G01 X5.0225 Y45.0500
G01 X4.9436 Y44.9436
G01 X4.8546 Y44.8454
G01 X4.7564 Y44.7564
G01 X4.6500 Y44.6775
G01 X4.5364 Y44.6094
G01 X4.4166 Y44.5528
G01 X4.2919 Y44.5081
G01 X4.1634 Y44.4759
G01 X4.0323 Y44.4565
G01 X3.9000 Y44.4500
G01 X3.7677 Y44.4565
G01 X3.6366 Y44.4759
G01 X3.5081 Y44.5081
G01 X3.3834 Y44.5528
G01 X3.2636 Y44.6094
G01 X3.1500 Y44.6775
G01 X3.0436 Y44.7564
G01 X2.9454 Y44.8454
G01 X2.8564 Y44.9436
G01 X2.7775 Y45.0500
G01 X2.7094 Y45.1636
G01 X2.6528 Y45.2834
G01 X2.6081 Y45.4081
G01 X2.5759 Y45.5366
G01 X2.5565 Y45.6677
G01 X2.5500 Y45.8000
G01 X2.5565 Y45.9323
G01 X2.5759 Y46.0634
G01 X2.6081 Y46.1919
G01 X2.6528 Y46.3166
G01 X2.7094 Y46.4364
G01 X2.7775 Y46.5500
G01 X2.8564 Y46.6564
G01 X2.9454 Y46.7546
G01 X3.0436 Y46.8436
G01 X3.1500 Y46.9225
G01 X3.2636 Y46.9906
G01 X3.3834 Y47.0472
G01 X3.5081 Y47.0919
G01 X3.6366 Y47.1241
G01 X3.7677 Y47.1435
G01 X3.9000 Y47.1500
G01 X4.0323 Y47.1435
G01 X4.1634 Y47.1241
G01 X4.2919 Y47.0919
G01 X4.4166 Y47.0472
G01 X4.5364 Y46.9906
G01 X4.6500 Y46.9225
G01 X4.7564 Y46.8436
G01 X4.8546 Y46.7546
G01 X4.9436 Y46.6564
G01 X5.0225 Y46.5500
G01 X5.0906 Y46.4364
G01 X5.1472 Y46.3166
G01 X5.1919 Y46.1919
G01 X5.2241 Y46.0634
G01 X5.2435 Y45.9323
G01 X5.2500 Y45.8000
G00 X5.2500 Y45.8000
G01 F60.00
G01 Z-1.2000
G01 F120.00
G01 X5.2435 Y45.9323
G01 X5.2241 Y46.0634
G01 X5.1919 Y46.1919
G01 X5.1472 Y46.3166
G01 X5.0906 Y46.4364
G01 X5.0225 Y46.5500
G01 X4.9436 Y46.6564
G01 X4.8546 Y46.7546
G01 X4.7564 Y46.8436
G01 X4.6500 Y46.9225
G01 X4.5364 Y46.9906
G01 X4.4166 Y47.0472
G01 X4.2919 Y47.0919
G01 X4.1634 Y47.1241
G01 X4.0323 Y47.1435
G01 X3.9000 Y47.1500
G01 X3.7677 Y47.1435
G01 X3.6366 Y47.1241
G01 X3.5081 Y47.0919
G01 X3.3834 Y47.0472
G01 X3.2636 Y46.9906
G01 X3.1500 Y46.9225
G01 X3.0436 Y46.8436
G01 X2.9454 Y46.7546
G01 X2.8564 Y46.6564
G01 X2.7775 Y46.5500
G01 X2.7094 Y46.4364
G01 X2.6528 Y46.3166
G01 X2.6081 Y46.1919
G01 X2.5759 Y46.0634
G01 X2.5565 Y45.9323
G01 X2.5500 Y45.8000
G01 X2.5565 Y45.6677
G01 X2.5759 Y45.5366
G01 X2.6081 Y45.4081
G01 X2.6528 Y45.2834
G01 X2.7094 Y45.1636
G01 X2.7775 Y45.0500
G01 X2.8564 Y44.9436
G01 X2.9454 Y44.8454
G01 X3.0436 Y44.7564
G01 X3.1500 Y44.6775
G01 X3.2636 Y44.6094
G01 X3.3834 Y44.5528
G01 X3.5081 Y44.5081
G01 X3.6366 Y44.4759
G01 X3.7677 Y44.4565
G01 X3.9000 Y44.4500
G01 X4.0323 Y44.4565
G01 X4.1634 Y44.4759
G01 X4.2919 Y44.5081
G01 X4.4166 Y44.5528
G01 X4.5364 Y44.6094
G01 X4.6500 Y44.6775
G01 X4.7564 Y44.7564
G01 X4.8546 Y44.8454
G01 X4.9436 Y44.9436
G01 X5.0225 Y45.0500
G01 X5.0906 Y45.1636
G01 X5.1472 Y45.2834
G01 X5.1919 Y45.4081
G01 X5.2241 Y45.5366
G01 X5.2435 Y45.6677
G01 X5.2500 Y45.8000
G00 X5.2500 Y45.8000
G01 F60.00
G01 Z-1.5000
G01 F120.00
G01 X5.2435 Y45.6677
G01 X5.2241 Y45.5366
G01 X5.1919 Y45.4081
G01 X5.1472 Y45.2834
G01 X5.0906 Y45.1636
G01 X5.0225 Y45.0500
G01 X4.9436 Y44.9436
G01 X4.8546 Y44.8454
G01 X4.7564 Y44.7564
G01 X4.6500 Y44.6775
G01 X4.5364 Y44.6094
G01 X4.4166 Y44.5528
G01 X4.2919 Y44.5081
G01 X4.1634 Y44.4759
G01 X4.0323 Y44.4565
G01 X3.9000 Y44.4500
G01 X3.7677 Y44.4565
G01 X3.6366 Y44.4759
G01 X3.5081 Y44.5081
G01 X3.3834 Y44.5528
G01 X3.2636 Y44.6094
G01 X3.1500 Y44.6775
G01 X3.0436 Y44.7564
G01 X2.9454 Y44.8454
G01 X2.8564 Y44.9436
G01 X2.7775 Y45.0500
G01 X2.7094 Y45.1636
G01 X2.6528 Y45.2834
G01 X2.6081 Y45.4081
G01 X2.5759 Y45.5366
G01 X2.5565 Y45.6677
G01 X2.5500 Y45.8000
G01 X2.5565 Y45.9323
G01 X2.5759 Y46.0634
G01 X2.6081 Y46.1919
G01 X2.6528 Y46.3166
G01 X2.7094 Y46.4364
G01 X2.7775 Y46.5500
G01 X2.8564 Y46.6564
G01 X2.9454 Y46.7546
G01 X3.0436 Y46.8436
G01 X3.1500 Y46.9225
G01 X3.2636 Y46.9906
G01 X3.3834 Y47.0472
G01 X3.5081 Y47.0919
G01 X3.6366 Y47.1241
G01 X3.7677 Y47.1435
G01 X3.9000 Y47.1500
G01 X4.0323 Y47.1435
G01 X4.1634 Y47.1241
G01 X4.2919 Y47.0919
G01 X4.4166 Y47.0472
G01 X4.5364 Y46.9906
G01 X4.6500 Y46.9225
G01 X4.7564 Y46.8436
G01 X4.8546 Y46.7546
G01 X4.9436 Y46.6564
G01 X5.0225 Y46.5500
G01 X5.0906 Y46.4364
G01 X5.1472 Y46.3166
G01 X5.1919 Y46.1919
G01 X5.2241 Y46.0634
G01 X5.2435 Y45.9323
G01 X5.2500 Y45.8000
G00 X5.2500 Y45.8000
G01 F60.00
G01 Z-1.8000
G01 F120.00
G01 X5.2435 Y45.9323
G01 X5.2241 Y46.0634
G01 X5.1919 Y46.1919
G01 X5.1472 Y46.3166
G01 X5.0906 Y46.4364
G01 X5.0225 Y46.5500
G01 X4.9436 Y46.6564
G01 X4.8546 Y46.7546
G01 X4.7564 Y46.8436
G01 X4.6500 Y46.9225
G01 X4.5364 Y46.9906
G01 X4.4166 Y47.0472
G01 X4.2919 Y47.0919
G01 X4.1634 Y47.1241
G01 X4.0323 Y47.1435
G01 X3.9000 Y47.1500
G01 X3.7677 Y47.1435
G01 X3.6366 Y47.1241
G01 X3.5081 Y47.0919
G01 X3.3834 Y47.0472
G01 X3.2636 Y46.9906
G01 X3.1500 Y46.9225
G01 X3.0436 Y46.8436
G01 X2.9454 Y46.7546
G01 X2.8564 Y46.6564
G01 X2.7775 Y46.5500
G01 X2.7094 Y46.4364
G01 X2.6528 Y46.3166
G01 X2.6081 Y46.1919
G01 X2.5759 Y46.0634
G01 X2.5565 Y45.9323
G01 X2.5500 Y45.8000
G01 X2.5565 Y45.6677
G01 X2.5759 Y45.5366
G01 X2.6081 Y45.4081
G01 X2.6528 Y45.2834
G01 X2.7094 Y45.1636
G01 X2.7775 Y45.0500
G01 X2.8564 Y44.9436
G01 X2.9454 Y44.8454
G01 X3.0436 Y44.7564
G01 X3.1500 Y44.6775
G01 X3.2636 Y44.6094
G01 X3.3834 Y44.5528
G01 X3.5081 Y44.5081
G01 X3.6366 Y44.4759
G01 X3.7677 Y44.4565
G01 X3.9000 Y44.4500
G01 X4.0323 Y44.4565
G01 X4.1634 Y44.4759
G01 X4.2919 Y44.5081
G01 X4.4166 Y44.5528
G01 X4.5364 Y44.6094
G01 X4.6500 Y44.6775
G01 X4.7564 Y44.7564
G01 X4.8546 Y44.8454
G01 X4.9436 Y44.9436
G01 X5.0225 Y45.0500
G01 X5.0906 Y45.1636
G01 X5.1472 Y45.2834
G01 X5.1919 Y45.4081
G01 X5.2241 Y45.5366
G01 X5.2435 Y45.6677
G01 X5.2500 Y45.8000
G00 X5.2500 Y45.8000
G01 F60.00
G01 Z-2.0000
G01 F120.00
G01 X5.2435 Y45.6677
G01 X5.2241 Y45.5366
G01 X5.1919 Y45.4081
G01 X5.1472 Y45.2834
G01 X5.0906 Y45.1636
G01 X5.0225 Y45.0500
G01 X4.9436 Y44.9436
G01 X4.8546 Y44.8454
G01 X4.7564 Y44.7564
G01 X4.6500 Y44.6775
G01 X4.5364 Y44.6094
G01 X4.4166 Y44.5528
G01 X4.2919 Y44.5081
G01 X4.1634 Y44.4759
G01 X4.0323 Y44.4565
G01 X3.9000 Y44.4500
G01 X3.7677 Y44.4565
G01 X3.6366 Y44.4759
G01 X3.5081 Y44.5081
G01 X3.3834 Y44.5528
G01 X3.2636 Y44.6094
G01 X3.1500 Y44.6775
G01 X3.0436 Y44.7564
G01 X2.9454 Y44.8454
G01 X2.8564 Y44.9436
G01 X2.7775 Y45.0500
G01 X2.7094 Y45.1636
G01 X2.6528 Y45.2834
G01 X2.6081 Y45.4081
G01 X2.5759 Y45.5366
G01 X2.5565 Y45.6677
G01 X2.5500 Y45.8000
G01 X2.5565 Y45.9323
G01 X2.5759 Y46.0634
G01 X2.6081 Y46.1919
G01 X2.6528 Y46.3166
G01 X2.7094 Y46.4364
G01 X2.7775 Y46.5500
G01 X2.8564 Y46.6564
G01 X2.9454 Y46.7546
G01 X3.0436 Y46.8436
G01 X3.1500 Y46.9225
G01 X3.2636 Y46.9906
G01 X3.3834 Y47.0472
G01 X3.5081 Y47.0919
G01 X3.6366 Y47.1241
G01 X3.7677 Y47.1435
G01 X3.9000 Y47.1500
G01 X4.0323 Y47.1435
G01 X4.1634 Y47.1241
G01 X4.2919 Y47.0919
G01 X4.4166 Y47.0472
G01 X4.5364 Y46.9906
G01 X4.6500 Y46.9225
G01 X4.7564 Y46.8436
G01 X4.8546 Y46.7546
G01 X4.9436 Y46.6564
G01 X5.0225 Y46.5500
G01 X5.0906 Y46.4364
G01 X5.1472 Y46.3166
G01 X5.1919 Y46.1919
G01 X5.2241 Y46.0634
G01 X5.2435 Y45.9323
G01 X5.2500 Y45.8000
G00 Z2.0000
G00 X42.3200 Y34.4300
G01 F60.00
G01 Z-0.3000
G01 F120.00
G01 X42.3124 Y34.3917
G01 X42.2907 Y34.3593
G01 X42.2583 Y34.3376
G01 X42.2200 Y34.3300
G01 X42.1817 Y34.3376
G01 X42.1493 Y34.3593
G01 X42.1276 Y34.3917
G01 X42.1200 Y34.4300
G01 X42.1276 Y34.4683
G01 X42.1493 Y34.5007
G01 X42.1817 Y34.5224
G01 X42.2200 Y34.5300
G01 X42.2583 Y34.5224
G01 X42.2907 Y34.5007
G01 X42.3124 Y34.4683
G01 X42.3200 Y34.4300
G00 X42.3200 Y34.4300
G01 F60.00
G01 Z-0.6000
G01 F120.00
G01 X42.3124 Y34.4683
G01 X42.2907 Y34.5007
G01 X42.2583 Y34.5224
G01 X42.2200 Y34.5300
G01 X42.1817 Y34.5224
G01 X42.1493 Y34.5007
G01 X42.1276 Y34.4683
G01 X42.1200 Y34.4300
G01 X42.1276 Y34.3917
G01 X42.1493 Y34.3593
G01 X42.1817 Y34.3376
G01 X42.2200 Y34.3300
G01 X42.2583 Y34.3376
G01 X42.2907 Y34.3593
G01 X42.3124 Y34.3917
G01 X42.3200 Y34.4300
G00 X42.3200 Y34.4300
G01 F60.00
G01 Z-0.9000
G01 F120.00
G01 X42.3124 Y34.3917
G01 X42.2907 Y34.3593
G01 X42.2583 Y34.3376
G01 X42.2200 Y34.3300
G01 X42.1817 Y34.3376
G01 X42.1493 Y34.3593
G01 X42.1276 Y34.3917
G01 X42.1200 Y34.4300
G01 X42.1276 Y34.4683
G01 X42.1493 Y34.5007
G01 X42.1817 Y34.5224
G01 X42.2200 Y34.5300
G01 X42.2583 Y34.5224
G01 X42.2907 Y34.5007
G01 X42.3124 Y34.4683
G01 X42.3200 Y34.4300
G00 X42.3200 Y34.4300
G01 F60.00
G01 Z-1.2000
G01 F120.00
G01 X42.3124 Y34.4683
G01 X42.2907 Y34.5007
G01 X42.2583 Y34.5224
G01 X42.2200 Y34.5300
G01 X42.1817 Y34.5224
G01 X42.1493 Y34.5007
G01 X42.1276 Y34.4683
G01 X42.1200 Y34.4300
G01 X42.1276 Y34.3917
G01 X42.1493 Y34.3593
G01 X42.1817 Y34.3376
G01 X42.2200 Y34.3300
G01 X42.2583 Y34.3376
G01 X42.2907 Y34.3593
G01 X42.3124 Y34.3917
G01 X42.3200 Y34.4300
G00 X42.3200 Y34.4300
G01 F60.00
G01 Z-1.5000
G01 F120.00
G01 X42.3124 Y34.3917
G01 X42.2907 Y34.3593
G01 X42.2583 Y34.3376
G01 X42.2200 Y34.3300
G01 X42.1817 Y34.3376
G01 X42.1493 Y34.3593
G01 X42.1276 Y34.3917
G01 X42.1200 Y34.4300
G01 X42.1276 Y34.4683
G01 X42.1493 Y34.5007
G01 X42.1817 Y34.5224
G01 X42.2200 Y34.5300
G01 X42.2583 Y34.5224
G01 X42.2907 Y34.5007
G01 X42.3124 Y34.4683
G01 X42.3200 Y34.4300
G00 X42.3200 Y34.4300
G01 F60.00
G01 Z-1.8000
G01 F120.00
G01 X42.3124 Y34.4683
G01 X42.2907 Y34.5007
G01 X42.2583 Y34.5224
G01 X42.2200 Y34.5300
G01 X42.1817 Y34.5224
G01 X42.1493 Y34.5007
G01 X42.1276 Y34.4683
G01 X42.1200 Y34.4300
G01 X42.1276 Y34.3917
G01 X42.1493 Y34.3593
G01 X42.1817 Y34.3376
G01 X42.2200 Y34.3300
G01 X42.2583 Y34.3376
G01 X42.2907 Y34.3593
G01 X42.3124 Y34.3917
G01 X42.3200 Y34.4300
G00 X42.3200 Y34.4300
G01 F60.00
G01 Z-2.0000
G01 F120.00
G01 X42.3124 Y34.3917
G01 X42.2907 Y34.3593
G01 X42.2583 Y34.3376
G01 X42.2200 Y34.3300
G01 X42.1817 Y34.3376
G01 X42.1493 Y34.3593
G01 X42.1276 Y34.3917
G01 X42.1200 Y34.4300
G01 X42.1276 Y34.4683
G01 X42.1493 Y34.5007
G01 X42.1817 Y34.5224
G01 X42.2200 Y34.5300
G01 X42.2583 Y34.5224
G01 X42.2907 Y34.5007
G01 X42.3124 Y34.4683
G01 X42.3200 Y34.4300
G00 Z2.0000
G00 X44.8600 Y34.4300
G01 F60.00
G01 Z-0.3000
G01 F120.00
G01 X44.8524 Y34.3917
G01 X44.8307 Y34.3593
G01 X44.7983 Y34.3376
G01 X44.7600 Y34.3300
G01 X44.7217 Y34.3376
G01 X44.6893 Y34.3593
G01 X44.6676 Y34.3917
G01 X44.6600 Y34.4300
G01 X44.6676 Y34.4683
G01 X44.6893 Y34.5007
G01 X44.7217 Y34.5224
G01 X44.7600 Y34.5300
G01 X44.7983 Y34.5224
G01 X44.8307 Y34.5007
G01 X44.8524 Y34.4683
G01 X44.8600 Y34.4300
G00 X44.8600 Y34.4300
