(G-code generated by FlatCAM Evo vUnstable - Version Date: 2023/6/31)

(Name: CNC_Coolant_Pump_Control-Edge_Cuts.gm1_cutout_cnc)
(Type: G-code from Geometry)
(Units: MM)

(Created on Tuesday, 17 February 2026 at 21:32)

(This preprocessor is used with a motion controller loaded with GRBL firmware.)
(It is configured to be compatible with almost any version of GRBL firmware.)

(TOOL DIAMETER: 1.6 mm)
(Feedrate_XY: 120.0 mm/min)
(Feedrate_Z: 60.0 mm/min)
(Feedrate rapids 1500.0 mm/min)

(Z_Cut: -2.0 mm)
(DepthPerCut: 0.6 mm <=>4 passes)
(Z_Move: 2.0 mm)
(Z Start: None mm)
(Z End: 5.0 mm)
(X,Y End: None mm)
(Steps per circle: 16)
(Preprocessor Geometry: GRBL_11)

(X range:   -0.8250 ...   60.8250  mm)
(Y range:   -0.8250 ...   50.8250  mm)

(Spindle Speed: 20000.0 RPM)
G21
G90
G17
G94


G01 F120.00
G00 Z2.0000

M03 S20000.0
G01 F120.00
G00 X-0.8248 Y50.0196
G01 F60.00
G01 Z-0.6000
G01 F120.00
G01 X-0.8092 Y50.1610 F120.00
G01 X-0.7622 Y50.3157 F120.00
G01 X-0.6860 Y50.4584 F120.00
G01 X-0.5834 Y50.5834 F120.00
G01 X-0.4584 Y50.6860 F120.00
G01 X-0.3157 Y50.7622 F120.00
G01 X-0.1610 Y50.8092 F120.00
G01 X0.0000 Y50.8250 F120.00
G01 X60.0000 Y50.8250 F120.00
G01 X60.1223 Y50.8159 F120.00
G01 X60.2768 Y50.7772 F120.00
G01 X60.3889 Y50.7276 F120.00
G01 X60.5234 Y50.6377 F120.00
G01 X60.6377 Y50.5234 F120.00
G01 X60.6860 Y50.4583 F120.00
G01 X60.7453 Y50.3538 F120.00
G01 X60.8006 Y50.1993 F120.00
G01 X60.8210 Y50.0809 F120.00
G01 X60.8250 Y50.0000 F120.00
G01 X60.8250 Y0.0000 F120.00
G01 X60.8092 Y-0.1610 F120.00
G01 X60.7763 Y-0.2791 F120.00
G01 X60.7082 Y-0.4231 F120.00
G01 X60.6377 Y-0.5234 F120.00
G01 X60.5834 Y-0.5834 F120.00
G01 X60.4924 Y-0.6619 F120.00
G01 X60.3516 Y-0.7463 F120.00
G01 X60.2395 Y-0.7895 F120.00
G01 X60.1610 Y-0.8092 F120.00
G01 X60.0000 Y-0.8250 F120.00
G01 X0.0000 Y-0.8250 F120.00
G01 X-0.1223 Y-0.8159 F120.00
G01 X-0.2768 Y-0.7772 F120.00
G01 X-0.3889 Y-0.7276 F120.00
G01 X-0.5234 Y-0.6377 F120.00
G01 X-0.6377 Y-0.5234 F120.00
G01 X-0.6860 Y-0.4584 F120.00
G01 X-0.7453 Y-0.3538 F120.00
G01 X-0.8006 Y-0.1993 F120.00
G01 X-0.8210 Y-0.0809 F120.00
G01 X-0.8250 Y0.0000 F120.00
G01 X-0.8248 Y50.0196 F120.00
G00 X-0.8248 Y50.0196
G01 F60.00
G01 Z-1.2000
G01 F120.00
G01 X-0.8250 Y0.0000 F120.00
G01 X-0.8210 Y-0.0809 F120.00
G01 X-0.8006 Y-0.1993 F120.00
G01 X-0.7453 Y-0.3538 F120.00
G01 X-0.6860 Y-0.4584 F120.00
G01 X-0.6377 Y-0.5234 F120.00
G01 X-0.5234 Y-0.6377 F120.00
G01 X-0.3889 Y-0.7276 F120.00
G01 X-0.2768 Y-0.7772 F120.00
G01 X-0.1223 Y-0.8159 F120.00
G01 X0.0000 Y-0.8250 F120.00
G01 X60.0000 Y-0.8250 F120.00
G01 X60.1610 Y-0.8092 F120.00
G01 X60.2395 Y-0.7895 F120.00
G01 X60.3516 Y-0.7463 F120.00
G01 X60.4924 Y-0.6619 F120.00
G01 X60.5834 Y-0.5834 F120.00
G01 X60.6377 Y-0.5234 F120.00
G01 X60.7082 Y-0.4231 F120.00
G01 X60.7763 Y-0.2791 F120.00
G01 X60.8092 Y-0.1610 F120.00
G01 X60.8250 Y0.0000 F120.00
G01 X60.8250 Y50.0000 F120.00
G01 X60.8210 Y50.0809 F120.00
G01 X60.8006 Y50.1993 F120.00
G01 X60.7453 Y50.3538 F120.00
G01 X60.6860 Y50.4583 F120.00
G01 X60.6377 Y50.5234 F120.00
G01 X60.5234 Y50.6377 F120.00
G01 X60.3889 Y50.7276 F120.00
G01 X60.2768 Y50.7772 F120.00
G01 X60.1223 Y50.8159 F120.00
G01 X60.0000 Y50.8250 F120.00
G01 X0.0000 Y50.8250 F120.00
G01 X-0.1610 Y50.8092 F120.00
G01 X-0.3157 Y50.7622 F120.00
G01 X-0.4584 Y50.6860 F120.00
G01 X-0.5834 Y50.5834 F120.00
G01 X-0.6860 Y50.4584 F120.00
G01 X-0.7622 Y50.3157 F120.00
G01 X-0.8092 Y50.1610 F120.00
G01 X-0.8248 Y50.0196 F120.00
G00 X-0.8248 Y50.0196
G01 F60.00
G01 Z-1.8000
G01 F120.00
G01 X-0.8092 Y50.1610 F120.00
G01 X-0.7622 Y50.3157 F120.00
G01 X-0.6860 Y50.4584 F120.00
G01 X-0.5834 Y50.5834 F120.00
G01 X-0.4584 Y50.6860 F120.00
G01 X-0.3157 Y50.7622 F120.00
G01 X-0.1610 Y50.8092 F120.00
G01 X0.0000 Y50.8250 F120.00
G01 X60.0000 Y50.8250 F120.00
G01 X60.1223 Y50.8159 F120.00
G01 X60.2768 Y50.7772 F120.00
G01 X60.3889 Y50.7276 F120.00
G01 X60.5234 Y50.6377 F120.00
G01 X60.6377 Y50.5234 F120.00
G01 X60.6860 Y50.4583 F120.00
G01 X60.7453 Y50.3538 F120.00
G01 X60.8006 Y50.1993 F120.00
G01 X60.8210 Y50.0809 F120.00
G01 X60.8250 Y50.0000 F120.00
G01 X60.8250 Y0.0000 F120.00
G01 X60.8092 Y-0.1610 F120.00
G01 X60.7763 Y-0.2791 F120.00
G01 X60.7082 Y-0.4231 F120.00
G01 X60.6377 Y-0.5234 F120.00
G01 X60.5834 Y-0.5834 F120.00
G01 X60.4924 Y-0.6619 F120.00
G01 X60.3516 Y-0.7463 F120.00
G01 X60.2395 Y-0.7895 F120.00
G01 X60.1610 Y-0.8092 F120.00
G01 X60.0000 Y-0.8250 F120.00
G01 X0.0000 Y-0.8250 F120.00
G01 X-0.1223 Y-0.8159 F120.00
G01 X-0.2768 Y-0.7772 F120.00
G01 X-0.3889 Y-0.7276 F120.00
G01 X-0.5234 Y-0.6377 F120.00
G01 X-0.6377 Y-0.5234 F120.00
G01 X-0.6860 Y-0.4584 F120.00
G01 X-0.7453 Y-0.3538 F120.00
G01 X-0.8006 Y-0.1993 F120.00
G01 X-0.8210 Y-0.0809 F120.00
G01 X-0.8250 Y0.0000 F120.00
G01 X-0.8248 Y50.0196 F120.00
G00 X-0.8248 Y50.0196
G01 F60.00
G01 Z-2.0000
G01 F120.00
G01 X-0.8250 Y0.0000 F120.00
G01 X-0.8210 Y-0.0809 F120.00
G01 X-0.8006 Y-0.1993 F120.00
G01 X-0.7453 Y-0.3538 F120.00
G01 X-0.6860 Y-0.4584 F120.00
G01 X-0.6377 Y-0.5234 F120.00
G01 X-0.5234 Y-0.6377 F120.00
G01 X-0.3889 Y-0.7276 F120.00
G01 X-0.2768 Y-0.7772 F120.00
G01 X-0.1223 Y-0.8159 F120.00
G01 X0.0000 Y-0.8250 F120.00
G01 X60.0000 Y-0.8250 F120.00
G01 X60.1610 Y-0.8092 F120.00
G01 X60.2395 Y-0.7895 F120.00
G01 X60.3516 Y-0.7463 F120.00
G01 X60.4924 Y-0.6619 F120.00
G01 X60.5834 Y-0.5834 F120.00
G01 X60.6377 Y-0.5234 F120.00
G01 X60.7082 Y-0.4231 F120.00
G01 X60.7763 Y-0.2791 F120.00
G01 X60.8092 Y-0.1610 F120.00
G01 X60.8250 Y0.0000 F120.00
G01 X60.8250 Y50.0000 F120.00
G01 X60.8210 Y50.0809 F120.00
G01 X60.8006 Y50.1993 F120.00
G01 X60.7453 Y50.3538 F120.00
G01 X60.6860 Y50.4583 F120.00
G01 X60.6377 Y50.5234 F120.00
G01 X60.5234 Y50.6377 F120.00
G01 X60.3889 Y50.7276 F120.00
G01 X60.2768 Y50.7772 F120.00
G01 X60.1223 Y50.8159 F120.00
G01 X60.0000 Y50.8250 F120.00
G01 X0.0000 Y50.8250 F120.00
G01 X-0.1610 Y50.8092 F120.00
G01 X-0.3157 Y50.7622 F120.00
G01 X-0.4584 Y50.6860 F120.00
G01 X-0.5834 Y50.5834 F120.00
G01 X-0.6860 Y50.4584 F120.00
G01 X-0.7622 Y50.3157 F120.00
G01 X-0.8092 Y50.1610 F120.00
G01 X-0.8248 Y50.0196 F120.00
G00 Z2.0000
M05
G00 Z2.0000
G00 Z5.00


